; generated by Slic3r Prusa Edition 1.42.0-alpha1+ on 2019-01-09 at 11:38:47

; 

; external perimeters extrusion width = 0.45mm
; perimeters extrusion width = 0.45mm
; infill extrusion width = 0.45mm
; solid infill extrusion width = 0.45mm
; top infill extrusion width = 0.40mm
; first layer extrusion width = 0.42mm

M201 X9000 Y9000 Z500 E10000 ; sets maximum accelerations, mm/sec^2
M203 X500 Y500 Z12 E120 ; sets maximum feedrates, mm/sec
M204 P2000 R1500 T2000 ; sets acceleration (P, T) and retract acceleration (R), mm/sec^2
M205 X10.00 Y10.00 Z0.20 E2.50 ; sets the jerk limits, mm/sec
M205 S0 T0 ; sets the minimum extruding and travel feed rate, mm/sec
M107 ; disable fan
M115 U3.1.0 ; tell printer latest fw version
M83  ; extruder relative mode
M204 S2000 T1500 ; MK2 firmware only supports the old M204 format
M104 S230 ; set extruder temp
M140 S85 ; set bed temp
M190 S85 ; wait for bed temp
M109 S230 ; wait for extruder temp
G28 W ; home all without mesh bed level
G29 ; bed leveling
G1 Y-3.0 F1000.0 ; go outside print area
G92 E0.0
G1 X60.0 E9.0  F1000.0 ; intro line
G1 X100.0 E12.5  F1000.0 ; intro line
G92 E0.0
M900 K45; Filament gcode
G21 ; set units to millimeters
G90 ; use absolute coordinates
M83 ; use relative distances for extrusion
;BEFORE_LAYER_CHANGE
G92 E0.0
;0.2


G1 E-0.80000 F2100.00000 ; retract
G1 Z0.600 F10800.000 ; lift Z
;AFTER_LAYER_CHANGE
;0.2
G1 X104.763 Y98.049 ; move to first skirt point
G1 Z0.200 ; restore layer Z
G1 E0.80000 F2100.00000 ; unretract
M204 S1000 ; adjust acceleration
G1 F600
G1 X104.865 Y97.943 E0.00462 ; skirt
G1 X104.901 Y97.906 E0.00161 ; skirt
G1 X104.940 Y97.867 E0.00174 ; skirt
G1 X105.044 Y97.768 E0.00449 ; skirt
G1 X105.079 Y97.736 E0.00149 ; skirt
G1 X105.114 Y97.705 E0.00149 ; skirt
G1 X105.226 Y97.608 E0.00462 ; skirt
G1 X105.265 Y97.575 E0.00161 ; skirt
G1 X105.309 Y97.540 E0.00174 ; skirt
G1 X105.418 Y97.455 E0.00437 ; skirt
G1 X105.456 Y97.426 E0.00149 ; skirt
G1 X105.494 Y97.398 E0.00149 ; skirt
G1 X105.615 Y97.313 E0.00462 ; skirt
G1 X105.647 Y97.291 E0.00124 ; skirt
G1 X105.680 Y97.269 E0.00124 ; skirt
G1 X105.713 Y97.247 E0.00124 ; skirt
G1 X105.828 Y97.175 E0.00425 ; skirt
G1 X105.879 Y97.144 E0.00186 ; skirt
G1 X105.920 Y97.120 E0.00149 ; skirt
G1 X106.044 Y97.049 E0.00449 ; skirt
G1 X106.089 Y97.025 E0.00161 ; skirt
G1 X106.132 Y97.003 E0.00149 ; skirt
G1 X106.260 Y96.938 E0.00449 ; skirt
G1 X106.306 Y96.916 E0.00161 ; skirt
G1 X106.353 Y96.894 E0.00161 ; skirt
G1 X106.480 Y96.838 E0.00437 ; skirt
G1 X106.524 Y96.819 E0.00149 ; skirt
G1 X106.568 Y96.801 E0.00149 ; skirt
G1 X106.705 Y96.748 E0.00462 ; skirt
G1 X106.742 Y96.734 E0.00124 ; skirt
G1 X106.779 Y96.721 E0.00124 ; skirt
G1 X106.813 Y96.709 E0.00112 ; skirt
G1 X106.942 Y96.667 E0.00424 ; skirt
G1 X106.979 Y96.655 E0.00124 ; skirt
G1 X107.040 Y96.637 E0.00199 ; skirt
G1 X107.178 Y96.599 E0.00449 ; skirt
G1 X107.235 Y96.584 E0.00186 ; skirt
G1 X107.293 Y96.570 E0.00184 ; skirt
G1 X107.437 Y96.538 E0.00464 ; skirt
G1 X107.480 Y96.529 E0.00136 ; skirt
G1 X107.522 Y96.521 E0.00136 ; skirt
G1 X107.664 Y96.497 E0.00449 ; skirt
G1 X107.726 Y96.487 E0.00199 ; skirt
G1 X107.769 Y96.481 E0.00136 ; skirt
G1 X107.900 Y96.465 E0.00412 ; skirt
G1 X107.967 Y96.458 E0.00211 ; skirt
G1 X108.014 Y96.454 E0.00149 ; skirt
G1 X108.141 Y96.444 E0.00400 ; skirt
G1 X108.200 Y96.441 E0.00186 ; skirt
G1 X108.260 Y96.438 E0.00186 ; skirt
G1 X108.391 Y96.435 E0.00412 ; skirt
G1 X108.427 Y96.434 E0.00112 ; skirt
G1 X141.554 Y96.434 E1.03868 ; skirt
G1 X141.605 Y96.435 E0.00161 ; skirt
G1 X141.733 Y96.438 E0.00401 ; skirt
G1 X141.796 Y96.440 E0.00199 ; skirt
G1 X141.859 Y96.444 E0.00196 ; skirt
G1 X141.987 Y96.454 E0.00402 ; skirt
G1 X142.038 Y96.458 E0.00161 ; skirt
G1 X142.104 Y96.465 E0.00209 ; skirt
G1 X142.231 Y96.481 E0.00402 ; skirt
G1 X142.282 Y96.488 E0.00161 ; skirt
G1 X142.345 Y96.498 E0.00199 ; skirt
G1 X142.474 Y96.521 E0.00412 ; skirt
G1 X142.513 Y96.528 E0.00124 ; skirt
G1 X142.548 Y96.535 E0.00112 ; skirt
G1 X142.583 Y96.542 E0.00112 ; skirt
G1 X142.715 Y96.572 E0.00424 ; skirt
G1 X142.761 Y96.583 E0.00149 ; skirt
G1 X142.823 Y96.599 E0.00199 ; skirt
G1 X142.949 Y96.634 E0.00412 ; skirt
G1 X142.987 Y96.645 E0.00124 ; skirt
G1 X143.021 Y96.655 E0.00112 ; skirt
G1 X143.055 Y96.666 E0.00112 ; skirt
G1 X143.184 Y96.708 E0.00425 ; skirt
G1 X143.221 Y96.721 E0.00124 ; skirt
G1 X143.285 Y96.744 E0.00211 ; skirt
G1 X143.411 Y96.793 E0.00424 ; skirt
G1 X143.470 Y96.816 E0.00199 ; skirt
G1 X143.527 Y96.841 E0.00196 ; skirt
G1 X143.666 Y96.903 E0.00476 ; skirt
G1 X143.705 Y96.921 E0.00136 ; skirt
G1 X143.748 Y96.942 E0.00149 ; skirt
G1 X143.876 Y97.007 E0.00450 ; skirt
G1 X143.908 Y97.023 E0.00112 ; skirt
G1 X143.939 Y97.040 E0.00112 ; skirt
G1 X144.091 Y97.126 E0.00548 ; skirt
G1 X144.132 Y97.150 E0.00149 ; skirt
G1 X144.169 Y97.173 E0.00136 ; skirt
G1 X144.294 Y97.252 E0.00462 ; skirt
G1 X144.347 Y97.286 E0.00199 ; skirt
G1 X144.383 Y97.311 E0.00136 ; skirt
G1 X144.493 Y97.389 E0.00425 ; skirt
G1 X144.548 Y97.429 E0.00211 ; skirt
G1 X144.582 Y97.455 E0.00136 ; skirt
G1 X144.686 Y97.536 E0.00412 ; skirt
G1 X144.735 Y97.576 E0.00199 ; skirt
G1 X144.772 Y97.606 E0.00149 ; skirt
G1 X144.871 Y97.692 E0.00412 ; skirt
G1 X144.919 Y97.734 E0.00199 ; skirt
G1 X144.964 Y97.777 E0.00197 ; skirt
G1 X145.060 Y97.868 E0.00414 ; skirt
G1 X145.094 Y97.901 E0.00149 ; skirt
G1 X145.138 Y97.946 E0.00199 ; skirt
G1 X145.229 Y98.041 E0.00412 ; skirt
G1 X145.259 Y98.073 E0.00136 ; skirt
G1 X145.303 Y98.123 E0.00211 ; skirt
G1 X145.392 Y98.226 E0.00424 ; skirt
G1 X145.417 Y98.256 E0.00124 ; skirt
G1 X145.457 Y98.305 E0.00199 ; skirt
G1 X145.550 Y98.425 E0.00475 ; skirt
G1 X145.576 Y98.459 E0.00136 ; skirt
G1 X145.604 Y98.498 E0.00149 ; skirt
G1 X145.705 Y98.641 E0.00549 ; skirt
G1 X145.725 Y98.670 E0.00112 ; skirt
G1 X145.744 Y98.700 E0.00112 ; skirt
G1 X145.821 Y98.821 E0.00449 ; skirt
G1 X145.844 Y98.858 E0.00136 ; skirt
G1 X145.868 Y98.899 E0.00149 ; skirt
G1 X145.943 Y99.030 E0.00474 ; skirt
G1 X145.974 Y99.086 E0.00199 ; skirt
G1 X146.002 Y99.142 E0.00196 ; skirt
G1 X146.064 Y99.263 E0.00427 ; skirt
G1 X146.091 Y99.320 E0.00199 ; skirt
G1 X146.107 Y99.356 E0.00124 ; skirt
G1 X146.162 Y99.480 E0.00425 ; skirt
G1 X146.176 Y99.513 E0.00112 ; skirt
G1 X146.190 Y99.546 E0.00112 ; skirt
G1 X146.205 Y99.582 E0.00124 ; skirt
G1 X146.252 Y99.705 E0.00413 ; skirt
G1 X146.275 Y99.768 E0.00211 ; skirt
G1 X146.291 Y99.813 E0.00149 ; skirt
G1 X146.332 Y99.938 E0.00411 ; skirt
G1 X146.343 Y99.972 E0.00112 ; skirt
G1 X146.353 Y100.006 E0.00112 ; skirt
G1 X146.365 Y100.047 E0.00136 ; skirt
G1 X146.400 Y100.174 E0.00412 ; skirt
G1 X146.416 Y100.235 E0.00199 ; skirt
G1 X146.427 Y100.282 E0.00149 ; skirt
G1 X146.456 Y100.410 E0.00412 ; skirt
G1 X146.469 Y100.472 E0.00199 ; skirt
G1 X146.481 Y100.534 E0.00197 ; skirt
G1 X146.503 Y100.664 E0.00414 ; skirt
G1 X146.511 Y100.711 E0.00149 ; skirt
G1 X146.519 Y100.773 E0.00199 ; skirt
G1 X146.535 Y100.904 E0.00411 ; skirt
G1 X146.541 Y100.951 E0.00149 ; skirt
G1 X146.547 Y101.018 E0.00211 ; skirt
G1 X146.556 Y101.149 E0.00413 ; skirt
G1 X146.559 Y101.200 E0.00161 ; skirt
G1 X146.562 Y101.264 E0.00199 ; skirt
G1 X146.565 Y101.395 E0.00412 ; skirt
G1 X146.566 Y101.442 E0.00149 ; skirt
G1 X146.566 Y108.550 E0.22285 ; skirt
G1 X146.565 Y108.590 E0.00124 ; skirt
G1 X146.561 Y108.761 E0.00537 ; skirt
G1 X146.559 Y108.808 E0.00149 ; skirt
G1 X146.556 Y108.859 E0.00159 ; skirt
G1 X146.546 Y108.991 E0.00414 ; skirt
G1 X146.541 Y109.046 E0.00174 ; skirt
G1 X146.535 Y109.097 E0.00161 ; skirt
G1 X146.517 Y109.243 E0.00462 ; skirt
G1 X146.511 Y109.290 E0.00149 ; skirt
G1 X146.503 Y109.337 E0.00149 ; skirt
G1 X146.479 Y109.478 E0.00449 ; skirt
G1 X146.469 Y109.529 E0.00161 ; skirt
G1 X146.459 Y109.579 E0.00161 ; skirt
G1 X146.427 Y109.719 E0.00450 ; skirt
G1 X146.417 Y109.761 E0.00136 ; skirt
G1 X146.405 Y109.807 E0.00149 ; skirt
G1 X146.360 Y109.972 E0.00536 ; skirt
G1 X146.346 Y110.018 E0.00149 ; skirt
G1 X146.332 Y110.063 E0.00149 ; skirt
G1 X146.289 Y110.191 E0.00425 ; skirt
G1 X146.272 Y110.240 E0.00161 ; skirt
G1 X146.254 Y110.288 E0.00161 ; skirt
G1 X146.203 Y110.422 E0.00449 ; skirt
G1 X146.185 Y110.466 E0.00149 ; skirt
G1 X146.167 Y110.510 E0.00149 ; skirt
G1 X146.107 Y110.644 E0.00462 ; skirt
G1 X146.089 Y110.684 E0.00136 ; skirt
G1 X146.063 Y110.738 E0.00186 ; skirt
G1 X146.002 Y110.858 E0.00424 ; skirt
G1 X145.986 Y110.890 E0.00112 ; skirt
G1 X145.968 Y110.925 E0.00124 ; skirt
G1 X145.947 Y110.963 E0.00136 ; skirt
G1 X145.874 Y111.091 E0.00462 ; skirt
G1 X145.850 Y111.132 E0.00149 ; skirt
G1 X145.825 Y111.173 E0.00149 ; skirt
G1 X145.748 Y111.294 E0.00449 ; skirt
G1 X145.720 Y111.337 E0.00161 ; skirt
G1 X145.691 Y111.379 E0.00161 ; skirt
G1 X145.613 Y111.490 E0.00424 ; skirt
G1 X145.583 Y111.532 E0.00161 ; skirt
G1 X145.555 Y111.570 E0.00149 ; skirt
G1 X145.464 Y111.686 E0.00462 ; skirt
G1 X145.437 Y111.720 E0.00136 ; skirt
G1 X145.412 Y111.750 E0.00124 ; skirt
G1 X145.389 Y111.778 E0.00112 ; skirt
G1 X145.300 Y111.880 E0.00425 ; skirt
G1 X145.261 Y111.924 E0.00186 ; skirt
G1 X145.228 Y111.959 E0.00149 ; skirt
G1 X145.127 Y112.066 E0.00461 ; skirt
G1 X145.094 Y112.100 E0.00149 ; skirt
G1 X145.060 Y112.133 E0.00149 ; skirt
G1 X144.959 Y112.229 E0.00437 ; skirt
G1 X144.921 Y112.264 E0.00161 ; skirt
G1 X144.880 Y112.301 E0.00174 ; skirt
G1 X144.780 Y112.387 E0.00412 ; skirt
G1 X144.741 Y112.420 E0.00161 ; skirt
G1 X144.701 Y112.452 E0.00161 ; skirt
G1 X144.585 Y112.543 E0.00462 ; skirt
G1 X144.553 Y112.567 E0.00124 ; skirt
G1 X144.522 Y112.591 E0.00124 ; skirt
G1 X144.493 Y112.611 E0.00112 ; skirt
G1 X144.382 Y112.689 E0.00424 ; skirt
G1 X144.340 Y112.718 E0.00161 ; skirt
G1 X144.293 Y112.749 E0.00174 ; skirt
G1 X144.179 Y112.821 E0.00425 ; skirt
G1 X144.145 Y112.842 E0.00124 ; skirt
G1 X144.115 Y112.860 E0.00112 ; skirt
G1 X144.077 Y112.882 E0.00136 ; skirt
G1 X143.949 Y112.955 E0.00462 ; skirt
G1 X143.904 Y112.979 E0.00161 ; skirt
G1 X143.861 Y113.001 E0.00149 ; skirt
G1 X143.740 Y113.062 E0.00424 ; skirt
G1 X143.694 Y113.084 E0.00161 ; skirt
G1 X143.647 Y113.106 E0.00161 ; skirt
G1 X143.516 Y113.164 E0.00450 ; skirt
G1 X143.473 Y113.182 E0.00149 ; skirt
G1 X143.429 Y113.200 E0.00149 ; skirt
G1 X143.295 Y113.252 E0.00449 ; skirt
G1 X143.254 Y113.267 E0.00136 ; skirt
G1 X143.221 Y113.279 E0.00112 ; skirt
G1 X143.187 Y113.291 E0.00112 ; skirt
G1 X143.062 Y113.332 E0.00412 ; skirt
G1 X143.021 Y113.345 E0.00136 ; skirt
G1 X142.960 Y113.363 E0.00199 ; skirt
G1 X142.818 Y113.402 E0.00462 ; skirt
G1 X142.776 Y113.413 E0.00136 ; skirt
G1 X142.734 Y113.424 E0.00136 ; skirt
G1 X142.590 Y113.456 E0.00462 ; skirt
G1 X142.532 Y113.469 E0.00186 ; skirt
G1 X142.474 Y113.480 E0.00186 ; skirt
G1 X142.333 Y113.504 E0.00449 ; skirt
G1 X142.270 Y113.514 E0.00199 ; skirt
G1 X142.231 Y113.519 E0.00124 ; skirt
G1 X142.100 Y113.535 E0.00412 ; skirt
G1 X142.033 Y113.542 E0.00211 ; skirt
G1 X141.986 Y113.546 E0.00149 ; skirt
G1 X141.859 Y113.556 E0.00400 ; skirt
G1 X141.800 Y113.559 E0.00186 ; skirt
G1 X141.740 Y113.562 E0.00186 ; skirt
G1 X141.609 Y113.565 E0.00412 ; skirt
G1 X141.569 Y113.566 E0.00124 ; skirt
G1 X108.450 Y113.566 E1.03844 ; skirt
G1 X108.391 Y113.565 E0.00186 ; skirt
G1 X108.259 Y113.562 E0.00413 ; skirt
G1 X108.219 Y113.560 E0.00124 ; skirt
G1 X108.156 Y113.557 E0.00199 ; skirt
G1 X108.017 Y113.547 E0.00437 ; skirt
G1 X107.958 Y113.541 E0.00186 ; skirt
G1 X107.903 Y113.535 E0.00174 ; skirt
G1 X107.757 Y113.517 E0.00462 ; skirt
G1 X107.722 Y113.512 E0.00112 ; skirt
G1 X107.682 Y113.506 E0.00124 ; skirt
G1 X107.529 Y113.480 E0.00487 ; skirt
G1 X107.479 Y113.471 E0.00161 ; skirt
G1 X107.425 Y113.459 E0.00174 ; skirt
G1 X107.293 Y113.430 E0.00424 ; skirt
G1 X107.239 Y113.417 E0.00174 ; skirt
G1 X107.189 Y113.404 E0.00161 ; skirt
G1 X107.047 Y113.365 E0.00462 ; skirt
G1 X106.994 Y113.350 E0.00174 ; skirt
G1 X106.941 Y113.333 E0.00174 ; skirt
G1 X106.801 Y113.287 E0.00462 ; skirt
G1 X106.753 Y113.270 E0.00161 ; skirt
G1 X106.704 Y113.252 E0.00161 ; skirt
G1 X106.578 Y113.203 E0.00424 ; skirt
G1 X106.527 Y113.182 E0.00174 ; skirt
G1 X106.479 Y113.162 E0.00161 ; skirt
G1 X106.345 Y113.102 E0.00462 ; skirt
G1 X106.298 Y113.081 E0.00161 ; skirt
G1 X106.252 Y113.058 E0.00161 ; skirt
G1 X106.124 Y112.993 E0.00449 ; skirt
G1 X106.092 Y112.977 E0.00112 ; skirt
G1 X106.061 Y112.960 E0.00112 ; skirt
G1 X105.922 Y112.882 E0.00499 ; skirt
G1 X105.875 Y112.854 E0.00174 ; skirt
G1 X105.827 Y112.825 E0.00174 ; skirt
G1 X105.700 Y112.744 E0.00474 ; skirt
G1 X105.666 Y112.722 E0.00124 ; skirt
G1 X105.634 Y112.700 E0.00124 ; skirt
G1 X105.513 Y112.615 E0.00462 ; skirt
G1 X105.471 Y112.585 E0.00161 ; skirt
G1 X105.427 Y112.552 E0.00174 ; skirt
G1 X105.311 Y112.462 E0.00462 ; skirt
G1 X105.268 Y112.427 E0.00174 ; skirt
G1 X105.225 Y112.391 E0.00174 ; skirt
G1 X105.117 Y112.298 E0.00449 ; skirt
G1 X105.079 Y112.263 E0.00161 ; skirt
G1 X105.044 Y112.231 E0.00149 ; skirt
G1 X104.940 Y112.132 E0.00449 ; skirt
G1 X104.895 Y112.088 E0.00199 ; skirt
G1 X104.864 Y112.057 E0.00136 ; skirt
G1 X104.777 Y111.964 E0.00400 ; skirt
G1 X104.741 Y111.927 E0.00161 ; skirt
G1 X104.702 Y111.883 E0.00186 ; skirt
G1 X104.611 Y111.777 E0.00437 ; skirt
G1 X104.575 Y111.735 E0.00174 ; skirt
G1 X104.543 Y111.695 E0.00161 ; skirt
G1 X104.452 Y111.579 E0.00462 ; skirt
G1 X104.419 Y111.534 E0.00174 ; skirt
G1 X104.385 Y111.487 E0.00184 ; skirt
G1 X104.311 Y111.382 E0.00402 ; skirt
G1 X104.286 Y111.346 E0.00136 ; skirt
G1 X104.253 Y111.297 E0.00186 ; skirt
G1 X104.181 Y111.182 E0.00424 ; skirt
G1 X104.154 Y111.138 E0.00161 ; skirt
G1 X104.126 Y111.091 E0.00174 ; skirt
G1 X104.053 Y110.963 E0.00462 ; skirt
G1 X104.028 Y110.918 E0.00161 ; skirt
G1 X104.003 Y110.868 E0.00174 ; skirt
G1 X103.936 Y110.737 E0.00462 ; skirt
G1 X103.914 Y110.691 E0.00161 ; skirt
G1 X103.893 Y110.644 E0.00161 ; skirt
G1 X103.836 Y110.516 E0.00437 ; skirt
G1 X103.813 Y110.462 E0.00186 ; skirt
G1 X103.794 Y110.414 E0.00161 ; skirt
G1 X103.748 Y110.295 E0.00400 ; skirt
G1 X103.734 Y110.258 E0.00124 ; skirt
G1 X103.722 Y110.224 E0.00112 ; skirt
G1 X103.709 Y110.187 E0.00124 ; skirt
G1 X103.667 Y110.058 E0.00424 ; skirt
G1 X103.655 Y110.021 E0.00124 ; skirt
G1 X103.637 Y109.960 E0.00199 ; skirt
G1 X103.599 Y109.822 E0.00449 ; skirt
G1 X103.585 Y109.768 E0.00174 ; skirt
G1 X103.571 Y109.711 E0.00186 ; skirt
G1 X103.539 Y109.567 E0.00462 ; skirt
G1 X103.531 Y109.528 E0.00124 ; skirt
G1 X103.523 Y109.485 E0.00136 ; skirt
G1 X103.497 Y109.336 E0.00474 ; skirt
G1 X103.487 Y109.278 E0.00186 ; skirt
G1 X103.481 Y109.231 E0.00149 ; skirt
G1 X103.465 Y109.104 E0.00400 ; skirt
G1 X103.459 Y109.045 E0.00186 ; skirt
G1 X103.453 Y108.982 E0.00199 ; skirt
G1 X103.444 Y108.851 E0.00412 ; skirt
G1 X103.441 Y108.808 E0.00136 ; skirt
G1 X103.438 Y108.744 E0.00199 ; skirt
G1 X103.435 Y108.601 E0.00449 ; skirt
G1 X103.434 Y108.550 E0.00160 ; skirt
G1 X103.435 Y101.418 E0.22361 ; skirt
G1 X103.438 Y101.259 E0.00500 ; skirt
G1 X103.441 Y101.192 E0.00211 ; skirt
G1 X103.444 Y101.148 E0.00136 ; skirt
G1 X103.454 Y101.013 E0.00425 ; skirt
G1 X103.457 Y100.974 E0.00124 ; skirt
G1 X103.461 Y100.934 E0.00124 ; skirt
G1 X103.465 Y100.899 E0.00112 ; skirt
G1 X103.482 Y100.765 E0.00425 ; skirt
G1 X103.486 Y100.729 E0.00112 ; skirt
G1 X103.492 Y100.694 E0.00112 ; skirt
G1 X103.498 Y100.655 E0.00124 ; skirt
G1 X103.523 Y100.510 E0.00462 ; skirt
G1 X103.532 Y100.463 E0.00149 ; skirt
G1 X103.542 Y100.417 E0.00149 ; skirt
G1 X103.573 Y100.281 E0.00437 ; skirt
G1 X103.585 Y100.231 E0.00161 ; skirt
G1 X103.598 Y100.181 E0.00161 ; skirt
G1 X103.636 Y100.043 E0.00449 ; skirt
G1 X103.650 Y99.994 E0.00161 ; skirt
G1 X103.665 Y99.948 E0.00149 ; skirt
G1 X103.710 Y99.812 E0.00449 ; skirt
G1 X103.726 Y99.764 E0.00161 ; skirt
G1 X103.746 Y99.712 E0.00174 ; skirt
G1 X103.797 Y99.578 E0.00449 ; skirt
G1 X103.816 Y99.530 E0.00161 ; skirt
G1 X103.835 Y99.487 E0.00149 ; skirt
G1 X103.893 Y99.356 E0.00449 ; skirt
G1 X103.914 Y99.309 E0.00161 ; skirt
G1 X103.939 Y99.259 E0.00174 ; skirt
G1 X103.998 Y99.142 E0.00412 ; skirt
