; generated by Slic3r Prusa Edition 1.42.0-alpha1+ on 2019-01-02 at 20:39:05

; 

; external perimeters extrusion width = 0.45mm
; perimeters extrusion width = 0.45mm
; infill extrusion width = 0.45mm
; solid infill extrusion width = 0.45mm
; top infill extrusion width = 0.40mm
; first layer extrusion width = 0.42mm

M201 X9000 Y9000 Z500 E10000 ; sets maximum accelerations, mm/sec^2
M203 X500 Y500 Z12 E120 ; sets maximum feedrates, mm/sec
M204 P2000 R1500 T2000 ; sets acceleration (P, T) and retract acceleration (R), mm/sec^2
M205 X10.00 Y10.00 Z0.20 E2.50 ; sets the jerk limits, mm/sec
M205 S0 T0 ; sets the minimum extruding and travel feed rate, mm/sec
M107 ; disable fan
M115 U3.1.0 ; tell printer latest fw version
M83  ; extruder relative mode
M204 S2000 T1500 ; MK2 firmware only supports the old M204 format
M104 S230 ; set extruder temp
M140 S85 ; set bed temp
M190 S85 ; wait for bed temp
M109 S230 ; wait for extruder temp
G28 W ; home all without mesh bed level
G29 ; bed leveling
G1 Y-3.0 F1000.0 ; go outside print area
G92 E0.0
G1 X60.0 E9.0  F1000.0 ; intro line
G1 X100.0 E12.5  F1000.0 ; intro line
G92 E0.0
M900 K45; Filament gcode
G21 ; set units to millimeters
G90 ; use absolute coordinates
M83 ; use relative distances for extrusion
;BEFORE_LAYER_CHANGE
G92 E0.0
;0.2


G1 E-0.80000 F2100.00000 ; retract
G1 Z0.600 F10800.000 ; lift Z
;AFTER_LAYER_CHANGE
;0.2
G1 X115.308 Y79.085 ; move to first skirt point
G1 Z0.200 ; restore layer Z
G1 E0.80000 F2100.00000 ; unretract
M204 S1000 ; adjust acceleration
G1 F600
G1 X115.348 Y79.082 E0.00126 ; skirt
G1 X115.384 Y79.080 E0.00115 ; skirt
G1 X115.425 Y79.078 E0.00126 ; skirt
G1 X115.461 Y79.077 E0.00115 ; skirt
G1 X115.500 Y79.077 E0.00122 ; skirt
G1 X134.504 Y79.077 E0.59585 ; skirt
G1 X134.548 Y79.077 E0.00138 ; skirt
G1 X134.591 Y79.079 E0.00138 ; skirt
G1 X134.639 Y79.081 E0.00149 ; skirt
G1 X134.683 Y79.084 E0.00138 ; skirt
G1 X134.726 Y79.089 E0.00138 ; skirt
G1 X134.770 Y79.094 E0.00138 ; skirt
G1 X134.817 Y79.100 E0.00149 ; skirt
G1 X134.860 Y79.107 E0.00138 ; skirt
G1 X134.903 Y79.114 E0.00138 ; skirt
G1 X134.950 Y79.124 E0.00149 ; skirt
G1 X134.993 Y79.133 E0.00138 ; skirt
G1 X135.035 Y79.143 E0.00138 ; skirt
G1 X135.078 Y79.154 E0.00138 ; skirt
G1 X135.120 Y79.166 E0.00138 ; skirt
G1 X135.165 Y79.180 E0.00149 ; skirt
G1 X135.207 Y79.194 E0.00138 ; skirt
G1 X135.248 Y79.209 E0.00138 ; skirt
G1 X135.293 Y79.226 E0.00149 ; skirt
G1 X135.334 Y79.242 E0.00138 ; skirt
G1 X135.374 Y79.259 E0.00138 ; skirt
G1 X135.414 Y79.277 E0.00138 ; skirt
G1 X135.454 Y79.296 E0.00138 ; skirt
G1 X135.496 Y79.317 E0.00149 ; skirt
G1 X135.535 Y79.337 E0.00138 ; skirt
G1 X135.574 Y79.358 E0.00138 ; skirt
G1 X135.612 Y79.380 E0.00138 ; skirt
G1 X135.649 Y79.403 E0.00138 ; skirt
G1 X135.689 Y79.428 E0.00149 ; skirt
G1 X135.726 Y79.452 E0.00138 ; skirt
G1 X135.762 Y79.477 E0.00138 ; skirt
G1 X135.797 Y79.503 E0.00138 ; skirt
G1 X135.835 Y79.531 E0.00149 ; skirt
G1 X135.870 Y79.559 E0.00138 ; skirt
G1 X135.904 Y79.586 E0.00138 ; skirt
G1 X135.940 Y79.617 E0.00149 ; skirt
G1 X135.973 Y79.646 E0.00138 ; skirt
G1 X136.005 Y79.676 E0.00138 ; skirt
G1 X136.036 Y79.707 E0.00138 ; skirt
G1 X136.067 Y79.738 E0.00138 ; skirt
G1 X136.100 Y79.772 E0.00149 ; skirt
G1 X136.130 Y79.805 E0.00138 ; skirt
G1 X136.159 Y79.838 E0.00138 ; skirt
G1 X136.189 Y79.874 E0.00149 ; skirt
G1 X136.217 Y79.908 E0.00138 ; skirt
G1 X136.246 Y79.946 E0.00149 ; skirt
G1 X136.272 Y79.981 E0.00138 ; skirt
G1 X136.297 Y80.017 E0.00138 ; skirt
G1 X136.322 Y80.053 E0.00138 ; skirt
G1 X136.346 Y80.090 E0.00138 ; skirt
G1 X136.369 Y80.127 E0.00138 ; skirt
G1 X136.393 Y80.168 E0.00149 ; skirt
G1 X136.415 Y80.206 E0.00138 ; skirt
G1 X136.436 Y80.244 E0.00138 ; skirt
G1 X136.456 Y80.283 E0.00138 ; skirt
G1 X136.477 Y80.326 E0.00149 ; skirt
G1 X136.495 Y80.366 E0.00138 ; skirt
G1 X136.513 Y80.406 E0.00138 ; skirt
G1 X136.531 Y80.450 E0.00149 ; skirt
G1 X136.547 Y80.491 E0.00138 ; skirt
G1 X136.562 Y80.532 E0.00138 ; skirt
G1 X136.577 Y80.577 E0.00149 ; skirt
G1 X136.591 Y80.619 E0.00138 ; skirt
G1 X136.603 Y80.661 E0.00138 ; skirt
G1 X136.615 Y80.703 E0.00138 ; skirt
G1 X136.626 Y80.748 E0.00145 ; skirt
G1 X144.022 Y111.136 E0.98061 ; skirt
G1 X144.044 Y111.230 E0.00304 ; skirt
G1 X144.052 Y111.266 E0.00115 ; skirt
G1 X144.077 Y111.383 E0.00375 ; skirt
G1 X144.100 Y111.504 E0.00386 ; skirt
G1 X144.108 Y111.551 E0.00149 ; skirt
G1 X144.127 Y111.668 E0.00373 ; skirt
G1 X144.143 Y111.783 E0.00364 ; skirt
G1 X144.148 Y111.826 E0.00138 ; skirt
G1 X144.161 Y111.942 E0.00366 ; skirt
G1 X144.172 Y112.065 E0.00386 ; skirt
G1 X144.175 Y112.112 E0.00148 ; skirt
G1 X144.181 Y112.203 E0.00287 ; skirt
G1 X144.182 Y112.240 E0.00115 ; skirt
G1 X144.187 Y112.360 E0.00378 ; skirt
G1 X144.188 Y112.476 E0.00363 ; skirt
G1 X144.188 Y112.524 E0.00149 ; skirt
G1 X144.187 Y112.642 E0.00372 ; skirt
G1 X144.183 Y112.755 E0.00353 ; skirt
G1 X144.181 Y112.802 E0.00148 ; skirt
G1 X144.173 Y112.922 E0.00377 ; skirt
G1 X144.163 Y113.038 E0.00367 ; skirt
G1 X144.159 Y113.082 E0.00138 ; skirt
G1 X144.146 Y113.194 E0.00354 ; skirt
G1 X144.129 Y113.327 E0.00421 ; skirt
G1 X144.111 Y113.438 E0.00353 ; skirt
G1 X144.103 Y113.485 E0.00149 ; skirt
G1 X144.080 Y113.611 E0.00403 ; skirt
G1 X144.052 Y113.740 E0.00414 ; skirt
G1 X144.026 Y113.855 E0.00370 ; skirt
G1 X144.015 Y113.898 E0.00138 ; skirt
G1 X143.984 Y114.017 E0.00386 ; skirt
G1 X143.951 Y114.131 E0.00373 ; skirt
G1 X143.938 Y114.173 E0.00138 ; skirt
G1 X143.903 Y114.284 E0.00365 ; skirt
G1 X143.866 Y114.392 E0.00358 ; skirt
G1 X136.560 Y134.743 E0.67796 ; skirt
G1 X136.548 Y134.774 E0.00103 ; skirt
G1 X136.534 Y134.812 E0.00126 ; skirt
G1 X136.519 Y134.849 E0.00126 ; skirt
G1 X136.503 Y134.886 E0.00126 ; skirt
G1 X136.488 Y134.919 E0.00115 ; skirt
G1 X136.472 Y134.952 E0.00115 ; skirt
G1 X136.455 Y134.988 E0.00126 ; skirt
G1 X136.436 Y135.024 E0.00126 ; skirt
G1 X136.417 Y135.060 E0.00126 ; skirt
G1 X136.397 Y135.095 E0.00126 ; skirt
G1 X136.377 Y135.129 E0.00126 ; skirt
G1 X136.356 Y135.164 E0.00126 ; skirt
G1 X136.336 Y135.194 E0.00115 ; skirt
G1 X136.314 Y135.228 E0.00126 ; skirt
G1 X136.294 Y135.258 E0.00115 ; skirt
G1 X136.272 Y135.288 E0.00115 ; skirt
G1 X136.249 Y135.320 E0.00126 ; skirt
G1 X136.226 Y135.349 E0.00115 ; skirt
G1 X136.201 Y135.381 E0.00126 ; skirt
G1 X136.178 Y135.409 E0.00115 ; skirt
G1 X136.152 Y135.439 E0.00126 ; skirt
G1 X136.125 Y135.470 E0.00126 ; skirt
G1 X136.101 Y135.496 E0.00115 ; skirt
G1 X136.073 Y135.526 E0.00126 ; skirt
G1 X136.045 Y135.554 E0.00126 ; skirt
G1 X136.016 Y135.582 E0.00126 ; skirt
G1 X135.989 Y135.607 E0.00115 ; skirt
G1 X135.960 Y135.635 E0.00126 ; skirt
G1 X135.929 Y135.661 E0.00126 ; skirt
G1 X135.902 Y135.685 E0.00115 ; skirt
G1 X135.871 Y135.710 E0.00126 ; skirt
G1 X135.839 Y135.735 E0.00126 ; skirt
G1 X135.807 Y135.759 E0.00126 ; skirt
G1 X135.771 Y135.785 E0.00138 ; skirt
G1 X135.736 Y135.810 E0.00138 ; skirt
G1 X135.702 Y135.833 E0.00126 ; skirt
G1 X135.665 Y135.856 E0.00138 ; skirt
G1 X135.628 Y135.879 E0.00138 ; skirt
G1 X135.593 Y135.900 E0.00126 ; skirt
G1 X135.555 Y135.921 E0.00138 ; skirt
G1 X135.516 Y135.942 E0.00138 ; skirt
G1 X135.477 Y135.962 E0.00138 ; skirt
G1 X135.441 Y135.980 E0.00126 ; skirt
G1 X135.405 Y135.997 E0.00126 ; skirt
G1 X135.365 Y136.014 E0.00138 ; skirt
G1 X135.324 Y136.031 E0.00138 ; skirt
G1 X135.287 Y136.046 E0.00126 ; skirt
G1 X135.246 Y136.061 E0.00138 ; skirt
G1 X135.204 Y136.076 E0.00138 ; skirt
G1 X135.163 Y136.090 E0.00138 ; skirt
G1 X135.124 Y136.102 E0.00126 ; skirt
G1 X135.082 Y136.114 E0.00138 ; skirt
G1 X135.040 Y136.125 E0.00138 ; skirt
G1 X134.997 Y136.135 E0.00138 ; skirt
G1 X134.954 Y136.145 E0.00138 ; skirt
G1 X134.911 Y136.153 E0.00138 ; skirt
G1 X134.872 Y136.161 E0.00126 ; skirt
G1 X134.832 Y136.167 E0.00126 ; skirt
G1 X134.789 Y136.173 E0.00138 ; skirt
G1 X134.749 Y136.178 E0.00126 ; skirt
G1 X134.705 Y136.183 E0.00138 ; skirt
G1 X134.661 Y136.186 E0.00138 ; skirt
G1 X134.618 Y136.189 E0.00138 ; skirt
G1 X134.574 Y136.191 E0.00138 ; skirt
G1 X134.534 Y136.192 E0.00126 ; skirt
G1 X134.500 Y136.192 E0.00106 ; skirt
G1 X115.485 Y136.192 E0.59619 ; skirt
G1 X115.442 Y136.192 E0.00138 ; skirt
G1 X115.398 Y136.190 E0.00138 ; skirt
G1 X115.354 Y136.188 E0.00138 ; skirt
G1 X115.307 Y136.184 E0.00149 ; skirt
G1 X115.263 Y136.180 E0.00138 ; skirt
G1 X115.219 Y136.174 E0.00138 ; skirt
G1 X115.176 Y136.168 E0.00138 ; skirt
G1 X115.133 Y136.161 E0.00138 ; skirt
G1 X115.089 Y136.154 E0.00138 ; skirt
G1 X115.043 Y136.144 E0.00149 ; skirt
G1 X115.000 Y136.135 E0.00138 ; skirt
G1 X114.957 Y136.124 E0.00138 ; skirt
G1 X114.915 Y136.113 E0.00138 ; skirt
G1 X114.869 Y136.100 E0.00149 ; skirt
G1 X114.828 Y136.087 E0.00138 ; skirt
G1 X114.786 Y136.073 E0.00138 ; skirt
G1 X114.731 Y136.053 E0.00183 ; skirt
G1 X114.677 Y136.032 E0.00183 ; skirt
G1 X114.623 Y136.009 E0.00183 ; skirt
G1 X114.566 Y135.983 E0.00195 ; skirt
G1 X114.510 Y135.956 E0.00195 ; skirt
G1 X114.458 Y135.929 E0.00183 ; skirt
G1 X114.404 Y135.898 E0.00195 ; skirt
G1 X114.354 Y135.868 E0.00183 ; skirt
G1 X114.305 Y135.837 E0.00183 ; skirt
G1 X114.256 Y135.805 E0.00183 ; skirt
G1 X114.205 Y135.769 E0.00195 ; skirt
G1 X114.159 Y135.733 E0.00183 ; skirt
G1 X114.113 Y135.697 E0.00183 ; skirt
G1 X114.068 Y135.659 E0.00183 ; skirt
G1 X114.025 Y135.620 E0.00183 ; skirt
G1 X113.979 Y135.578 E0.00195 ; skirt
G1 X113.938 Y135.537 E0.00183 ; skirt
G1 X113.895 Y135.492 E0.00195 ; skirt
G1 X113.856 Y135.448 E0.00183 ; skirt
G1 X113.815 Y135.401 E0.00195 ; skirt
G1 X113.779 Y135.356 E0.00183 ; skirt
G1 X113.743 Y135.309 E0.00183 ; skirt
G1 X113.709 Y135.262 E0.00183 ; skirt
G1 X113.674 Y135.210 E0.00195 ; skirt
G1 X113.642 Y135.161 E0.00183 ; skirt
G1 X113.610 Y135.108 E0.00195 ; skirt
G1 X113.580 Y135.054 E0.00195 ; skirt
G1 X113.552 Y135.002 E0.00183 ; skirt
G1 X113.526 Y134.950 E0.00183 ; skirt
G1 X113.502 Y134.897 E0.00183 ; skirt
G1 X113.479 Y134.843 E0.00183 ; skirt
G1 X113.456 Y134.785 E0.00195 ; skirt
G1 X113.440 Y134.743 E0.00140 ; skirt
G1 X106.136 Y114.398 E0.67777 ; skirt
G1 X106.098 Y114.288 E0.00367 ; skirt
G1 X106.063 Y114.176 E0.00366 ; skirt
G1 X106.053 Y114.145 E0.00103 ; skirt
G1 X106.025 Y114.046 E0.00322 ; skirt
G1 X106.011 Y113.995 E0.00166 ; skirt
G1 X105.981 Y113.884 E0.00361 ; skirt
G1 X105.952 Y113.760 E0.00400 ; skirt
G1 X105.924 Y113.629 E0.00421 ; skirt
G1 X105.900 Y113.500 E0.00409 ; skirt
G1 X105.891 Y113.450 E0.00161 ; skirt
G1 X105.876 Y113.358 E0.00292 ; skirt
G1 X105.870 Y113.318 E0.00126 ; skirt
G1 X105.854 Y113.198 E0.00381 ; skirt
G1 X105.840 Y113.071 E0.00399 ; skirt
G1 X105.836 Y113.032 E0.00125 ; skirt
G1 X105.829 Y112.946 E0.00271 ; skirt
G1 X105.825 Y112.898 E0.00149 ; skirt
G1 X105.819 Y112.786 E0.00353 ; skirt
G1 X105.813 Y112.646 E0.00439 ; skirt
G1 X105.812 Y112.528 E0.00369 ; skirt
G1 X105.812 Y112.484 E0.00138 ; skirt
G1 X105.813 Y112.366 E0.00372 ; skirt
G1 X105.817 Y112.253 E0.00353 ; skirt
G1 X105.819 Y112.209 E0.00138 ; skirt
G1 X105.827 Y112.086 E0.00387 ; skirt
G1 X105.837 Y111.969 E0.00367 ; skirt
G1 X105.841 Y111.926 E0.00138 ; skirt
G1 X105.854 Y111.809 E0.00369 ; skirt
G1 X105.869 Y111.697 E0.00353 ; skirt
G1 X105.875 Y111.654 E0.00138 ; skirt
G1 X105.894 Y111.541 E0.00360 ; skirt
G1 X105.916 Y111.418 E0.00391 ; skirt
G1 X105.925 Y111.375 E0.00138 ; skirt
G1 X105.948 Y111.264 E0.00357 ; skirt
G1 X105.974 Y111.152 E0.00359 ; skirt
G1 X113.374 Y80.748 E0.98114 ; skirt
G1 X113.386 Y80.698 E0.00160 ; skirt
G1 X113.401 Y80.646 E0.00172 ; skirt
G1 X113.416 Y80.597 E0.00160 ; skirt
G1 X113.432 Y80.548 E0.00160 ; skirt
G1 X113.446 Y80.510 E0.00126 ; skirt
G1 X113.460 Y80.473 E0.00126 ; skirt
G1 X113.475 Y80.435 E0.00126 ; skirt
G1 X113.491 Y80.398 E0.00126 ; skirt
G1 X113.505 Y80.365 E0.00115 ; skirt
G1 X113.522 Y80.328 E0.00126 ; skirt
G1 X113.540 Y80.292 E0.00126 ; skirt
G1 X113.558 Y80.256 E0.00126 ; skirt
G1 X113.577 Y80.221 E0.00126 ; skirt
G1 X113.596 Y80.186 E0.00126 ; skirt
G1 X113.616 Y80.151 E0.00126 ; skirt
G1 X113.637 Y80.116 E0.00126 ; skirt
G1 X113.659 Y80.082 E0.00126 ; skirt
G1 X113.681 Y80.049 E0.00126 ; skirt
G1 X113.703 Y80.016 E0.00126 ; skirt
G1 X113.727 Y79.983 E0.00126 ; skirt
G1 X113.751 Y79.950 E0.00126 ; skirt
G1 X113.775 Y79.919 E0.00126 ; skirt
G1 X113.800 Y79.887 E0.00126 ; skirt
G1 X113.826 Y79.856 E0.00126 ; skirt
G1 X113.852 Y79.826 E0.00126 ; skirt
G1 X113.878 Y79.796 E0.00126 ; skirt
G1 X113.906 Y79.766 E0.00126 ; skirt
G1 X113.934 Y79.737 E0.00126 ; skirt
G1 X113.962 Y79.708 E0.00126 ; skirt
G1 X113.991 Y79.680 E0.00126 ; skirt
G1 X114.017 Y79.655 E0.00115 ; skirt
G1 X114.047 Y79.629 E0.00126 ; skirt
G1 X114.078 Y79.602 E0.00126 ; skirt
G1 X114.108 Y79.576 E0.00126 ; skirt
G1 X114.140 Y79.551 E0.00126 ; skirt
G1 X114.171 Y79.526 E0.00126 ; skirt
G1 X114.204 Y79.502 E0.00126 ; skirt
G1 X114.236 Y79.479 E0.00126 ; skirt
G1 X114.269 Y79.456 E0.00126 ; skirt
G1 X114.303 Y79.433 E0.00126 ; skirt
G1 X114.336 Y79.412 E0.00126 ; skirt
G1 X114.371 Y79.391 E0.00126 ; skirt
G1 X114.405 Y79.370 E0.00126 ; skirt
G1 X114.440 Y79.350 E0.00126 ; skirt
G1 X114.476 Y79.331 E0.00126 ; skirt
G1 X114.511 Y79.313 E0.00126 ; skirt
G1 X114.547 Y79.295 E0.00126 ; skirt
G1 X114.584 Y79.278 E0.00126 ; skirt
G1 X114.620 Y79.261 E0.00126 ; skirt
G1 X114.657 Y79.246 E0.00126 ; skirt
G1 X114.695 Y79.230 E0.00126 ; skirt
G1 X114.729 Y79.217 E0.00115 ; skirt
G1 X114.766 Y79.203 E0.00126 ; skirt
G1 X114.804 Y79.190 E0.00126 ; skirt
G1 X114.843 Y79.178 E0.00126 ; skirt
G1 X114.878 Y79.167 E0.00115 ; skirt
G1 X114.916 Y79.156 E0.00126 ; skirt
G1 X114.955 Y79.146 E0.00126 ; skirt
G1 X114.994 Y79.136 E0.00126 ; skirt
G1 X115.033 Y79.127 E0.00126 ; skirt
G1 X115.073 Y79.119 E0.00126 ; skirt
G1 X115.112 Y79.111 E0.00126 ; skirt
G1 X115.148 Y79.105 E0.00115 ; skirt
G1 X115.188 Y79.099 E0.00126 ; skirt
G1 X115.228 Y79.094 E0.00126 ; skirt
G1 X115.248 Y79.091 E0.00064 ; skirt
; PURGING FINISHED
G1 F8640
G1 X115.348 Y79.082 E-0.02313 ; wipe and retract
G1 X115.384 Y79.080 E-0.00844 ; wipe and retract
G1 X115.425 Y79.078 E-0.00928 ; wipe and retract
G1 X115.461 Y79.077 E-0.00844 ; wipe and retract
G1 X115.500 Y79.077 E-0.00900 ; wipe and retract
G1 X118.539 Y79.077 E-0.70171 ; wipe and retract
G1 E-0.04000 F2100.00000 ; retract
G1 Z0.800 F10800.000 ; lift Z
G1 X111.744 Y110.029 ; move to first perimeter point
G1 Z0.200 ; restore layer Z
G1 E0.80000 F2100.00000 ; unretract
G1 F600
G1 X111.865 Y110.044 E0.00383 ; perimeter
G1 X111.985 Y110.064 E0.00383 ; perimeter
G1 X112.104 Y110.091 E0.00383 ; perimeter
G1 X112.222 Y110.124 E0.00383 ; perimeter
G1 X112.338 Y110.162 E0.00383 ; perimeter
G1 X112.452 Y110.206 E0.00383 ; perimeter
G1 X112.563 Y110.255 E0.00383 ; perimeter
G1 X112.672 Y110.310 E0.00383 ; perimeter
G1 X112.779 Y110.371 E0.00383 ; perimeter
G1 X112.882 Y110.436 E0.00383 ; perimeter
G1 X112.982 Y110.506 E0.00383 ; perimeter
G1 X113.078 Y110.581 E0.00383 ; perimeter
G1 X113.170 Y110.661 E0.00383 ; perimeter
G1 X113.259 Y110.745 E0.00383 ; perimeter
G1 X113.343 Y110.834 E0.00383 ; perimeter
G1 X113.423 Y110.926 E0.00383 ; perimeter
G1 X113.498 Y111.022 E0.00383 ; perimeter
G1 X113.568 Y111.122 E0.00383 ; perimeter
G1 X113.633 Y111.225 E0.00383 ; perimeter
G1 X113.694 Y111.331 E0.00383 ; perimeter
G1 X113.748 Y111.440 E0.00383 ; perimeter
G1 X113.798 Y111.552 E0.00383 ; perimeter
G1 X113.842 Y111.666 E0.00383 ; perimeter
G1 X113.880 Y111.782 E0.00383 ; perimeter
G1 X113.913 Y111.900 E0.00383 ; perimeter
G1 X113.939 Y112.019 E0.00383 ; perimeter
G1 X113.960 Y112.139 E0.00383 ; perimeter
G1 X113.975 Y112.260 E0.00383 ; perimeter
G1 X113.984 Y112.382 E0.00383 ; perimeter
G1 X113.987 Y112.504 E0.00383 ; perimeter
G1 X113.984 Y112.626 E0.00383 ; perimeter
G1 X113.975 Y112.748 E0.00383 ; perimeter
G1 X113.960 Y112.869 E0.00383 ; perimeter
G1 X113.939 Y112.989 E0.00383 ; perimeter
G1 X113.913 Y113.108 E0.00383 ; perimeter
G1 X113.880 Y113.226 E0.00383 ; perimeter
G1 X113.842 Y113.342 E0.00383 ; perimeter
G1 X113.798 Y113.456 E0.00383 ; perimeter
G1 X113.748 Y113.567 E0.00383 ; perimeter
