; generated by Slic3r Prusa Edition 1.42.0-alpha1+ on 2019-01-09 at 11:38:02

; 

; external perimeters extrusion width = 0.45mm
; perimeters extrusion width = 0.45mm
; infill extrusion width = 0.45mm
; solid infill extrusion width = 0.45mm
; top infill extrusion width = 0.40mm
; first layer extrusion width = 0.42mm

M201 X9000 Y9000 Z500 E10000 ; sets maximum accelerations, mm/sec^2
M203 X500 Y500 Z12 E120 ; sets maximum feedrates, mm/sec
M204 P2000 R1500 T2000 ; sets acceleration (P, T) and retract acceleration (R), mm/sec^2
M205 X10.00 Y10.00 Z0.20 E2.50 ; sets the jerk limits, mm/sec
M205 S0 T0 ; sets the minimum extruding and travel feed rate, mm/sec
M107 ; disable fan
M115 U3.1.0 ; tell printer latest fw version
M83  ; extruder relative mode
M204 S2000 T1500 ; MK2 firmware only supports the old M204 format
M104 S230 ; set extruder temp
M140 S85 ; set bed temp
M190 S85 ; wait for bed temp
M109 S230 ; wait for extruder temp
G28 W ; home all without mesh bed level
G29 ; bed leveling
G1 Y-3.0 F1000.0 ; go outside print area
G92 E0.0
G1 X60.0 E9.0  F1000.0 ; intro line
G1 X100.0 E12.5  F1000.0 ; intro line
G92 E0.0
M900 K45; Filament gcode
G21 ; set units to millimeters
G90 ; use absolute coordinates
M83 ; use relative distances for extrusion
;BEFORE_LAYER_CHANGE
G92 E0.0
;0.2


G1 E-0.80000 F2100.00000 ; retract
G1 Z0.600 F10800.000 ; lift Z
;AFTER_LAYER_CHANGE
;0.2
G1 X108.560 Y84.053 ; move to first skirt point
G1 Z0.200 ; restore layer Z
G1 E0.80000 F2100.00000 ; unretract
M204 S1000 ; adjust acceleration
G1 F600
G1 X108.563 Y84.020 E0.00103 ; skirt
G1 X108.567 Y83.987 E0.00103 ; skirt
G1 X108.571 Y83.955 E0.00103 ; skirt
G1 X108.576 Y83.922 E0.00103 ; skirt
G1 X108.581 Y83.890 E0.00103 ; skirt
G1 X108.586 Y83.857 E0.00103 ; skirt
G1 X108.592 Y83.825 E0.00103 ; skirt
G1 X108.599 Y83.793 E0.00103 ; skirt
G1 X108.613 Y83.732 E0.00195 ; skirt
G1 X108.624 Y83.690 E0.00138 ; skirt
G1 X108.635 Y83.648 E0.00138 ; skirt
G1 X108.648 Y83.605 E0.00138 ; skirt
G1 X108.661 Y83.564 E0.00138 ; skirt
G1 X108.675 Y83.522 E0.00138 ; skirt
G1 X108.690 Y83.481 E0.00138 ; skirt
G1 X108.708 Y83.437 E0.00149 ; skirt
G1 X108.724 Y83.396 E0.00138 ; skirt
G1 X108.742 Y83.356 E0.00138 ; skirt
G1 X108.760 Y83.316 E0.00138 ; skirt
G1 X108.779 Y83.277 E0.00138 ; skirt
G1 X108.799 Y83.238 E0.00138 ; skirt
G1 X108.820 Y83.199 E0.00138 ; skirt
G1 X108.841 Y83.161 E0.00138 ; skirt
G1 X108.863 Y83.123 E0.00138 ; skirt
G1 X108.888 Y83.082 E0.00149 ; skirt
G1 X108.914 Y83.042 E0.00149 ; skirt
G1 X108.939 Y83.006 E0.00138 ; skirt
G1 X108.964 Y82.970 E0.00138 ; skirt
G1 X108.990 Y82.935 E0.00138 ; skirt
G1 X109.017 Y82.900 E0.00138 ; skirt
G1 X109.046 Y82.863 E0.00149 ; skirt
G1 X109.075 Y82.829 E0.00138 ; skirt
G1 X109.103 Y82.796 E0.00138 ; skirt
G1 X109.133 Y82.764 E0.00138 ; skirt
G1 X109.163 Y82.732 E0.00138 ; skirt
G1 X109.194 Y82.701 E0.00138 ; skirt
G1 X109.225 Y82.670 E0.00138 ; skirt
G1 X109.257 Y82.640 E0.00138 ; skirt
G1 X109.290 Y82.611 E0.00138 ; skirt
G1 X109.325 Y82.580 E0.00149 ; skirt
G1 X109.359 Y82.552 E0.00138 ; skirt
G1 X109.387 Y82.529 E0.00111 ; skirt
G1 X122.974 Y71.848 E0.54190 ; skirt
G1 X123.009 Y71.821 E0.00138 ; skirt
G1 X123.047 Y71.793 E0.00149 ; skirt
G1 X123.086 Y71.766 E0.00149 ; skirt
G1 X123.123 Y71.742 E0.00138 ; skirt
G1 X123.151 Y71.724 E0.00103 ; skirt
G1 X123.438 Y71.544 E0.01065 ; skirt
G1 X123.469 Y71.524 E0.00115 ; skirt
G1 X123.498 Y71.508 E0.00103 ; skirt
G1 X123.539 Y71.484 E0.00149 ; skirt
G1 X123.577 Y71.463 E0.00138 ; skirt
G1 X123.620 Y71.442 E0.00149 ; skirt
G1 X123.659 Y71.422 E0.00138 ; skirt
G1 X123.702 Y71.402 E0.00149 ; skirt
G1 X123.742 Y71.385 E0.00138 ; skirt
G1 X123.786 Y71.367 E0.00149 ; skirt
G1 X123.827 Y71.351 E0.00138 ; skirt
G1 X123.872 Y71.334 E0.00149 ; skirt
G1 X124.194 Y71.222 E0.01069 ; skirt
G1 X124.249 Y71.203 E0.00183 ; skirt
G1 X124.305 Y71.186 E0.00183 ; skirt
G1 X124.358 Y71.172 E0.00172 ; skirt
G1 X124.415 Y71.157 E0.00183 ; skirt
G1 X124.472 Y71.145 E0.00183 ; skirt
G1 X124.515 Y71.136 E0.00138 ; skirt
G1 X124.554 Y71.129 E0.00126 ; skirt
G1 X124.594 Y71.123 E0.00126 ; skirt
G1 X124.634 Y71.117 E0.00126 ; skirt
G1 X124.671 Y71.113 E0.00119 ; skirt
G1 X125.009 Y71.075 E0.01065 ; skirt
G1 X125.063 Y71.069 E0.00172 ; skirt
G1 X125.114 Y71.066 E0.00160 ; skirt
G1 X125.166 Y71.063 E0.00160 ; skirt
G1 X125.217 Y71.062 E0.00160 ; skirt
G1 X125.250 Y71.061 E0.00105 ; skirt
G1 X142.254 Y71.061 E0.53314 ; skirt
G1 X142.309 Y71.062 E0.00172 ; skirt
G1 X142.367 Y71.065 E0.00183 ; skirt
G1 X142.425 Y71.068 E0.00183 ; skirt
G1 X142.484 Y71.074 E0.00183 ; skirt
G1 X142.829 Y71.113 E0.01090 ; skirt
G1 X142.865 Y71.117 E0.00115 ; skirt
G1 X142.905 Y71.123 E0.00126 ; skirt
G1 X142.945 Y71.129 E0.00126 ; skirt
G1 X142.984 Y71.136 E0.00126 ; skirt
G1 X143.024 Y71.144 E0.00126 ; skirt
G1 X143.081 Y71.156 E0.00183 ; skirt
G1 X143.138 Y71.170 E0.00183 ; skirt
G1 X143.194 Y71.186 E0.00183 ; skirt
G1 X143.250 Y71.203 E0.00183 ; skirt
G1 X143.302 Y71.220 E0.00172 ; skirt
G1 X143.624 Y71.333 E0.01069 ; skirt
G1 X143.655 Y71.344 E0.00103 ; skirt
G1 X143.686 Y71.355 E0.00103 ; skirt
G1 X143.720 Y71.369 E0.00115 ; skirt
G1 X143.757 Y71.384 E0.00126 ; skirt
G1 X143.794 Y71.400 E0.00126 ; skirt
G1 X143.827 Y71.416 E0.00115 ; skirt
G1 X143.863 Y71.433 E0.00126 ; skirt
G1 X143.896 Y71.449 E0.00115 ; skirt
G1 X143.931 Y71.468 E0.00126 ; skirt
G1 X143.964 Y71.485 E0.00115 ; skirt
G1 X144.008 Y71.511 E0.00160 ; skirt
G1 X144.052 Y71.537 E0.00160 ; skirt
G1 X144.359 Y71.730 E0.01138 ; skirt
G1 X144.408 Y71.762 E0.00183 ; skirt
G1 X144.453 Y71.793 E0.00172 ; skirt
G1 X144.497 Y71.826 E0.00172 ; skirt
G1 X144.541 Y71.859 E0.00172 ; skirt
G1 X144.583 Y71.893 E0.00172 ; skirt
G1 X144.628 Y71.931 E0.00183 ; skirt
G1 X144.669 Y71.968 E0.00172 ; skirt
G1 X144.709 Y72.006 E0.00172 ; skirt
G1 X144.733 Y72.030 E0.00107 ; skirt
G1 X144.973 Y72.270 E0.01065 ; skirt
G1 X144.996 Y72.293 E0.00103 ; skirt
G1 X145.019 Y72.317 E0.00103 ; skirt
G1 X145.061 Y72.363 E0.00195 ; skirt
G1 X145.099 Y72.407 E0.00183 ; skirt
G1 X145.136 Y72.453 E0.00183 ; skirt
G1 X145.174 Y72.502 E0.00195 ; skirt
G1 X145.196 Y72.531 E0.00115 ; skirt
G1 X145.217 Y72.561 E0.00115 ; skirt
G1 X145.237 Y72.591 E0.00115 ; skirt
G1 X145.260 Y72.625 E0.00126 ; skirt
G1 X145.468 Y72.957 E0.01229 ; skirt
G1 X145.500 Y73.010 E0.00195 ; skirt
G1 X145.530 Y73.064 E0.00195 ; skirt
G1 X145.557 Y73.116 E0.00183 ; skirt
G1 X145.584 Y73.172 E0.00195 ; skirt
G1 X145.607 Y73.222 E0.00172 ; skirt
G1 X145.628 Y73.273 E0.00172 ; skirt
G1 X145.648 Y73.324 E0.00172 ; skirt
G1 X145.667 Y73.376 E0.00176 ; skirt
G1 X145.780 Y73.697 E0.01065 ; skirt
G1 X145.792 Y73.735 E0.00126 ; skirt
G1 X145.806 Y73.777 E0.00138 ; skirt
G1 X145.818 Y73.819 E0.00138 ; skirt
G1 X145.830 Y73.861 E0.00138 ; skirt
G1 X145.840 Y73.904 E0.00138 ; skirt
G1 X145.853 Y73.961 E0.00183 ; skirt
G1 X145.865 Y74.018 E0.00183 ; skirt
G1 X145.874 Y74.076 E0.00183 ; skirt
G1 X145.882 Y74.130 E0.00172 ; skirt
G1 X145.887 Y74.171 E0.00130 ; skirt
G1 X145.927 Y74.519 E0.01099 ; skirt
G1 X145.932 Y74.574 E0.00172 ; skirt
G1 X145.935 Y74.629 E0.00172 ; skirt
G1 X145.938 Y74.691 E0.00195 ; skirt
G1 X145.939 Y74.750 E0.00186 ; skirt
G1 X145.939 Y134.754 E1.88137 ; skirt
G1 X145.938 Y134.808 E0.00172 ; skirt
G1 X145.936 Y134.873 E0.00202 ; skirt
G1 X145.922 Y135.107 E0.00735 ; skirt
G1 X145.919 Y135.140 E0.00103 ; skirt
G1 X145.917 Y135.173 E0.00104 ; skirt
G1 X145.913 Y135.211 E0.00122 ; skirt
G1 X145.909 Y135.251 E0.00126 ; skirt
G1 X145.904 Y135.287 E0.00115 ; skirt
G1 X145.897 Y135.333 E0.00144 ; skirt
G1 X145.892 Y135.365 E0.00103 ; skirt
G1 X145.887 Y135.398 E0.00103 ; skirt
G1 X145.843 Y135.632 E0.00747 ; skirt
G1 X145.831 Y135.692 E0.00191 ; skirt
G1 X145.820 Y135.742 E0.00160 ; skirt
G1 X145.812 Y135.774 E0.00103 ; skirt
G1 X145.801 Y135.814 E0.00133 ; skirt
G1 X145.786 Y135.867 E0.00172 ; skirt
G1 X145.713 Y136.102 E0.00770 ; skirt
G1 X145.699 Y136.143 E0.00138 ; skirt
G1 X145.683 Y136.191 E0.00157 ; skirt
G1 X145.669 Y136.229 E0.00126 ; skirt
G1 X145.654 Y136.266 E0.00126 ; skirt
G1 X145.635 Y136.315 E0.00166 ; skirt
G1 X145.616 Y136.359 E0.00149 ; skirt
G1 X145.523 Y136.566 E0.00713 ; skirt
G1 X145.503 Y136.609 E0.00149 ; skirt
G1 X145.477 Y136.661 E0.00180 ; skirt
G1 X145.452 Y136.709 E0.00172 ; skirt
G1 X145.419 Y136.769 E0.00213 ; skirt
G1 X145.392 Y136.816 E0.00172 ; skirt
G1 X145.265 Y137.026 E0.00770 ; skirt
G1 X145.230 Y137.081 E0.00203 ; skirt
G1 X145.197 Y137.130 E0.00183 ; skirt
G1 X145.162 Y137.179 E0.00191 ; skirt
G1 X145.129 Y137.223 E0.00172 ; skirt
G1 X144.964 Y137.435 E0.00842 ; skirt
G1 X144.926 Y137.480 E0.00186 ; skirt
G1 X144.893 Y137.519 E0.00160 ; skirt
G1 X144.861 Y137.555 E0.00149 ; skirt
G1 X144.815 Y137.604 E0.00212 ; skirt
G1 X144.786 Y137.633 E0.00126 ; skirt
G1 X144.626 Y137.794 E0.00713 ; skirt
G1 X144.591 Y137.827 E0.00149 ; skirt
G1 X144.549 Y137.866 E0.00180 ; skirt
G1 X144.517 Y137.895 E0.00138 ; skirt
G1 X144.476 Y137.929 E0.00167 ; skirt
G1 X144.445 Y137.955 E0.00126 ; skirt
G1 X144.414 Y137.980 E0.00127 ; skirt
G1 X144.246 Y138.111 E0.00666 ; skirt
G1 X144.220 Y138.131 E0.00103 ; skirt
G1 X144.163 Y138.174 E0.00225 ; skirt
G1 X144.112 Y138.209 E0.00195 ; skirt
G1 X144.061 Y138.243 E0.00191 ; skirt
G1 X144.021 Y138.268 E0.00149 ; skirt
G1 X143.823 Y138.388 E0.00724 ; skirt
G1 X143.792 Y138.406 E0.00115 ; skirt
G1 X143.742 Y138.434 E0.00179 ; skirt
G1 X143.697 Y138.459 E0.00160 ; skirt
G1 X143.642 Y138.486 E0.00192 ; skirt
G1 X143.596 Y138.509 E0.00160 ; skirt
G1 X143.355 Y138.618 E0.00830 ; skirt
G1 X143.297 Y138.642 E0.00197 ; skirt
G1 X143.246 Y138.662 E0.00172 ; skirt
G1 X143.215 Y138.674 E0.00103 ; skirt
G1 X143.175 Y138.688 E0.00132 ; skirt
G1 X143.123 Y138.706 E0.00172 ; skirt
G1 X142.889 Y138.779 E0.00770 ; skirt
G1 X142.840 Y138.794 E0.00160 ; skirt
G1 X142.781 Y138.810 E0.00191 ; skirt
G1 X142.735 Y138.821 E0.00149 ; skirt
G1 X142.675 Y138.834 E0.00192 ; skirt
G1 X142.621 Y138.845 E0.00172 ; skirt
G1 X142.404 Y138.885 E0.00693 ; skirt
G1 X142.372 Y138.891 E0.00103 ; skirt
G1 X142.339 Y138.896 E0.00103 ; skirt
G1 X142.291 Y138.903 E0.00152 ; skirt
G1 X142.244 Y138.909 E0.00149 ; skirt
G1 X142.180 Y138.916 E0.00201 ; skirt
G1 X142.133 Y138.920 E0.00149 ; skirt
G1 X141.877 Y138.935 E0.00804 ; skirt
G1 X141.812 Y138.938 E0.00203 ; skirt
G1 X141.761 Y138.938 E0.00160 ; skirt
G1 X126.739 Y138.939 E0.47100 ; skirt
G1 X126.688 Y138.938 E0.00160 ; skirt
G1 X126.637 Y138.936 E0.00160 ; skirt
G1 X126.373 Y138.920 E0.00828 ; skirt
G1 X126.311 Y138.915 E0.00195 ; skirt
G1 X126.279 Y138.912 E0.00103 ; skirt
G1 X126.246 Y138.908 E0.00103 ; skirt
G1 X126.213 Y138.904 E0.00103 ; skirt
G1 X126.181 Y138.899 E0.00103 ; skirt
G1 X126.148 Y138.894 E0.00103 ; skirt
G1 X126.115 Y138.888 E0.00107 ; skirt
G1 X125.856 Y138.841 E0.00826 ; skirt
G1 X125.805 Y138.830 E0.00160 ; skirt
G1 X125.756 Y138.819 E0.00160 ; skirt
G1 X125.699 Y138.804 E0.00183 ; skirt
G1 X125.643 Y138.788 E0.00183 ; skirt
G1 X125.362 Y138.701 E0.00922 ; skirt
G1 X125.313 Y138.684 E0.00160 ; skirt
G1 X125.265 Y138.667 E0.00160 ; skirt
G1 X125.218 Y138.648 E0.00160 ; skirt
G1 X125.171 Y138.628 E0.00160 ; skirt
G1 X124.906 Y138.509 E0.00910 ; skirt
G1 X124.856 Y138.486 E0.00172 ; skirt
G1 X124.804 Y138.459 E0.00183 ; skirt
G1 X124.756 Y138.433 E0.00172 ; skirt
G1 X124.708 Y138.406 E0.00172 ; skirt
G1 X124.463 Y138.257 E0.00899 ; skirt
G1 X124.420 Y138.230 E0.00160 ; skirt
G1 X124.377 Y138.202 E0.00160 ; skirt
G1 X124.336 Y138.172 E0.00160 ; skirt
G1 X124.294 Y138.142 E0.00160 ; skirt
G1 X124.264 Y138.119 E0.00119 ; skirt
G1 X124.064 Y137.961 E0.00800 ; skirt
G1 X124.021 Y137.927 E0.00172 ; skirt
G1 X123.982 Y137.893 E0.00160 ; skirt
G1 X123.942 Y137.857 E0.00172 ; skirt
G1 X123.899 Y137.816 E0.00183 ; skirt
G1 X123.690 Y137.608 E0.00925 ; skirt
G1 X123.657 Y137.574 E0.00149 ; skirt
G1 X123.623 Y137.536 E0.00160 ; skirt
G1 X123.589 Y137.498 E0.00160 ; skirt
G1 X123.559 Y137.461 E0.00149 ; skirt
G1 X123.533 Y137.430 E0.00126 ; skirt
G1 X123.371 Y137.222 E0.00827 ; skirt
G1 X108.999 Y118.577 E0.73811 ; skirt
G1 X108.971 Y118.539 E0.00149 ; skirt
G1 X108.941 Y118.498 E0.00160 ; skirt
G1 X108.915 Y118.458 E0.00149 ; skirt
G1 X108.889 Y118.418 E0.00149 ; skirt
G1 X108.864 Y118.378 E0.00149 ; skirt
G1 X108.840 Y118.337 E0.00149 ; skirt
G1 X108.817 Y118.295 E0.00149 ; skirt
G1 X108.794 Y118.253 E0.00149 ; skirt
G1 X108.772 Y118.208 E0.00160 ; skirt
G1 X108.751 Y118.165 E0.00149 ; skirt
G1 X108.732 Y118.121 E0.00149 ; skirt
G1 X108.713 Y118.078 E0.00149 ; skirt
G1 X108.696 Y118.033 E0.00149 ; skirt
G1 X108.679 Y117.989 E0.00149 ; skirt
G1 X108.664 Y117.944 E0.00149 ; skirt
G1 X108.649 Y117.899 E0.00149 ; skirt
G1 X108.637 Y117.857 E0.00138 ; skirt
G1 X108.626 Y117.818 E0.00126 ; skirt
G1 X108.616 Y117.779 E0.00126 ; skirt
G1 X108.606 Y117.740 E0.00126 ; skirt
G1 X108.598 Y117.701 E0.00126 ; skirt
G1 X108.590 Y117.661 E0.00126 ; skirt
G1 X108.582 Y117.618 E0.00138 ; skirt
G1 X108.576 Y117.579 E0.00126 ; skirt
G1 X108.570 Y117.539 E0.00126 ; skirt
G1 X108.565 Y117.495 E0.00138 ; skirt
G1 X108.560 Y117.455 E0.00126 ; skirt
G1 X108.557 Y117.415 E0.00126 ; skirt
G1 X108.554 Y117.375 E0.00126 ; skirt
G1 X108.552 Y117.331 E0.00138 ; skirt
G1 X108.551 Y117.291 E0.00126 ; skirt
G1 X108.551 Y117.250 E0.00129 ; skirt
G1 X108.551 Y84.246 E1.03481 ; skirt
G1 X108.552 Y84.184 E0.00195 ; skirt
G1 X108.553 Y84.151 E0.00103 ; skirt
G1 X108.555 Y84.113 E0.00121 ; skirt
; PURGING FINISHED
G1 F8640
G1 X108.563 Y84.020 E-0.02145 ; wipe and retract
G1 X108.567 Y83.987 E-0.00760 ; wipe and retract
G1 X108.571 Y83.955 E-0.00760 ; wipe and retract
G1 X108.576 Y83.922 E-0.00760 ; wipe and retract
G1 X108.581 Y83.890 E-0.00760 ; wipe and retract
G1 X108.586 Y83.857 E-0.00760 ; wipe and retract
G1 X108.592 Y83.825 E-0.00760 ; wipe and retract
G1 X108.599 Y83.793 E-0.00760 ; wipe and retract
G1 X108.613 Y83.732 E-0.01435 ; wipe and retract
G1 X108.624 Y83.690 E-0.01013 ; wipe and retract
G1 X108.635 Y83.648 E-0.01013 ; wipe and retract
G1 X108.648 Y83.605 E-0.01013 ; wipe and retract
G1 X108.661 Y83.564 E-0.01013 ; wipe and retract
G1 X108.675 Y83.522 E-0.01013 ; wipe and retract
G1 X108.690 Y83.481 E-0.01013 ; wipe and retract
G1 X108.708 Y83.437 E-0.01097 ; wipe and retract
G1 X108.724 Y83.396 E-0.01013 ; wipe and retract
G1 X108.742 Y83.356 E-0.01013 ; wipe and retract
G1 X108.760 Y83.316 E-0.01013 ; wipe and retract
G1 X108.779 Y83.277 E-0.01013 ; wipe and retract
G1 X108.799 Y83.238 E-0.01013 ; wipe and retract
G1 X108.820 Y83.199 E-0.01013 ; wipe and retract
G1 X108.841 Y83.161 E-0.01013 ; wipe and retract
G1 X108.863 Y83.123 E-0.01013 ; wipe and retract
G1 X108.888 Y83.082 E-0.01097 ; wipe and retract
G1 X108.914 Y83.042 E-0.01097 ; wipe and retract
G1 X108.939 Y83.006 E-0.01013 ; wipe and retract
G1 X108.964 Y82.970 E-0.01013 ; wipe and retract
G1 X108.990 Y82.935 E-0.01013 ; wipe and retract
G1 X109.017 Y82.900 E-0.01013 ; wipe and retract
G1 X109.046 Y82.863 E-0.01097 ; wipe and retract
G1 X109.075 Y82.829 E-0.01013 ; wipe and retract
G1 X109.103 Y82.796 E-0.01013 ; wipe and retract
G1 X109.133 Y82.764 E-0.01013 ; wipe and retract
G1 X109.163 Y82.732 E-0.01013 ; wipe and retract
G1 X109.194 Y82.701 E-0.01013 ; wipe and retract
G1 X109.225 Y82.670 E-0.01013 ; wipe and retract
G1 X109.257 Y82.640 E-0.01013 ; wipe and retract
G1 X109.290 Y82.611 E-0.01013 ; wipe and retract
G1 X109.325 Y82.580 E-0.01097 ; wipe and retract
G1 X109.359 Y82.552 E-0.01013 ; wipe and retract
G1 X109.387 Y82.529 E-0.00814 ; wipe and retract
G1 X110.526 Y81.634 E-0.33462 ; wipe and retract
G1 E-0.04000 F2100.00000 ; retract
G1 Z0.800 F10800.000 ; lift Z
G1 X130.506 Y79.792 ; move to first perimeter point
G1 Z0.200 ; restore layer Z
G1 E0.80000 F2100.00000 ; unretract
G1 F600
G1 X130.461 Y79.186 E0.01903 ; perimeter
G1 X130.529 Y78.583 E0.01903 ; perimeter
G1 X130.706 Y78.003 E0.01903 ; perimeter
G1 X130.987 Y77.465 E0.01903 ; perimeter
G1 X131.362 Y76.987 E0.01903 ; perimeter
G1 X131.819 Y76.587 E0.01903 ; perimeter
