; generated by Slic3r Prusa Edition 1.42.0-alpha1+ on 2019-01-02 at 16:51:43

; 

; external perimeters extrusion width = 0.45mm
; perimeters extrusion width = 0.45mm
; infill extrusion width = 0.45mm
; solid infill extrusion width = 0.45mm
; top infill extrusion width = 0.40mm
; first layer extrusion width = 0.42mm

M201 X9000 Y9000 Z500 E10000 ; sets maximum accelerations, mm/sec^2
M203 X500 Y500 Z12 E120 ; sets maximum feedrates, mm/sec
M204 P2000 R1500 T2000 ; sets acceleration (P, T) and retract acceleration (R), mm/sec^2
M205 X10.00 Y10.00 Z0.20 E2.50 ; sets the jerk limits, mm/sec
M205 S0 T0 ; sets the minimum extruding and travel feed rate, mm/sec
M107 ; disable fan
M115 U3.1.0 ; tell printer latest fw version
M83  ; extruder relative mode
M204 S2000 T1500 ; MK2 firmware only supports the old M204 format
M104 S230 ; set extruder temp
M140 S85 ; set bed temp
M190 S85 ; wait for bed temp
M109 S230 ; wait for extruder temp
G28 W ; home all without mesh bed level
G29 ; bed leveling
G1 Y-3.0 F1000.0 ; go outside print area
G92 E0.0
G1 X60.0 E9.0  F1000.0 ; intro line
G1 X100.0 E12.5  F1000.0 ; intro line
G92 E0.0
M900 K45; Filament gcode
G21 ; set units to millimeters
G90 ; use absolute coordinates
M83 ; use relative distances for extrusion
;BEFORE_LAYER_CHANGE
G92 E0.0
;0.2


G1 E-0.80000 F2100.00000 ; retract
G1 Z0.600 F10800.000 ; lift Z
;AFTER_LAYER_CHANGE
;0.2
G1 X104.776 Y72.571 ; move to first skirt point
G1 Z0.200 ; restore layer Z
G1 E0.80000 F2100.00000 ; unretract
M204 S1000 ; adjust acceleration
G1 F600
G1 X104.806 Y72.529 E0.00160 ; skirt
G1 X104.839 Y72.485 E0.00172 ; skirt
G1 X104.870 Y72.445 E0.00160 ; skirt
G1 X104.900 Y72.408 E0.00149 ; skirt
G1 X104.934 Y72.370 E0.00160 ; skirt
G1 X104.968 Y72.331 E0.00160 ; skirt
G1 X105.003 Y72.294 E0.00160 ; skirt
G1 X105.030 Y72.267 E0.00119 ; skirt
G1 X105.270 Y72.027 E0.01065 ; skirt
G1 X105.296 Y72.002 E0.00115 ; skirt
G1 X105.322 Y71.976 E0.00115 ; skirt
G1 X105.355 Y71.947 E0.00138 ; skirt
G1 X105.390 Y71.915 E0.00149 ; skirt
G1 X105.427 Y71.885 E0.00149 ; skirt
G1 X105.461 Y71.858 E0.00138 ; skirt
G1 X105.496 Y71.831 E0.00138 ; skirt
G1 X105.531 Y71.805 E0.00138 ; skirt
G1 X105.570 Y71.777 E0.00149 ; skirt
G1 X105.606 Y71.753 E0.00138 ; skirt
G1 X105.650 Y71.724 E0.00165 ; skirt
G1 X105.932 Y71.547 E0.01044 ; skirt
G1 X105.969 Y71.524 E0.00138 ; skirt
G1 X106.014 Y71.498 E0.00160 ; skirt
G1 X106.062 Y71.472 E0.00172 ; skirt
G1 X106.107 Y71.448 E0.00160 ; skirt
G1 X106.153 Y71.426 E0.00160 ; skirt
G1 X106.196 Y71.406 E0.00149 ; skirt
G1 X106.240 Y71.387 E0.00149 ; skirt
G1 X106.284 Y71.369 E0.00149 ; skirt
G1 X106.328 Y71.352 E0.00149 ; skirt
G1 X106.359 Y71.341 E0.00103 ; skirt
G1 X106.688 Y71.224 E0.01094 ; skirt
G1 X106.719 Y71.213 E0.00103 ; skirt
G1 X106.753 Y71.202 E0.00115 ; skirt
G1 X106.799 Y71.188 E0.00149 ; skirt
G1 X106.845 Y71.175 E0.00149 ; skirt
G1 X106.887 Y71.164 E0.00138 ; skirt
G1 X106.933 Y71.153 E0.00149 ; skirt
G1 X106.980 Y71.143 E0.00149 ; skirt
G1 X107.026 Y71.134 E0.00149 ; skirt
G1 X107.073 Y71.126 E0.00149 ; skirt
G1 X107.120 Y71.119 E0.00149 ; skirt
G1 X107.171 Y71.113 E0.00161 ; skirt
G1 X107.508 Y71.075 E0.01065 ; skirt
G1 X107.548 Y71.071 E0.00126 ; skirt
G1 X107.596 Y71.067 E0.00149 ; skirt
G1 X107.647 Y71.064 E0.00160 ; skirt
G1 X107.694 Y71.062 E0.00149 ; skirt
G1 X107.742 Y71.061 E0.00149 ; skirt
G1 X124.753 Y71.061 E0.53339 ; skirt
G1 X124.801 Y71.062 E0.00149 ; skirt
G1 X124.852 Y71.064 E0.00160 ; skirt
G1 X124.903 Y71.067 E0.00160 ; skirt
G1 X124.954 Y71.071 E0.00160 ; skirt
G1 X124.991 Y71.075 E0.00115 ; skirt
G1 X125.332 Y71.113 E0.01078 ; skirt
G1 X125.368 Y71.118 E0.00115 ; skirt
G1 X125.408 Y71.123 E0.00126 ; skirt
G1 X125.459 Y71.131 E0.00160 ; skirt
G1 X125.506 Y71.140 E0.00149 ; skirt
G1 X125.552 Y71.150 E0.00149 ; skirt
G1 X125.602 Y71.161 E0.00160 ; skirt
G1 X125.651 Y71.174 E0.00160 ; skirt
G1 X125.697 Y71.187 E0.00149 ; skirt
G1 X125.743 Y71.201 E0.00149 ; skirt
G1 X125.791 Y71.217 E0.00160 ; skirt
G1 X126.121 Y71.332 E0.01094 ; skirt
G1 X126.179 Y71.353 E0.00195 ; skirt
G1 X126.230 Y71.374 E0.00172 ; skirt
G1 X126.280 Y71.395 E0.00172 ; skirt
G1 X126.330 Y71.418 E0.00172 ; skirt
G1 X126.383 Y71.444 E0.00183 ; skirt
G1 X126.418 Y71.462 E0.00126 ; skirt
G1 X126.454 Y71.481 E0.00126 ; skirt
G1 X126.489 Y71.501 E0.00126 ; skirt
G1 X126.520 Y71.520 E0.00115 ; skirt
G1 X126.548 Y71.537 E0.00103 ; skirt
G1 X126.824 Y71.708 E0.01017 ; skirt
G1 X126.871 Y71.738 E0.00176 ; skirt
G1 X126.914 Y71.766 E0.00160 ; skirt
G1 X126.956 Y71.795 E0.00160 ; skirt
G1 X127.000 Y71.828 E0.00172 ; skirt
G1 X127.038 Y71.857 E0.00149 ; skirt
G1 X140.613 Y82.529 E0.54144 ; skirt
G1 X140.645 Y82.555 E0.00126 ; skirt
G1 X140.673 Y82.578 E0.00115 ; skirt
G1 X140.700 Y82.602 E0.00115 ; skirt
G1 X140.728 Y82.626 E0.00115 ; skirt
G1 X140.755 Y82.651 E0.00115 ; skirt
G1 X140.784 Y82.679 E0.00126 ; skirt
G1 X140.810 Y82.704 E0.00115 ; skirt
G1 X140.835 Y82.730 E0.00115 ; skirt
G1 X140.861 Y82.757 E0.00115 ; skirt
G1 X140.885 Y82.784 E0.00115 ; skirt
G1 X140.910 Y82.811 E0.00115 ; skirt
G1 X140.933 Y82.839 E0.00115 ; skirt
G1 X140.959 Y82.870 E0.00126 ; skirt
G1 X140.982 Y82.898 E0.00115 ; skirt
G1 X141.004 Y82.927 E0.00115 ; skirt
G1 X141.028 Y82.959 E0.00126 ; skirt
G1 X141.049 Y82.989 E0.00115 ; skirt
G1 X141.070 Y83.019 E0.00115 ; skirt
G1 X141.091 Y83.050 E0.00115 ; skirt
G1 X141.112 Y83.083 E0.00126 ; skirt
G1 X141.132 Y83.114 E0.00115 ; skirt
G1 X141.150 Y83.146 E0.00115 ; skirt
G1 X141.170 Y83.181 E0.00126 ; skirt
G1 X141.188 Y83.213 E0.00115 ; skirt
G1 X141.205 Y83.245 E0.00115 ; skirt
G1 X141.221 Y83.278 E0.00115 ; skirt
G1 X141.239 Y83.314 E0.00126 ; skirt
G1 X141.254 Y83.347 E0.00115 ; skirt
G1 X141.269 Y83.381 E0.00115 ; skirt
G1 X141.283 Y83.414 E0.00115 ; skirt
G1 X141.297 Y83.448 E0.00115 ; skirt
G1 X141.310 Y83.482 E0.00115 ; skirt
G1 X141.323 Y83.517 E0.00115 ; skirt
G1 X141.338 Y83.561 E0.00149 ; skirt
G1 X141.351 Y83.603 E0.00138 ; skirt
G1 X141.365 Y83.649 E0.00149 ; skirt
G1 X141.378 Y83.695 E0.00149 ; skirt
G1 X141.389 Y83.741 E0.00149 ; skirt
G1 X141.399 Y83.783 E0.00138 ; skirt
G1 X141.408 Y83.830 E0.00149 ; skirt
G1 X141.417 Y83.877 E0.00149 ; skirt
G1 X141.425 Y83.924 E0.00149 ; skirt
G1 X141.431 Y83.971 E0.00149 ; skirt
G1 X141.437 Y84.018 E0.00149 ; skirt
G1 X141.441 Y84.061 E0.00138 ; skirt
G1 X141.445 Y84.109 E0.00149 ; skirt
G1 X141.447 Y84.156 E0.00149 ; skirt
G1 X141.449 Y84.200 E0.00138 ; skirt
G1 X141.449 Y84.248 E0.00149 ; skirt
G1 X141.449 Y117.254 E1.03488 ; skirt
G1 X141.449 Y117.287 E0.00103 ; skirt
G1 X141.448 Y117.319 E0.00103 ; skirt
G1 X141.447 Y117.352 E0.00103 ; skirt
G1 X141.445 Y117.389 E0.00115 ; skirt
G1 X141.442 Y117.425 E0.00115 ; skirt
G1 X141.439 Y117.458 E0.00103 ; skirt
G1 X141.436 Y117.491 E0.00103 ; skirt
G1 X141.432 Y117.527 E0.00115 ; skirt
G1 X141.427 Y117.563 E0.00115 ; skirt
G1 X141.422 Y117.596 E0.00103 ; skirt
G1 X141.416 Y117.628 E0.00103 ; skirt
G1 X141.410 Y117.664 E0.00115 ; skirt
G1 X141.402 Y117.700 E0.00115 ; skirt
G1 X141.395 Y117.732 E0.00103 ; skirt
G1 X141.387 Y117.768 E0.00115 ; skirt
G1 X141.379 Y117.800 E0.00103 ; skirt
G1 X141.365 Y117.852 E0.00172 ; skirt
G1 X141.350 Y117.901 E0.00160 ; skirt
G1 X141.333 Y117.954 E0.00172 ; skirt
G1 X141.315 Y118.005 E0.00172 ; skirt
G1 X141.295 Y118.057 E0.00172 ; skirt
G1 X141.274 Y118.107 E0.00172 ; skirt
G1 X141.252 Y118.157 E0.00172 ; skirt
G1 X141.230 Y118.204 E0.00160 ; skirt
G1 X141.206 Y118.253 E0.00172 ; skirt
G1 X141.180 Y118.301 E0.00172 ; skirt
G1 X141.153 Y118.349 E0.00172 ; skirt
G1 X141.125 Y118.396 E0.00172 ; skirt
G1 X141.096 Y118.442 E0.00172 ; skirt
G1 X141.067 Y118.485 E0.00160 ; skirt
G1 X141.036 Y118.530 E0.00172 ; skirt
G1 X141.003 Y118.574 E0.00172 ; skirt
G1 X126.627 Y137.225 E0.73836 ; skirt
G1 X126.457 Y137.442 E0.00865 ; skirt
G1 X126.419 Y137.487 E0.00183 ; skirt
G1 X126.381 Y137.531 E0.00183 ; skirt
G1 X126.346 Y137.569 E0.00160 ; skirt
G1 X126.308 Y137.609 E0.00172 ; skirt
G1 X126.124 Y137.795 E0.00822 ; skirt
G1 X126.079 Y137.838 E0.00195 ; skirt
G1 X126.050 Y137.865 E0.00126 ; skirt
G1 X126.020 Y137.892 E0.00126 ; skirt
G1 X125.992 Y137.916 E0.00115 ; skirt
G1 X125.961 Y137.942 E0.00126 ; skirt
G1 X125.930 Y137.967 E0.00126 ; skirt
G1 X125.724 Y138.128 E0.00819 ; skirt
G1 X125.677 Y138.163 E0.00183 ; skirt
G1 X125.630 Y138.197 E0.00183 ; skirt
G1 X125.581 Y138.229 E0.00183 ; skirt
G1 X125.532 Y138.261 E0.00183 ; skirt
G1 X125.305 Y138.398 E0.00830 ; skirt
G1 X125.255 Y138.427 E0.00183 ; skirt
G1 X125.210 Y138.452 E0.00160 ; skirt
G1 X125.168 Y138.474 E0.00149 ; skirt
G1 X125.122 Y138.496 E0.00160 ; skirt
G1 X125.077 Y138.517 E0.00153 ; skirt
G1 X124.838 Y138.624 E0.00822 ; skirt
G1 X124.788 Y138.645 E0.00172 ; skirt
G1 X124.737 Y138.665 E0.00172 ; skirt
G1 X124.685 Y138.684 E0.00172 ; skirt
G1 X124.637 Y138.700 E0.00160 ; skirt
G1 X124.370 Y138.784 E0.00875 ; skirt
G1 X124.325 Y138.798 E0.00149 ; skirt
G1 X124.275 Y138.811 E0.00160 ; skirt
G1 X124.225 Y138.823 E0.00160 ; skirt
G1 X124.179 Y138.833 E0.00149 ; skirt
G1 X124.136 Y138.842 E0.00138 ; skirt
G1 X123.890 Y138.887 E0.00785 ; skirt
G1 X123.850 Y138.894 E0.00126 ; skirt
G1 X123.811 Y138.900 E0.00126 ; skirt
G1 X123.771 Y138.906 E0.00126 ; skirt
G1 X123.735 Y138.910 E0.00115 ; skirt
G1 X123.698 Y138.914 E0.00115 ; skirt
G1 X123.658 Y138.917 E0.00126 ; skirt
G1 X123.380 Y138.935 E0.00875 ; skirt
G1 X123.347 Y138.936 E0.00103 ; skirt
G1 X123.314 Y138.938 E0.00103 ; skirt
G1 X123.281 Y138.938 E0.00103 ; skirt
G1 X123.250 Y138.939 E0.00098 ; skirt
G1 X108.232 Y138.938 E0.47089 ; skirt
G1 X108.184 Y138.938 E0.00150 ; skirt
G1 X108.123 Y138.935 E0.00189 ; skirt
G1 X107.886 Y138.921 E0.00747 ; skirt
G1 X107.849 Y138.918 E0.00115 ; skirt
G1 X107.807 Y138.915 E0.00134 ; skirt
G1 X107.774 Y138.911 E0.00103 ; skirt
G1 X107.738 Y138.907 E0.00115 ; skirt
G1 X107.681 Y138.899 E0.00181 ; skirt
G1 X107.630 Y138.891 E0.00160 ; skirt
G1 X107.384 Y138.846 E0.00784 ; skirt
G1 X107.345 Y138.839 E0.00126 ; skirt
G1 X107.301 Y138.829 E0.00140 ; skirt
G1 X107.265 Y138.821 E0.00115 ; skirt
G1 X107.226 Y138.811 E0.00126 ; skirt
G1 X107.168 Y138.796 E0.00190 ; skirt
G1 X107.122 Y138.782 E0.00149 ; skirt
G1 X106.901 Y138.714 E0.00724 ; skirt
G1 X106.863 Y138.701 E0.00126 ; skirt
G1 X106.806 Y138.681 E0.00191 ; skirt
G1 X106.758 Y138.664 E0.00160 ; skirt
G1 X106.695 Y138.638 E0.00213 ; skirt
G1 X106.648 Y138.619 E0.00160 ; skirt
G1 X106.414 Y138.513 E0.00804 ; skirt
G1 X106.356 Y138.485 E0.00203 ; skirt
G1 X106.303 Y138.459 E0.00183 ; skirt
G1 X106.246 Y138.428 E0.00204 ; skirt
G1 X106.199 Y138.400 E0.00172 ; skirt
G1 X105.994 Y138.277 E0.00750 ; skirt
G1 X105.963 Y138.258 E0.00115 ; skirt
G1 X105.913 Y138.226 E0.00186 ; skirt
G1 X105.874 Y138.199 E0.00149 ; skirt
G1 X105.823 Y138.164 E0.00193 ; skirt
G1 X105.782 Y138.133 E0.00160 ; skirt
G1 X105.568 Y137.966 E0.00853 ; skirt
G1 X105.517 Y137.923 E0.00209 ; skirt
G1 X105.472 Y137.885 E0.00183 ; skirt
G1 X105.420 Y137.837 E0.00224 ; skirt
G1 X105.380 Y137.799 E0.00172 ; skirt
G1 X105.217 Y137.636 E0.00724 ; skirt
G1 X105.191 Y137.610 E0.00115 ; skirt
G1 X105.149 Y137.565 E0.00191 ; skirt
G1 X105.115 Y137.527 E0.00160 ; skirt
G1 X105.070 Y137.476 E0.00212 ; skirt
G1 X105.036 Y137.434 E0.00172 ; skirt
G1 X104.875 Y137.229 E0.00816 ; skirt
G1 X104.837 Y137.177 E0.00203 ; skirt
G1 X104.805 Y137.132 E0.00172 ; skirt
G1 X104.769 Y137.079 E0.00203 ; skirt
G1 X104.739 Y137.032 E0.00172 ; skirt
G1 X104.615 Y136.828 E0.00750 ; skirt
G1 X104.598 Y136.799 E0.00103 ; skirt
G1 X104.569 Y136.748 E0.00187 ; skirt
G1 X104.544 Y136.703 E0.00160 ; skirt
G1 X104.514 Y136.642 E0.00212 ; skirt
G1 X104.491 Y136.596 E0.00160 ; skirt
G1 X104.476 Y136.563 E0.00116 ; skirt
G1 X104.381 Y136.353 E0.00723 ; skirt
G1 X104.355 Y136.290 E0.00214 ; skirt
G1 X104.335 Y136.239 E0.00172 ; skirt
G1 X104.310 Y136.171 E0.00224 ; skirt
G1 X104.293 Y136.119 E0.00172 ; skirt
G1 X104.223 Y135.896 E0.00735 ; skirt
G1 X104.213 Y135.864 E0.00103 ; skirt
G1 X104.197 Y135.805 E0.00191 ; skirt
G1 X104.184 Y135.756 E0.00160 ; skirt
G1 X104.170 Y135.696 E0.00192 ; skirt
G1 X104.159 Y135.643 E0.00172 ; skirt
G1 X104.110 Y135.379 E0.00842 ; skirt
G1 X104.100 Y135.313 E0.00209 ; skirt
G1 X104.092 Y135.259 E0.00172 ; skirt
G1 X104.085 Y135.187 E0.00225 ; skirt
G1 X104.080 Y135.133 E0.00172 ; skirt
G1 X104.064 Y134.869 E0.00827 ; skirt
G1 X104.062 Y134.805 E0.00203 ; skirt
G1 X104.061 Y134.753 E0.00161 ; skirt
G1 X104.061 Y74.746 E1.88148 ; skirt
G1 X104.062 Y74.699 E0.00149 ; skirt
G1 X104.063 Y74.651 E0.00149 ; skirt
G1 X104.066 Y74.604 E0.00149 ; skirt
G1 X104.070 Y74.553 E0.00160 ; skirt
G1 X104.075 Y74.505 E0.00151 ; skirt
G1 X104.115 Y74.153 E0.01110 ; skirt
G1 X104.119 Y74.117 E0.00115 ; skirt
G1 X104.124 Y74.084 E0.00103 ; skirt
G1 X104.130 Y74.048 E0.00115 ; skirt
G1 X104.136 Y74.012 E0.00115 ; skirt
G1 X104.144 Y73.976 E0.00115 ; skirt
G1 X104.151 Y73.941 E0.00115 ; skirt
G1 X104.159 Y73.905 E0.00115 ; skirt
G1 X104.168 Y73.870 E0.00115 ; skirt
G1 X104.179 Y73.831 E0.00126 ; skirt
G1 X104.191 Y73.789 E0.00138 ; skirt
G1 X104.203 Y73.750 E0.00126 ; skirt
G1 X104.215 Y73.712 E0.00126 ; skirt
G1 X104.334 Y73.372 E0.01128 ; skirt
G1 X104.348 Y73.335 E0.00126 ; skirt
G1 X104.362 Y73.297 E0.00126 ; skirt
G1 X104.380 Y73.253 E0.00149 ; skirt
G1 X104.399 Y73.210 E0.00149 ; skirt
G1 X104.418 Y73.170 E0.00138 ; skirt
G1 X104.439 Y73.127 E0.00149 ; skirt
G1 X104.459 Y73.088 E0.00138 ; skirt
G1 X104.481 Y73.046 E0.00149 ; skirt
G1 X104.505 Y73.005 E0.00149 ; skirt
G1 X104.527 Y72.967 E0.00138 ; skirt
G1 X104.710 Y72.673 E0.01086 ; skirt
G1 X104.743 Y72.621 E0.00193 ; skirt
; PURGING FINISHED
G1 F8640
G1 X104.806 Y72.529 E-0.02567 ; wipe and retract
G1 X104.839 Y72.485 E-0.01266 ; wipe and retract
G1 X104.870 Y72.445 E-0.01181 ; wipe and retract
G1 X104.900 Y72.408 E-0.01097 ; wipe and retract
G1 X104.934 Y72.370 E-0.01181 ; wipe and retract
G1 X104.968 Y72.331 E-0.01181 ; wipe and retract
G1 X105.003 Y72.294 E-0.01181 ; wipe and retract
G1 X105.030 Y72.267 E-0.00875 ; wipe and retract
G1 X105.270 Y72.027 E-0.07842 ; wipe and retract
G1 X105.296 Y72.002 E-0.00844 ; wipe and retract
G1 X105.322 Y71.976 E-0.00844 ; wipe and retract
G1 X105.355 Y71.947 E-0.01013 ; wipe and retract
G1 X105.390 Y71.915 E-0.01097 ; wipe and retract
G1 X105.427 Y71.885 E-0.01097 ; wipe and retract
G1 X105.461 Y71.858 E-0.01013 ; wipe and retract
G1 X105.496 Y71.831 E-0.01013 ; wipe and retract
G1 X105.531 Y71.805 E-0.01013 ; wipe and retract
G1 X105.570 Y71.777 E-0.01097 ; wipe and retract
G1 X105.606 Y71.753 E-0.01013 ; wipe and retract
G1 X105.650 Y71.724 E-0.01212 ; wipe and retract
G1 X105.932 Y71.547 E-0.07685 ; wipe and retract
G1 X105.969 Y71.524 E-0.01013 ; wipe and retract
G1 X106.014 Y71.498 E-0.01181 ; wipe and retract
G1 X106.062 Y71.472 E-0.01266 ; wipe and retract
G1 X106.107 Y71.448 E-0.01181 ; wipe and retract
G1 X106.153 Y71.426 E-0.01181 ; wipe and retract
G1 X106.196 Y71.406 E-0.01097 ; wipe and retract
G1 X106.240 Y71.387 E-0.01097 ; wipe and retract
G1 X106.284 Y71.369 E-0.01097 ; wipe and retract
G1 X106.328 Y71.352 E-0.01097 ; wipe and retract
G1 X106.359 Y71.341 E-0.00760 ; wipe and retract
G1 X106.688 Y71.224 E-0.08054 ; wipe and retract
G1 X106.719 Y71.213 E-0.00760 ; wipe and retract
G1 X106.753 Y71.202 E-0.00844 ; wipe and retract
G1 X106.799 Y71.188 E-0.01097 ; wipe and retract
G1 X106.845 Y71.175 E-0.01097 ; wipe and retract
G1 X106.887 Y71.164 E-0.01013 ; wipe and retract
G1 X106.933 Y71.153 E-0.01097 ; wipe and retract
G1 X106.980 Y71.143 E-0.01097 ; wipe and retract
G1 X107.026 Y71.134 E-0.01097 ; wipe and retract
G1 X107.073 Y71.126 E-0.01097 ; wipe and retract
G1 X107.120 Y71.119 E-0.01097 ; wipe and retract
G1 X107.171 Y71.113 E-0.01182 ; wipe and retract
G1 X107.508 Y71.075 E-0.07840 ; wipe and retract
G1 X107.523 Y71.073 E-0.00345 ; wipe and retract
G1 E-0.04000 F2100.00000 ; retract
G1 Z0.800 F10800.000 ; lift Z
G1 X113.420 Y77.573 ; move to first perimeter point
G1 Z0.200 ; restore layer Z
G1 E0.80000 F2100.00000 ; unretract
G1 F600
