; generated by Slic3r Prusa Edition 1.42.0-alpha1+ on 2019-01-04 at 00:11:36

; 

; external perimeters extrusion width = 0.45mm
; perimeters extrusion width = 0.45mm
; infill extrusion width = 0.45mm
; solid infill extrusion width = 0.45mm
; top infill extrusion width = 0.40mm
; first layer extrusion width = 0.42mm

M201 X9000 Y9000 Z500 E10000 ; sets maximum accelerations, mm/sec^2
M203 X500 Y500 Z12 E120 ; sets maximum feedrates, mm/sec
M204 P2000 R1500 T2000 ; sets acceleration (P, T) and retract acceleration (R), mm/sec^2
M205 X10.00 Y10.00 Z0.20 E2.50 ; sets the jerk limits, mm/sec
M205 S0 T0 ; sets the minimum extruding and travel feed rate, mm/sec
M107 ; disable fan
M115 U3.1.0 ; tell printer latest fw version
M83  ; extruder relative mode
M204 S2000 T1500 ; MK2 firmware only supports the old M204 format
M104 S230 ; set extruder temp
M140 S85 ; set bed temp
M190 S85 ; wait for bed temp
M109 S230 ; wait for extruder temp
G28 W ; home all without mesh bed level
G29 ; bed leveling
G1 Y-3.0 F1000.0 ; go outside print area
G92 E0.0
G1 X60.0 E9.0  F1000.0 ; intro line
G1 X100.0 E12.5  F1000.0 ; intro line
G92 E0.0
M900 K45; Filament gcode
G21 ; set units to millimeters
G90 ; use absolute coordinates
M83 ; use relative distances for extrusion
;BEFORE_LAYER_CHANGE
G92 E0.0
;0.2


G1 E-0.80000 F2100.00000 ; retract
G1 Z0.600 F10800.000 ; lift Z
;AFTER_LAYER_CHANGE
;0.2
G1 X95.958 Y91.838 ; move to first skirt point
G1 Z0.200 ; restore layer Z
G1 E0.80000 F2100.00000 ; unretract
M204 S1000 ; adjust acceleration
G1 F600
G1 X95.995 Y91.815 E0.00138 ; skirt
G1 X96.036 Y91.791 E0.00149 ; skirt
G1 X96.077 Y91.768 E0.00149 ; skirt
G1 X96.119 Y91.746 E0.00149 ; skirt
G1 X136.134 Y71.557 E1.40527 ; skirt
G1 X136.176 Y71.536 E0.00149 ; skirt
G1 X136.226 Y71.513 E0.00172 ; skirt
G1 X136.276 Y71.491 E0.00172 ; skirt
G1 X136.327 Y71.470 E0.00172 ; skirt
G1 X136.375 Y71.452 E0.00160 ; skirt
G1 X136.423 Y71.436 E0.00160 ; skirt
G1 X136.476 Y71.419 E0.00172 ; skirt
G1 X136.525 Y71.404 E0.00160 ; skirt
G1 X136.578 Y71.390 E0.00172 ; skirt
G1 X136.627 Y71.378 E0.00160 ; skirt
G1 X136.681 Y71.366 E0.00172 ; skirt
G1 X136.731 Y71.357 E0.00160 ; skirt
G1 X136.785 Y71.348 E0.00172 ; skirt
G1 X136.840 Y71.340 E0.00172 ; skirt
G1 X136.894 Y71.334 E0.00172 ; skirt
G1 X136.949 Y71.329 E0.00172 ; skirt
G1 X137.000 Y71.325 E0.00160 ; skirt
G1 X137.058 Y71.323 E0.00183 ; skirt
G1 X137.117 Y71.322 E0.00183 ; skirt
G1 X140.023 Y71.322 E0.09113 ; skirt
G1 X140.060 Y71.322 E0.00115 ; skirt
G1 X140.096 Y71.323 E0.00115 ; skirt
G1 X140.133 Y71.325 E0.00115 ; skirt
G1 X140.166 Y71.327 E0.00103 ; skirt
G1 X140.202 Y71.330 E0.00115 ; skirt
G1 X140.238 Y71.333 E0.00115 ; skirt
G1 X140.271 Y71.336 E0.00103 ; skirt
G1 X140.307 Y71.341 E0.00115 ; skirt
G1 X140.344 Y71.346 E0.00115 ; skirt
G1 X140.380 Y71.352 E0.00115 ; skirt
G1 X140.412 Y71.357 E0.00103 ; skirt
G1 X140.448 Y71.364 E0.00115 ; skirt
G1 X140.484 Y71.372 E0.00115 ; skirt
G1 X140.516 Y71.379 E0.00103 ; skirt
G1 X140.551 Y71.388 E0.00115 ; skirt
G1 X140.583 Y71.396 E0.00103 ; skirt
G1 X140.618 Y71.405 E0.00115 ; skirt
G1 X140.650 Y71.415 E0.00103 ; skirt
G1 X140.685 Y71.426 E0.00115 ; skirt
G1 X140.720 Y71.437 E0.00115 ; skirt
G1 X140.751 Y71.448 E0.00103 ; skirt
G1 X140.785 Y71.460 E0.00115 ; skirt
G1 X140.819 Y71.473 E0.00115 ; skirt
G1 X140.853 Y71.487 E0.00115 ; skirt
G1 X140.887 Y71.501 E0.00115 ; skirt
G1 X140.917 Y71.514 E0.00103 ; skirt
G1 X140.950 Y71.530 E0.00115 ; skirt
G1 X140.983 Y71.545 E0.00115 ; skirt
G1 X141.016 Y71.562 E0.00115 ; skirt
G1 X141.048 Y71.579 E0.00115 ; skirt
G1 X141.077 Y71.594 E0.00103 ; skirt
G1 X141.109 Y71.612 E0.00115 ; skirt
G1 X141.137 Y71.629 E0.00103 ; skirt
G1 X141.169 Y71.648 E0.00115 ; skirt
G1 X141.200 Y71.667 E0.00115 ; skirt
G1 X141.230 Y71.687 E0.00115 ; skirt
G1 X141.257 Y71.706 E0.00103 ; skirt
G1 X141.287 Y71.727 E0.00115 ; skirt
G1 X141.317 Y71.748 E0.00115 ; skirt
G1 X141.346 Y71.770 E0.00115 ; skirt
G1 X141.375 Y71.792 E0.00115 ; skirt
G1 X141.404 Y71.815 E0.00115 ; skirt
G1 X141.429 Y71.836 E0.00103 ; skirt
G1 X141.457 Y71.860 E0.00115 ; skirt
G1 X141.484 Y71.884 E0.00115 ; skirt
G1 X141.508 Y71.906 E0.00103 ; skirt
G1 X141.535 Y71.931 E0.00115 ; skirt
G1 X141.561 Y71.957 E0.00115 ; skirt
G1 X141.587 Y71.983 E0.00115 ; skirt
G1 X141.610 Y72.007 E0.00103 ; skirt
G1 X141.634 Y72.033 E0.00115 ; skirt
G1 X141.659 Y72.061 E0.00115 ; skirt
G1 X141.683 Y72.088 E0.00115 ; skirt
G1 X141.704 Y72.113 E0.00103 ; skirt
G1 X141.727 Y72.142 E0.00115 ; skirt
G1 X141.750 Y72.170 E0.00115 ; skirt
G1 X141.770 Y72.197 E0.00103 ; skirt
G1 X141.791 Y72.226 E0.00115 ; skirt
G1 X141.813 Y72.256 E0.00115 ; skirt
G1 X141.833 Y72.286 E0.00115 ; skirt
G1 X141.854 Y72.316 E0.00115 ; skirt
G1 X141.871 Y72.344 E0.00103 ; skirt
G1 X141.891 Y72.375 E0.00115 ; skirt
G1 X141.909 Y72.406 E0.00115 ; skirt
G1 X141.927 Y72.438 E0.00115 ; skirt
G1 X141.944 Y72.469 E0.00111 ; skirt
G1 X154.530 Y95.734 E0.82936 ; skirt
G1 X154.549 Y95.770 E0.00126 ; skirt
G1 X154.565 Y95.803 E0.00115 ; skirt
G1 X154.583 Y95.839 E0.00126 ; skirt
G1 X154.598 Y95.872 E0.00115 ; skirt
G1 X154.753 Y96.223 E0.01204 ; skirt
G1 X154.771 Y96.267 E0.00149 ; skirt
G1 X154.789 Y96.311 E0.00149 ; skirt
G1 X154.803 Y96.349 E0.00126 ; skirt
G1 X154.818 Y96.390 E0.00138 ; skirt
G1 X154.948 Y96.776 E0.01277 ; skirt
G1 X154.960 Y96.815 E0.00126 ; skirt
G1 X154.972 Y96.857 E0.00138 ; skirt
G1 X154.983 Y96.895 E0.00126 ; skirt
G1 X154.994 Y96.938 E0.00138 ; skirt
G1 X155.084 Y97.324 E0.01243 ; skirt
G1 X155.094 Y97.370 E0.00149 ; skirt
G1 X155.103 Y97.413 E0.00138 ; skirt
G1 X155.111 Y97.460 E0.00149 ; skirt
G1 X155.118 Y97.503 E0.00138 ; skirt
G1 X155.171 Y97.888 E0.01219 ; skirt
G1 X155.176 Y97.928 E0.00126 ; skirt
G1 X155.181 Y97.972 E0.00138 ; skirt
G1 X155.185 Y98.016 E0.00138 ; skirt
G1 X155.187 Y98.056 E0.00126 ; skirt
G1 X155.206 Y98.448 E0.01231 ; skirt
G1 X155.207 Y98.488 E0.00126 ; skirt
G1 X155.208 Y98.528 E0.00126 ; skirt
G1 X155.208 Y130.465 E1.00135 ; skirt
G1 X155.207 Y130.509 E0.00138 ; skirt
G1 X155.206 Y130.553 E0.00138 ; skirt
G1 X155.203 Y130.596 E0.00138 ; skirt
G1 X155.200 Y130.640 E0.00138 ; skirt
G1 X155.150 Y131.154 E0.01618 ; skirt
G1 X155.143 Y131.208 E0.00172 ; skirt
G1 X155.136 Y131.263 E0.00172 ; skirt
G1 X155.127 Y131.317 E0.00172 ; skirt
G1 X155.117 Y131.370 E0.00172 ; skirt
G1 X155.108 Y131.410 E0.00126 ; skirt
G1 X155.098 Y131.452 E0.00138 ; skirt
G1 X155.088 Y131.491 E0.00126 ; skirt
G1 X155.077 Y131.534 E0.00138 ; skirt
G1 X154.940 Y131.990 E0.01494 ; skirt
G1 X154.921 Y132.053 E0.00206 ; skirt
G1 X154.902 Y132.112 E0.00195 ; skirt
G1 X154.892 Y132.143 E0.00103 ; skirt
G1 X154.880 Y132.174 E0.00103 ; skirt
G1 X154.858 Y132.232 E0.00195 ; skirt
G1 X154.834 Y132.289 E0.00195 ; skirt
G1 X154.819 Y132.323 E0.00115 ; skirt
G1 X154.803 Y132.356 E0.00115 ; skirt
G1 X154.787 Y132.389 E0.00115 ; skirt
G1 X154.771 Y132.421 E0.00115 ; skirt
G1 X154.525 Y132.881 E0.01635 ; skirt
G1 X154.502 Y132.923 E0.00149 ; skirt
G1 X154.478 Y132.964 E0.00149 ; skirt
G1 X154.453 Y133.004 E0.00149 ; skirt
G1 X154.426 Y133.047 E0.00160 ; skirt
G1 X154.397 Y133.090 E0.00160 ; skirt
G1 X154.367 Y133.131 E0.00160 ; skirt
G1 X154.337 Y133.172 E0.00160 ; skirt
G1 X154.305 Y133.213 E0.00160 ; skirt
G1 X153.978 Y133.611 E0.01616 ; skirt
G1 X153.945 Y133.650 E0.00160 ; skirt
G1 X153.914 Y133.686 E0.00149 ; skirt
G1 X153.879 Y133.723 E0.00160 ; skirt
G1 X153.843 Y133.760 E0.00160 ; skirt
G1 X150.300 Y137.305 E0.15715 ; skirt
G1 X150.255 Y137.348 E0.00195 ; skirt
G1 X150.209 Y137.390 E0.00195 ; skirt
G1 X150.179 Y137.416 E0.00126 ; skirt
G1 X150.146 Y137.445 E0.00138 ; skirt
G1 X149.744 Y137.774 E0.01627 ; skirt
G1 X149.707 Y137.803 E0.00149 ; skirt
G1 X149.669 Y137.832 E0.00149 ; skirt
G1 X149.633 Y137.857 E0.00138 ; skirt
G1 X149.594 Y137.884 E0.00149 ; skirt
G1 X149.551 Y137.912 E0.00160 ; skirt
G1 X149.511 Y137.937 E0.00149 ; skirt
G1 X149.470 Y137.962 E0.00149 ; skirt
G1 X149.429 Y137.985 E0.00149 ; skirt
G1 X148.978 Y138.226 E0.01604 ; skirt
G1 X148.926 Y138.253 E0.00183 ; skirt
G1 X148.896 Y138.268 E0.00103 ; skirt
G1 X148.863 Y138.283 E0.00115 ; skirt
G1 X148.830 Y138.298 E0.00115 ; skirt
G1 X148.796 Y138.313 E0.00115 ; skirt
G1 X148.762 Y138.327 E0.00115 ; skirt
G1 X148.732 Y138.338 E0.00103 ; skirt
G1 X148.698 Y138.351 E0.00115 ; skirt
G1 X148.663 Y138.363 E0.00115 ; skirt
G1 X148.632 Y138.374 E0.00103 ; skirt
G1 X148.597 Y138.385 E0.00115 ; skirt
G1 X148.121 Y138.532 E0.01562 ; skirt
G1 X148.079 Y138.544 E0.00138 ; skirt
G1 X148.033 Y138.556 E0.00149 ; skirt
G1 X147.991 Y138.567 E0.00138 ; skirt
G1 X147.948 Y138.577 E0.00138 ; skirt
G1 X147.908 Y138.585 E0.00127 ; skirt
G1 X147.849 Y138.596 E0.00187 ; skirt
G1 X147.806 Y138.604 E0.00138 ; skirt
G1 X147.759 Y138.611 E0.00149 ; skirt
G1 X147.723 Y138.615 E0.00115 ; skirt
G1 X147.683 Y138.620 E0.00126 ; skirt
G1 X147.173 Y138.670 E0.01607 ; skirt
G1 X147.126 Y138.673 E0.00149 ; skirt
G1 X147.082 Y138.676 E0.00138 ; skirt
G1 X147.034 Y138.677 E0.00149 ; skirt
G1 X146.987 Y138.678 E0.00149 ; skirt
G1 X112.537 Y138.678 E1.08016 ; skirt
G1 X112.497 Y138.677 E0.00126 ; skirt
G1 X112.453 Y138.676 E0.00138 ; skirt
G1 X112.413 Y138.673 E0.00126 ; skirt
G1 X112.369 Y138.670 E0.00138 ; skirt
G1 X111.846 Y138.619 E0.01649 ; skirt
G1 X111.791 Y138.613 E0.00172 ; skirt
G1 X111.737 Y138.605 E0.00172 ; skirt
G1 X111.683 Y138.596 E0.00172 ; skirt
G1 X111.625 Y138.585 E0.00183 ; skirt
G1 X111.586 Y138.576 E0.00126 ; skirt
G1 X111.543 Y138.566 E0.00138 ; skirt
G1 X111.501 Y138.555 E0.00138 ; skirt
G1 X111.459 Y138.544 E0.00138 ; skirt
G1 X110.949 Y138.389 E0.01669 ; skirt
G1 X110.890 Y138.370 E0.00195 ; skirt
G1 X110.835 Y138.350 E0.00183 ; skirt
G1 X110.777 Y138.328 E0.00195 ; skirt
G1 X110.720 Y138.304 E0.00195 ; skirt
G1 X110.686 Y138.289 E0.00115 ; skirt
G1 X110.653 Y138.273 E0.00115 ; skirt
G1 X110.617 Y138.256 E0.00126 ; skirt
G1 X110.585 Y138.239 E0.00115 ; skirt
G1 X110.125 Y137.993 E0.01635 ; skirt
G1 X110.080 Y137.968 E0.00160 ; skirt
G1 X110.036 Y137.942 E0.00160 ; skirt
G1 X109.992 Y137.915 E0.00160 ; skirt
G1 X109.950 Y137.887 E0.00160 ; skirt
G1 X109.907 Y137.859 E0.00160 ; skirt
G1 X109.866 Y137.829 E0.00160 ; skirt
G1 X109.825 Y137.798 E0.00160 ; skirt
G1 X109.785 Y137.766 E0.00160 ; skirt
G1 X109.382 Y137.435 E0.01635 ; skirt
G1 X109.351 Y137.409 E0.00126 ; skirt
G1 X109.321 Y137.382 E0.00126 ; skirt
G1 X109.294 Y137.358 E0.00115 ; skirt
G1 X109.265 Y137.330 E0.00126 ; skirt
G1 X109.240 Y137.305 E0.00112 ; skirt
G1 X96.199 Y124.264 E0.57825 ; skirt
G1 X96.168 Y124.233 E0.00138 ; skirt
G1 X96.139 Y124.201 E0.00138 ; skirt
G1 X96.109 Y124.168 E0.00138 ; skirt
G1 X96.083 Y124.138 E0.00126 ; skirt
G1 X95.751 Y123.736 E0.01633 ; skirt
G1 X95.713 Y123.687 E0.00195 ; skirt
G1 X95.678 Y123.640 E0.00183 ; skirt
G1 X95.644 Y123.593 E0.00183 ; skirt
G1 X95.611 Y123.544 E0.00183 ; skirt
G1 X95.590 Y123.510 E0.00126 ; skirt
G1 X95.571 Y123.479 E0.00115 ; skirt
G1 X95.550 Y123.444 E0.00126 ; skirt
G1 X95.532 Y123.412 E0.00115 ; skirt
G1 X95.298 Y122.981 E0.01540 ; skirt
G1 X95.276 Y122.939 E0.00149 ; skirt
G1 X95.258 Y122.903 E0.00126 ; skirt
G1 X95.241 Y122.867 E0.00126 ; skirt
G1 X95.224 Y122.830 E0.00126 ; skirt
G1 X95.209 Y122.797 E0.00115 ; skirt
G1 X95.194 Y122.759 E0.00126 ; skirt
G1 X95.180 Y122.725 E0.00115 ; skirt
G1 X95.166 Y122.688 E0.00126 ; skirt
G1 X95.153 Y122.650 E0.00126 ; skirt
G1 X95.138 Y122.606 E0.00144 ; skirt
G1 X94.997 Y122.165 E0.01453 ; skirt
G1 X94.981 Y122.114 E0.00168 ; skirt
G1 X94.966 Y122.061 E0.00172 ; skirt
G1 X94.953 Y122.012 E0.00160 ; skirt
G1 X94.941 Y121.958 E0.00172 ; skirt
G1 X94.930 Y121.908 E0.00160 ; skirt
G1 X94.923 Y121.872 E0.00115 ; skirt
G1 X94.917 Y121.833 E0.00126 ; skirt
G1 X94.911 Y121.797 E0.00115 ; skirt
G1 X94.906 Y121.761 E0.00115 ; skirt
G1 X94.845 Y121.243 E0.01634 ; skirt
G1 X94.840 Y121.189 E0.00172 ; skirt
G1 X94.836 Y121.138 E0.00160 ; skirt
G1 X94.833 Y121.083 E0.00172 ; skirt
G1 X94.832 Y121.028 E0.00172 ; skirt
G1 X94.792 Y95.419 E0.80294 ; skirt
G1 X94.792 Y95.383 E0.00115 ; skirt
G1 X94.793 Y95.350 E0.00103 ; skirt
G1 X94.794 Y95.313 E0.00115 ; skirt
G1 X94.796 Y95.277 E0.00115 ; skirt
G1 X94.823 Y94.926 E0.01104 ; skirt
G1 X94.944 Y93.501 E0.04484 ; skirt
G1 X94.949 Y93.457 E0.00138 ; skirt
G1 X94.953 Y93.417 E0.00126 ; skirt
G1 X94.959 Y93.377 E0.00126 ; skirt
G1 X94.964 Y93.341 E0.00115 ; skirt
G1 X94.971 Y93.302 E0.00126 ; skirt
G1 X94.978 Y93.262 E0.00126 ; skirt
G1 X94.987 Y93.223 E0.00126 ; skirt
G1 X94.995 Y93.187 E0.00115 ; skirt
G1 X95.004 Y93.148 E0.00126 ; skirt
G1 X95.015 Y93.109 E0.00126 ; skirt
G1 X95.026 Y93.070 E0.00126 ; skirt
G1 X95.036 Y93.036 E0.00115 ; skirt
G1 X95.049 Y92.997 E0.00126 ; skirt
G1 X95.062 Y92.959 E0.00126 ; skirt
G1 X95.076 Y92.921 E0.00126 ; skirt
G1 X95.090 Y92.884 E0.00126 ; skirt
G1 X95.105 Y92.847 E0.00126 ; skirt
G1 X95.119 Y92.813 E0.00115 ; skirt
G1 X95.139 Y92.770 E0.00149 ; skirt
G1 X95.159 Y92.727 E0.00149 ; skirt
G1 X95.179 Y92.688 E0.00138 ; skirt
G1 X95.201 Y92.646 E0.00149 ; skirt
G1 X95.224 Y92.604 E0.00149 ; skirt
G1 X95.248 Y92.563 E0.00149 ; skirt
G1 X95.273 Y92.523 E0.00149 ; skirt
G1 X95.297 Y92.486 E0.00138 ; skirt
G1 X95.324 Y92.446 E0.00149 ; skirt
G1 X95.351 Y92.408 E0.00149 ; skirt
G1 X95.379 Y92.369 E0.00149 ; skirt
G1 X95.406 Y92.335 E0.00138 ; skirt
G1 X95.436 Y92.298 E0.00149 ; skirt
G1 X95.467 Y92.261 E0.00149 ; skirt
G1 X95.495 Y92.228 E0.00138 ; skirt
G1 X95.528 Y92.193 E0.00149 ; skirt
G1 X95.560 Y92.159 E0.00149 ; skirt
G1 X95.591 Y92.128 E0.00138 ; skirt
G1 X95.626 Y92.095 E0.00149 ; skirt
G1 X95.661 Y92.063 E0.00149 ; skirt
G1 X95.696 Y92.032 E0.00149 ; skirt
G1 X95.733 Y92.001 E0.00149 ; skirt
G1 X95.770 Y91.971 E0.00149 ; skirt
G1 X95.804 Y91.944 E0.00138 ; skirt
G1 X95.840 Y91.918 E0.00138 ; skirt
G1 X95.878 Y91.891 E0.00149 ; skirt
G1 X95.907 Y91.871 E0.00110 ; skirt
; PURGING FINISHED
G1 F8640
G1 X95.995 Y91.815 E-0.02398 ; wipe and retract
G1 X96.036 Y91.791 E-0.01097 ; wipe and retract
G1 X96.077 Y91.768 E-0.01097 ; wipe and retract
G1 X96.119 Y91.746 E-0.01097 ; wipe and retract
G1 X98.838 Y90.374 E-0.70311 ; wipe and retract
G1 E-0.04000 F2100.00000 ; retract
G1 Z0.800 F10800.000 ; lift Z
G1 X143.905 Y129.333 ; move to first perimeter point
G1 Z0.200 ; restore layer Z
G1 E0.80000 F2100.00000 ; unretract
G1 F600
G1 X144.390 Y128.961 E0.01917 ; perimeter
G1 X144.955 Y128.727 E0.01917 ; perimeter
G1 X145.562 Y128.647 E0.01917 ; perimeter
G1 X146.168 Y128.727 E0.01917 ; perimeter
G1 X146.733 Y128.961 E0.01917 ; perimeter
G1 X147.218 Y129.333 E0.01917 ; perimeter
G1 X147.590 Y129.818 E0.01917 ; perimeter
G1 X147.791 Y130.304 E0.01646 ; perimeter
G1 X147.824 Y130.383 E0.00271 ; perimeter
G1 X147.904 Y130.990 E0.01917 ; perimeter
G1 X147.824 Y131.596 E0.01917 ; perimeter
G1 X147.590 Y132.161 E0.01917 ; perimeter
G1 X147.218 Y132.646 E0.01917 ; perimeter
G1 X146.733 Y133.018 E0.01917 ; perimeter
G1 X146.168 Y133.252 E0.01917 ; perimeter
G1 X145.562 Y133.332 E0.01917 ; perimeter
G1 X144.955 Y133.252 E0.01917 ; perimeter
G1 X144.390 Y133.018 E0.01917 ; perimeter
G1 X143.905 Y132.646 E0.01917 ; perimeter
G1 X143.533 Y132.161 E0.01917 ; perimeter
G1 X143.332 Y131.676 E0.01646 ; perimeter
G1 X143.299 Y131.596 E0.00271 ; perimeter
G1 X143.219 Y130.990 E0.01917 ; perimeter
G1 X143.299 Y130.383 E0.01917 ; perimeter
G1 X143.533 Y129.818 E0.01917 ; perimeter
G1 X143.869 Y129.381 E0.01729 ; perimeter
G1 X144.168 Y129.611 F10800.000 ; move to first perimeter point
G1 F600
G1 X144.174 Y129.602 E0.00032 ; perimeter
G1 X144.581 Y129.291 E0.01606 ; perimeter
G1 X145.054 Y129.095 E0.01606 ; perimeter
G1 X145.562 Y129.028 E0.01606 ; perimeter
G1 X146.069 Y129.095 E0.01606 ; perimeter
G1 X146.542 Y129.291 E0.01606 ; perimeter
G1 X146.949 Y129.602 E0.01606 ; perimeter
G1 X147.260 Y130.009 E0.01606 ; perimeter
G1 X147.442 Y130.448 E0.01490 ; perimeter
G1 X147.456 Y130.482 E0.00115 ; perimeter
G1 X147.523 Y130.990 E0.01606 ; perimeter
G1 X147.456 Y131.497 E0.01606 ; perimeter
G1 X147.260 Y131.970 E0.01606 ; perimeter
