; generated by Slic3r Prusa Edition 1.42.0-alpha1+ on 2019-01-02 at 23:35:26

; 

; external perimeters extrusion width = 0.45mm
; perimeters extrusion width = 0.45mm
; infill extrusion width = 0.45mm
; solid infill extrusion width = 0.45mm
; top infill extrusion width = 0.40mm
; first layer extrusion width = 0.42mm

M201 X9000 Y9000 Z500 E10000 ; sets maximum accelerations, mm/sec^2
M203 X500 Y500 Z12 E120 ; sets maximum feedrates, mm/sec
M204 P2000 R1500 T2000 ; sets acceleration (P, T) and retract acceleration (R), mm/sec^2
M205 X10.00 Y10.00 Z0.20 E2.50 ; sets the jerk limits, mm/sec
M205 S0 T0 ; sets the minimum extruding and travel feed rate, mm/sec
M107 ; disable fan
M115 U3.1.0 ; tell printer latest fw version
M83  ; extruder relative mode
M204 S2000 T1500 ; MK2 firmware only supports the old M204 format
M104 S230 ; set extruder temp
M140 S85 ; set bed temp
M190 S85 ; wait for bed temp
M109 S230 ; wait for extruder temp
G28 W ; home all without mesh bed level
G29 ; bed leveling
G1 Y-3.0 F1000.0 ; go outside print area
G92 E0.0
G1 X60.0 E9.0  F1000.0 ; intro line
G1 X100.0 E12.5  F1000.0 ; intro line
G92 E0.0
M900 K45; Filament gcode
G21 ; set units to millimeters
G90 ; use absolute coordinates
M83 ; use relative distances for extrusion
;BEFORE_LAYER_CHANGE
G92 E0.0
;0.2


G1 E-0.80000 F2100.00000 ; retract
G1 Z0.600 F10800.000 ; lift Z
;AFTER_LAYER_CHANGE
;0.2
G1 X119.917 Y87.503 ; move to first skirt point
G1 Z0.200 ; restore layer Z
G1 E0.80000 F2100.00000 ; unretract
M204 S1000 ; adjust acceleration
G1 F600
G1 X119.945 Y87.464 E0.00149 ; skirt
G1 X119.973 Y87.427 E0.00149 ; skirt
G1 X120.003 Y87.389 E0.00149 ; skirt
G1 X120.033 Y87.353 E0.00149 ; skirt
G1 X120.061 Y87.320 E0.00136 ; skirt
G1 X120.090 Y87.287 E0.00136 ; skirt
G1 X120.122 Y87.252 E0.00149 ; skirt
G1 X120.155 Y87.217 E0.00149 ; skirt
G1 X120.185 Y87.186 E0.00136 ; skirt
G1 X120.219 Y87.153 E0.00149 ; skirt
G1 X120.254 Y87.120 E0.00149 ; skirt
G1 X120.289 Y87.088 E0.00149 ; skirt
G1 X120.321 Y87.060 E0.00136 ; skirt
G1 X120.358 Y87.029 E0.00149 ; skirt
G1 X120.391 Y87.001 E0.00136 ; skirt
G1 X120.429 Y86.972 E0.00149 ; skirt
G1 X120.466 Y86.943 E0.00149 ; skirt
G1 X120.501 Y86.918 E0.00136 ; skirt
G1 X120.540 Y86.890 E0.00149 ; skirt
G1 X120.580 Y86.863 E0.00149 ; skirt
G1 X120.616 Y86.840 E0.00136 ; skirt
G1 X120.656 Y86.814 E0.00149 ; skirt
G1 X120.697 Y86.790 E0.00149 ; skirt
G1 X120.738 Y86.766 E0.00149 ; skirt
G1 X120.776 Y86.745 E0.00136 ; skirt
G1 X120.815 Y86.725 E0.00136 ; skirt
G1 X120.857 Y86.703 E0.00149 ; skirt
G1 X120.896 Y86.684 E0.00136 ; skirt
G1 X120.939 Y86.664 E0.00149 ; skirt
G1 X120.982 Y86.645 E0.00149 ; skirt
G1 X121.026 Y86.626 E0.00149 ; skirt
G1 X121.070 Y86.609 E0.00149 ; skirt
G1 X121.111 Y86.593 E0.00136 ; skirt
G1 X121.156 Y86.577 E0.00149 ; skirt
G1 X121.201 Y86.562 E0.00149 ; skirt
G1 X121.246 Y86.548 E0.00149 ; skirt
G1 X121.291 Y86.534 E0.00149 ; skirt
G1 X121.333 Y86.523 E0.00136 ; skirt
G1 X121.379 Y86.511 E0.00149 ; skirt
G1 X121.418 Y86.501 E0.00124 ; skirt
G1 X121.453 Y86.493 E0.00112 ; skirt
G1 X121.487 Y86.486 E0.00112 ; skirt
G1 X121.522 Y86.479 E0.00112 ; skirt
G1 X121.561 Y86.472 E0.00124 ; skirt
G1 X121.596 Y86.466 E0.00112 ; skirt
G1 X121.632 Y86.461 E0.00112 ; skirt
G1 X121.671 Y86.456 E0.00124 ; skirt
G1 X121.706 Y86.451 E0.00112 ; skirt
G1 X121.746 Y86.447 E0.00124 ; skirt
G1 X121.785 Y86.443 E0.00124 ; skirt
G1 X121.820 Y86.441 E0.00112 ; skirt
G1 X121.856 Y86.438 E0.00112 ; skirt
G1 X121.895 Y86.437 E0.00124 ; skirt
G1 X121.931 Y86.435 E0.00112 ; skirt
G1 X121.971 Y86.435 E0.00124 ; skirt
G1 X128.004 Y86.434 E0.18917 ; skirt
G1 X128.063 Y86.435 E0.00186 ; skirt
G1 X128.123 Y86.437 E0.00186 ; skirt
G1 X128.182 Y86.441 E0.00186 ; skirt
G1 X128.241 Y86.446 E0.00186 ; skirt
G1 X128.300 Y86.452 E0.00186 ; skirt
G1 X128.359 Y86.460 E0.00186 ; skirt
G1 X128.421 Y86.469 E0.00199 ; skirt
G1 X128.480 Y86.480 E0.00186 ; skirt
G1 X128.538 Y86.491 E0.00186 ; skirt
G1 X128.596 Y86.505 E0.00186 ; skirt
G1 X128.657 Y86.520 E0.00199 ; skirt
G1 X128.715 Y86.536 E0.00186 ; skirt
G1 X128.771 Y86.553 E0.00186 ; skirt
G1 X128.828 Y86.572 E0.00186 ; skirt
G1 X128.884 Y86.591 E0.00186 ; skirt
G1 X128.943 Y86.614 E0.00199 ; skirt
G1 X128.998 Y86.636 E0.00186 ; skirt
G1 X129.052 Y86.660 E0.00186 ; skirt
G1 X129.106 Y86.685 E0.00186 ; skirt
G1 X129.163 Y86.713 E0.00199 ; skirt
G1 X129.216 Y86.741 E0.00186 ; skirt
G1 X129.267 Y86.769 E0.00186 ; skirt
G1 X129.319 Y86.799 E0.00186 ; skirt
G1 X129.369 Y86.830 E0.00186 ; skirt
G1 X129.419 Y86.863 E0.00186 ; skirt
G1 X129.471 Y86.898 E0.00199 ; skirt
G1 X129.520 Y86.933 E0.00186 ; skirt
G1 X129.567 Y86.969 E0.00186 ; skirt
G1 X129.614 Y87.005 E0.00186 ; skirt
G1 X129.659 Y87.043 E0.00186 ; skirt
G1 X129.707 Y87.085 E0.00199 ; skirt
G1 X129.751 Y87.125 E0.00186 ; skirt
G1 X129.797 Y87.169 E0.00199 ; skirt
G1 X129.839 Y87.211 E0.00186 ; skirt
G1 X129.880 Y87.254 E0.00186 ; skirt
G1 X129.919 Y87.298 E0.00186 ; skirt
G1 X129.958 Y87.342 E0.00186 ; skirt
G1 X129.996 Y87.388 E0.00186 ; skirt
G1 X130.033 Y87.435 E0.00186 ; skirt
G1 X130.069 Y87.482 E0.00186 ; skirt
G1 X130.103 Y87.530 E0.00186 ; skirt
G1 X130.137 Y87.580 E0.00186 ; skirt
G1 X130.169 Y87.629 E0.00186 ; skirt
G1 X130.202 Y87.683 E0.00199 ; skirt
G1 X130.234 Y87.738 E0.00199 ; skirt
G1 X130.262 Y87.790 E0.00186 ; skirt
G1 X130.290 Y87.843 E0.00186 ; skirt
G1 X130.316 Y87.896 E0.00186 ; skirt
G1 X130.342 Y87.953 E0.00199 ; skirt
G1 X130.366 Y88.008 E0.00186 ; skirt
G1 X130.388 Y88.063 E0.00186 ; skirt
G1 X130.409 Y88.118 E0.00186 ; skirt
G1 X130.429 Y88.174 E0.00186 ; skirt
G1 X130.448 Y88.231 E0.00186 ; skirt
G1 X130.465 Y88.288 E0.00186 ; skirt
G1 X130.481 Y88.345 E0.00186 ; skirt
G1 X130.495 Y88.402 E0.00186 ; skirt
G1 X130.508 Y88.460 E0.00186 ; skirt
G1 X130.520 Y88.518 E0.00186 ; skirt
G1 X130.530 Y88.577 E0.00186 ; skirt
G1 X130.540 Y88.636 E0.00186 ; skirt
G1 X130.547 Y88.694 E0.00186 ; skirt
G1 X130.554 Y88.753 E0.00186 ; skirt
G1 X130.559 Y88.816 E0.00199 ; skirt
G1 X130.562 Y88.860 E0.00136 ; skirt
G1 X130.564 Y88.907 E0.00149 ; skirt
G1 X130.565 Y88.955 E0.00149 ; skirt
G1 X130.566 Y89.000 E0.00142 ; skirt
G1 X130.566 Y121.004 E1.00346 ; skirt
G1 X130.565 Y121.055 E0.00161 ; skirt
G1 X130.563 Y121.111 E0.00174 ; skirt
G1 X130.560 Y121.166 E0.00174 ; skirt
G1 X130.556 Y121.221 E0.00174 ; skirt
G1 X130.551 Y121.276 E0.00174 ; skirt
G1 X130.544 Y121.331 E0.00174 ; skirt
G1 X130.536 Y121.386 E0.00174 ; skirt
G1 X130.527 Y121.441 E0.00174 ; skirt
G1 X130.519 Y121.488 E0.00149 ; skirt
G1 X130.509 Y121.534 E0.00149 ; skirt
G1 X130.499 Y121.581 E0.00149 ; skirt
G1 X130.488 Y121.627 E0.00149 ; skirt
G1 X130.476 Y121.673 E0.00149 ; skirt
G1 X130.463 Y121.718 E0.00149 ; skirt
G1 X130.449 Y121.764 E0.00149 ; skirt
G1 X130.436 Y121.805 E0.00136 ; skirt
G1 X130.421 Y121.850 E0.00149 ; skirt
G1 X130.404 Y121.895 E0.00149 ; skirt
G1 X130.389 Y121.936 E0.00136 ; skirt
G1 X130.371 Y121.980 E0.00149 ; skirt
G1 X130.353 Y122.023 E0.00149 ; skirt
G1 X130.333 Y122.067 E0.00149 ; skirt
G1 X130.313 Y122.110 E0.00149 ; skirt
G1 X130.292 Y122.152 E0.00149 ; skirt
G1 X130.271 Y122.195 E0.00149 ; skirt
G1 X130.248 Y122.236 E0.00149 ; skirt
G1 X130.225 Y122.278 E0.00149 ; skirt
G1 X130.201 Y122.319 E0.00149 ; skirt
G1 X130.176 Y122.359 E0.00149 ; skirt
G1 X130.150 Y122.399 E0.00149 ; skirt
G1 X130.124 Y122.439 E0.00149 ; skirt
G1 X130.099 Y122.475 E0.00136 ; skirt
G1 X130.072 Y122.513 E0.00149 ; skirt
G1 X130.043 Y122.551 E0.00149 ; skirt
G1 X130.017 Y122.586 E0.00136 ; skirt
G1 X129.987 Y122.623 E0.00149 ; skirt
G1 X129.959 Y122.656 E0.00136 ; skirt
G1 X129.928 Y122.692 E0.00149 ; skirt
G1 X129.897 Y122.728 E0.00149 ; skirt
G1 X129.864 Y122.763 E0.00149 ; skirt
G1 X129.831 Y122.797 E0.00149 ; skirt
G1 X129.801 Y122.828 E0.00136 ; skirt
G1 X129.767 Y122.861 E0.00149 ; skirt
G1 X129.732 Y122.893 E0.00149 ; skirt
G1 X129.697 Y122.925 E0.00149 ; skirt
G1 X129.661 Y122.956 E0.00149 ; skirt
G1 X129.624 Y122.986 E0.00149 ; skirt
G1 X129.590 Y123.013 E0.00136 ; skirt
G1 X129.553 Y123.042 E0.00149 ; skirt
G1 X129.518 Y123.069 E0.00136 ; skirt
G1 X129.479 Y123.096 E0.00149 ; skirt
G1 X129.440 Y123.123 E0.00149 ; skirt
G1 X129.401 Y123.150 E0.00149 ; skirt
G1 X129.361 Y123.175 E0.00149 ; skirt
G1 X129.320 Y123.200 E0.00149 ; skirt
G1 X129.279 Y123.224 E0.00149 ; skirt
G1 X129.238 Y123.247 E0.00149 ; skirt
G1 X129.196 Y123.270 E0.00149 ; skirt
G1 X129.154 Y123.292 E0.00149 ; skirt
G1 X129.111 Y123.313 E0.00149 ; skirt
G1 X129.072 Y123.331 E0.00136 ; skirt
G1 X129.028 Y123.350 E0.00149 ; skirt
G1 X128.985 Y123.369 E0.00149 ; skirt
G1 X128.941 Y123.387 E0.00149 ; skirt
G1 X128.896 Y123.404 E0.00149 ; skirt
G1 X128.852 Y123.420 E0.00149 ; skirt
G1 X128.807 Y123.435 E0.00149 ; skirt
G1 X128.762 Y123.450 E0.00149 ; skirt
G1 X128.716 Y123.464 E0.00149 ; skirt
G1 X128.674 Y123.475 E0.00136 ; skirt
G1 X128.628 Y123.487 E0.00149 ; skirt
G1 X128.582 Y123.499 E0.00149 ; skirt
G1 X128.547 Y123.507 E0.00112 ; skirt
G1 X128.509 Y123.515 E0.00124 ; skirt
G1 X128.474 Y123.521 E0.00112 ; skirt
G1 X128.439 Y123.528 E0.00112 ; skirt
G1 X128.404 Y123.534 E0.00112 ; skirt
G1 X128.368 Y123.539 E0.00112 ; skirt
G1 X128.333 Y123.544 E0.00112 ; skirt
G1 X128.298 Y123.548 E0.00112 ; skirt
G1 X128.262 Y123.552 E0.00112 ; skirt
G1 X128.227 Y123.556 E0.00112 ; skirt
G1 X128.191 Y123.558 E0.00112 ; skirt
G1 X128.156 Y123.561 E0.00112 ; skirt
G1 X128.116 Y123.563 E0.00124 ; skirt
G1 X128.081 Y123.564 E0.00112 ; skirt
G1 X128.045 Y123.565 E0.00112 ; skirt
G1 X128.010 Y123.566 E0.00112 ; skirt
G1 X121.984 Y123.566 E0.18892 ; skirt
G1 X121.933 Y123.565 E0.00161 ; skirt
G1 X121.877 Y123.563 E0.00174 ; skirt
G1 X121.822 Y123.559 E0.00174 ; skirt
G1 X121.771 Y123.555 E0.00161 ; skirt
G1 X121.716 Y123.550 E0.00174 ; skirt
G1 X121.665 Y123.544 E0.00161 ; skirt
G1 X121.614 Y123.536 E0.00161 ; skirt
G1 X121.559 Y123.527 E0.00174 ; skirt
G1 X121.505 Y123.517 E0.00174 ; skirt
G1 X121.454 Y123.507 E0.00161 ; skirt
G1 X121.404 Y123.495 E0.00161 ; skirt
G1 X121.350 Y123.482 E0.00174 ; skirt
G1 X121.297 Y123.467 E0.00174 ; skirt
G1 X121.247 Y123.453 E0.00161 ; skirt
G1 X121.195 Y123.436 E0.00174 ; skirt
G1 X121.142 Y123.418 E0.00174 ; skirt
G1 X121.090 Y123.399 E0.00174 ; skirt
G1 X121.042 Y123.380 E0.00161 ; skirt
G1 X120.995 Y123.361 E0.00161 ; skirt
G1 X120.944 Y123.338 E0.00174 ; skirt
G1 X120.894 Y123.315 E0.00174 ; skirt
G1 X120.848 Y123.292 E0.00161 ; skirt
G1 X120.798 Y123.267 E0.00174 ; skirt
G1 X120.753 Y123.242 E0.00161 ; skirt
G1 X120.709 Y123.217 E0.00161 ; skirt
G1 X120.661 Y123.188 E0.00174 ; skirt
G1 X120.614 Y123.159 E0.00174 ; skirt
G1 X120.568 Y123.129 E0.00174 ; skirt
G1 X120.525 Y123.099 E0.00161 ; skirt
G1 X120.480 Y123.067 E0.00174 ; skirt
G1 X120.439 Y123.036 E0.00161 ; skirt
G1 X120.396 Y123.002 E0.00174 ; skirt
G1 X120.353 Y122.967 E0.00174 ; skirt
G1 X120.314 Y122.934 E0.00161 ; skirt
G1 X120.272 Y122.897 E0.00174 ; skirt
G1 X120.235 Y122.862 E0.00161 ; skirt
G1 X120.198 Y122.826 E0.00161 ; skirt
G1 X120.159 Y122.787 E0.00174 ; skirt
G1 X120.120 Y122.746 E0.00174 ; skirt
G1 X120.086 Y122.708 E0.00161 ; skirt
G1 X120.049 Y122.667 E0.00174 ; skirt
G1 X120.014 Y122.624 E0.00174 ; skirt
G1 X119.982 Y122.584 E0.00161 ; skirt
G1 X119.948 Y122.540 E0.00174 ; skirt
G1 X119.918 Y122.499 E0.00161 ; skirt
G1 X119.886 Y122.453 E0.00174 ; skirt
G1 X119.855 Y122.407 E0.00174 ; skirt
G1 X119.827 Y122.364 E0.00161 ; skirt
G1 X119.798 Y122.317 E0.00174 ; skirt
G1 X119.772 Y122.272 E0.00161 ; skirt
G1 X119.745 Y122.224 E0.00174 ; skirt
G1 X119.721 Y122.178 E0.00161 ; skirt
G1 X119.696 Y122.129 E0.00174 ; skirt
G1 X119.674 Y122.083 E0.00161 ; skirt
G1 X119.651 Y122.032 E0.00174 ; skirt
G1 X119.631 Y121.985 E0.00161 ; skirt
G1 X119.610 Y121.933 E0.00174 ; skirt
G1 X119.592 Y121.885 E0.00161 ; skirt
G1 X119.573 Y121.833 E0.00174 ; skirt
G1 X119.557 Y121.784 E0.00161 ; skirt
G1 X119.541 Y121.731 E0.00174 ; skirt
G1 X119.527 Y121.682 E0.00161 ; skirt
G1 X119.513 Y121.632 E0.00161 ; skirt
G1 X119.500 Y121.578 E0.00174 ; skirt
G1 X119.489 Y121.528 E0.00161 ; skirt
G1 X119.479 Y121.474 E0.00174 ; skirt
G1 X119.470 Y121.423 E0.00161 ; skirt
G1 X119.461 Y121.368 E0.00174 ; skirt
G1 X119.454 Y121.317 E0.00161 ; skirt
G1 X119.448 Y121.262 E0.00174 ; skirt
G1 X119.443 Y121.207 E0.00174 ; skirt
G1 X119.439 Y121.152 E0.00174 ; skirt
G1 X119.437 Y121.116 E0.00112 ; skirt
G1 X119.436 Y121.077 E0.00124 ; skirt
G1 X119.435 Y121.037 E0.00124 ; skirt
G1 X119.434 Y121.000 E0.00117 ; skirt
G1 X119.434 Y88.996 E1.00346 ; skirt
G1 X119.435 Y88.945 E0.00161 ; skirt
G1 X119.437 Y88.889 E0.00174 ; skirt
G1 X119.440 Y88.834 E0.00174 ; skirt
G1 X119.444 Y88.779 E0.00174 ; skirt
G1 X119.449 Y88.724 E0.00174 ; skirt
G1 X119.456 Y88.669 E0.00174 ; skirt
G1 X119.464 Y88.614 E0.00174 ; skirt
G1 X119.473 Y88.559 E0.00174 ; skirt
G1 X119.481 Y88.512 E0.00149 ; skirt
G1 X119.490 Y88.470 E0.00136 ; skirt
G1 X119.500 Y88.423 E0.00149 ; skirt
G1 X119.510 Y88.381 E0.00136 ; skirt
G1 X119.522 Y88.335 E0.00149 ; skirt
G1 X119.535 Y88.289 E0.00149 ; skirt
G1 X119.547 Y88.247 E0.00136 ; skirt
G1 X119.562 Y88.202 E0.00149 ; skirt
G1 X119.577 Y88.157 E0.00149 ; skirt
G1 X119.591 Y88.116 E0.00136 ; skirt
G1 X119.608 Y88.072 E0.00149 ; skirt
G1 X119.626 Y88.028 E0.00149 ; skirt
G1 X119.644 Y87.984 E0.00149 ; skirt
G1 X119.663 Y87.941 E0.00149 ; skirt
G1 X119.682 Y87.901 E0.00136 ; skirt
G1 X119.702 Y87.858 E0.00149 ; skirt
G1 X119.724 Y87.816 E0.00149 ; skirt
G1 X119.746 Y87.774 E0.00149 ; skirt
G1 X119.769 Y87.733 E0.00149 ; skirt
G1 X119.791 Y87.695 E0.00136 ; skirt
G1 X119.816 Y87.654 E0.00149 ; skirt
G1 X119.841 Y87.614 E0.00149 ; skirt
G1 X119.867 Y87.574 E0.00149 ; skirt
G1 X119.882 Y87.552 E0.00085 ; skirt
G1 F8640
G1 X119.945 Y87.464 E-0.02482 ; wipe and retract
G1 X119.973 Y87.427 E-0.01096 ; wipe and retract
G1 X120.003 Y87.389 E-0.01096 ; wipe and retract
G1 X120.033 Y87.353 E-0.01096 ; wipe and retract
G1 X120.061 Y87.320 E-0.01005 ; wipe and retract
G1 X120.090 Y87.287 E-0.01005 ; wipe and retract
G1 X120.122 Y87.252 E-0.01096 ; wipe and retract
G1 X120.155 Y87.217 E-0.01096 ; wipe and retract
G1 X120.185 Y87.186 E-0.01005 ; wipe and retract
G1 X120.219 Y87.153 E-0.01096 ; wipe and retract
G1 X120.254 Y87.120 E-0.01096 ; wipe and retract
G1 X120.289 Y87.088 E-0.01096 ; wipe and retract
G1 X120.321 Y87.060 E-0.01005 ; wipe and retract
G1 X120.358 Y87.029 E-0.01096 ; wipe and retract
G1 X120.391 Y87.001 E-0.01005 ; wipe and retract
G1 X120.429 Y86.972 E-0.01096 ; wipe and retract
G1 X120.466 Y86.943 E-0.01096 ; wipe and retract
G1 X120.501 Y86.918 E-0.01005 ; wipe and retract
G1 X120.540 Y86.890 E-0.01096 ; wipe and retract
G1 X120.580 Y86.863 E-0.01096 ; wipe and retract
G1 X120.616 Y86.840 E-0.01005 ; wipe and retract
G1 X120.656 Y86.814 E-0.01096 ; wipe and retract
G1 X120.697 Y86.790 E-0.01096 ; wipe and retract
G1 X120.738 Y86.766 E-0.01096 ; wipe and retract
G1 X120.776 Y86.745 E-0.01005 ; wipe and retract
G1 X120.815 Y86.725 E-0.01005 ; wipe and retract
G1 X120.857 Y86.703 E-0.01096 ; wipe and retract
G1 X120.896 Y86.684 E-0.01005 ; wipe and retract
G1 X120.939 Y86.664 E-0.01096 ; wipe and retract
G1 X120.982 Y86.645 E-0.01096 ; wipe and retract
G1 X121.026 Y86.626 E-0.01096 ; wipe and retract
G1 X121.070 Y86.609 E-0.01096 ; wipe and retract
G1 X121.111 Y86.593 E-0.01005 ; wipe and retract
G1 X121.156 Y86.577 E-0.01096 ; wipe and retract
G1 X121.201 Y86.562 E-0.01096 ; wipe and retract
G1 X121.246 Y86.548 E-0.01096 ; wipe and retract
G1 X121.291 Y86.534 E-0.01096 ; wipe and retract
G1 X121.333 Y86.523 E-0.01005 ; wipe and retract
G1 X121.379 Y86.511 E-0.01096 ; wipe and retract
G1 X121.418 Y86.501 E-0.00914 ; wipe and retract
G1 X121.453 Y86.493 E-0.00822 ; wipe and retract
G1 X121.487 Y86.486 E-0.00822 ; wipe and retract
G1 X121.522 Y86.479 E-0.00822 ; wipe and retract
G1 X121.561 Y86.472 E-0.00914 ; wipe and retract
G1 X121.596 Y86.466 E-0.00822 ; wipe and retract
G1 X121.632 Y86.461 E-0.00822 ; wipe and retract
G1 X121.671 Y86.456 E-0.00914 ; wipe and retract
