; generated by Slic3r Prusa Edition 1.42.0-alpha1+ on 2019-01-09 at 11:41:57

; 

; external perimeters extrusion width = 0.45mm
; perimeters extrusion width = 0.45mm
; infill extrusion width = 0.45mm
; solid infill extrusion width = 0.45mm
; top infill extrusion width = 0.40mm
; first layer extrusion width = 0.42mm

M201 X9000 Y9000 Z500 E10000 ; sets maximum accelerations, mm/sec^2
M203 X500 Y500 Z12 E120 ; sets maximum feedrates, mm/sec
M204 P2000 R1500 T2000 ; sets acceleration (P, T) and retract acceleration (R), mm/sec^2
M205 X10.00 Y10.00 Z0.20 E2.50 ; sets the jerk limits, mm/sec
M205 S0 T0 ; sets the minimum extruding and travel feed rate, mm/sec
M107 ; disable fan
M115 U3.1.0 ; tell printer latest fw version
M83  ; extruder relative mode
M204 S2000 T1500 ; MK2 firmware only supports the old M204 format
M104 S230 ; set extruder temp
M140 S85 ; set bed temp
M190 S85 ; wait for bed temp
M109 S230 ; wait for extruder temp
G28 W ; home all without mesh bed level
G29 ; bed leveling
G1 Y-3.0 F1000.0 ; go outside print area
G92 E0.0
G1 X60.0 E9.0  F1000.0 ; intro line
G1 X100.0 E12.5  F1000.0 ; intro line
G92 E0.0
M900 K45; Filament gcode
G21 ; set units to millimeters
G90 ; use absolute coordinates
M83 ; use relative distances for extrusion
;BEFORE_LAYER_CHANGE
G92 E0.0
;0.2


G1 E-0.80000 F2100.00000 ; retract
G1 Z0.600 F10800.000 ; lift Z
;AFTER_LAYER_CHANGE
;0.2
G1 X96.376 Y84.799 ; move to first skirt point
G1 Z0.200 ; restore layer Z
G1 E0.80000 F2100.00000 ; unretract
M204 S1000 ; adjust acceleration
G1 F600
G1 X96.383 Y84.737 E0.00195 ; skirt
G1 X96.391 Y84.680 E0.00183 ; skirt
G1 X96.401 Y84.618 E0.00195 ; skirt
G1 X96.412 Y84.557 E0.00195 ; skirt
G1 X96.425 Y84.500 E0.00183 ; skirt
G1 X96.439 Y84.443 E0.00183 ; skirt
G1 X96.456 Y84.383 E0.00195 ; skirt
G1 X96.474 Y84.324 E0.00195 ; skirt
G1 X96.493 Y84.269 E0.00183 ; skirt
G1 X96.513 Y84.214 E0.00183 ; skirt
G1 X96.536 Y84.156 E0.00195 ; skirt
G1 X96.561 Y84.099 E0.00195 ; skirt
G1 X96.588 Y84.043 E0.00195 ; skirt
G1 X96.614 Y83.991 E0.00183 ; skirt
G1 X96.643 Y83.936 E0.00195 ; skirt
G1 X96.674 Y83.882 E0.00195 ; skirt
G1 X96.705 Y83.832 E0.00183 ; skirt
G1 X96.739 Y83.780 E0.00195 ; skirt
G1 X96.772 Y83.732 E0.00183 ; skirt
G1 X96.809 Y83.682 E0.00195 ; skirt
G1 X96.847 Y83.633 E0.00195 ; skirt
G1 X96.884 Y83.588 E0.00183 ; skirt
G1 X96.925 Y83.541 E0.00195 ; skirt
G1 X96.964 Y83.498 E0.00183 ; skirt
G1 X97.007 Y83.453 E0.00195 ; skirt
G1 X97.052 Y83.410 E0.00195 ; skirt
G1 X97.098 Y83.368 E0.00195 ; skirt
G1 X97.142 Y83.330 E0.00183 ; skirt
G1 X97.190 Y83.290 E0.00195 ; skirt
G1 X97.224 Y83.263 E0.00138 ; skirt
G1 X97.262 Y83.235 E0.00149 ; skirt
G1 X97.298 Y83.209 E0.00138 ; skirt
G1 X97.337 Y83.182 E0.00149 ; skirt
G1 X97.377 Y83.156 E0.00149 ; skirt
G1 X97.414 Y83.133 E0.00138 ; skirt
G1 X97.452 Y83.110 E0.00138 ; skirt
G1 X97.490 Y83.089 E0.00138 ; skirt
G1 X97.532 Y83.066 E0.00149 ; skirt
G1 X97.571 Y83.046 E0.00138 ; skirt
G1 X97.610 Y83.026 E0.00138 ; skirt
G1 X97.653 Y83.006 E0.00149 ; skirt
G1 X97.693 Y82.989 E0.00138 ; skirt
G1 X97.737 Y82.970 E0.00149 ; skirt
G1 X97.781 Y82.953 E0.00149 ; skirt
G1 X97.822 Y82.938 E0.00138 ; skirt
G1 X97.867 Y82.923 E0.00149 ; skirt
G1 X97.909 Y82.909 E0.00138 ; skirt
G1 X97.951 Y82.897 E0.00138 ; skirt
G1 X97.993 Y82.885 E0.00138 ; skirt
G1 X98.036 Y82.874 E0.00138 ; skirt
G1 X98.082 Y82.863 E0.00149 ; skirt
G1 X98.125 Y82.854 E0.00138 ; skirt
G1 X98.172 Y82.845 E0.00149 ; skirt
G1 X98.219 Y82.838 E0.00149 ; skirt
G1 X98.262 Y82.831 E0.00138 ; skirt
G1 X98.309 Y82.825 E0.00149 ; skirt
G1 X98.353 Y82.821 E0.00138 ; skirt
G1 X98.400 Y82.817 E0.00149 ; skirt
G1 X98.444 Y82.814 E0.00138 ; skirt
G1 X98.488 Y82.813 E0.00138 ; skirt
G1 X98.535 Y82.812 E0.00149 ; skirt
G1 X151.448 Y82.811 E1.65904 ; skirt
G1 X151.499 Y82.812 E0.00160 ; skirt
G1 X151.550 Y82.814 E0.00160 ; skirt
G1 X151.601 Y82.817 E0.00160 ; skirt
G1 X151.656 Y82.822 E0.00172 ; skirt
G1 X151.707 Y82.827 E0.00160 ; skirt
G1 X151.761 Y82.835 E0.00172 ; skirt
G1 X151.812 Y82.843 E0.00160 ; skirt
G1 X151.866 Y82.852 E0.00172 ; skirt
G1 X151.916 Y82.863 E0.00160 ; skirt
G1 X151.969 Y82.875 E0.00172 ; skirt
G1 X152.022 Y82.889 E0.00172 ; skirt
G1 X152.071 Y82.903 E0.00160 ; skirt
G1 X152.120 Y82.918 E0.00160 ; skirt
G1 X152.172 Y82.936 E0.00172 ; skirt
G1 X152.220 Y82.954 E0.00160 ; skirt
G1 X152.268 Y82.972 E0.00160 ; skirt
G1 X152.315 Y82.992 E0.00160 ; skirt
G1 X152.362 Y83.013 E0.00160 ; skirt
G1 X152.408 Y83.035 E0.00160 ; skirt
G1 X152.457 Y83.060 E0.00172 ; skirt
G1 X152.502 Y83.084 E0.00160 ; skirt
G1 X152.549 Y83.111 E0.00172 ; skirt
G1 X152.593 Y83.137 E0.00160 ; skirt
G1 X152.640 Y83.167 E0.00172 ; skirt
G1 X152.682 Y83.195 E0.00160 ; skirt
G1 X152.727 Y83.227 E0.00172 ; skirt
G1 X152.771 Y83.259 E0.00172 ; skirt
G1 X152.811 Y83.291 E0.00160 ; skirt
G1 X152.854 Y83.326 E0.00172 ; skirt
G1 X152.892 Y83.359 E0.00160 ; skirt
G1 X152.933 Y83.396 E0.00172 ; skirt
G1 X152.970 Y83.431 E0.00160 ; skirt
G1 X153.006 Y83.467 E0.00160 ; skirt
G1 X153.044 Y83.507 E0.00172 ; skirt
G1 X153.079 Y83.545 E0.00160 ; skirt
G1 X153.115 Y83.586 E0.00172 ; skirt
G1 X153.147 Y83.626 E0.00160 ; skirt
G1 X153.179 Y83.666 E0.00160 ; skirt
G1 X153.210 Y83.707 E0.00160 ; skirt
G1 X153.242 Y83.751 E0.00172 ; skirt
G1 X153.270 Y83.794 E0.00160 ; skirt
G1 X153.298 Y83.837 E0.00160 ; skirt
G1 X153.327 Y83.883 E0.00172 ; skirt
G1 X153.352 Y83.928 E0.00160 ; skirt
G1 X153.378 Y83.976 E0.00172 ; skirt
G1 X153.402 Y84.021 E0.00160 ; skirt
G1 X153.426 Y84.071 E0.00172 ; skirt
G1 X153.447 Y84.117 E0.00160 ; skirt
G1 X153.468 Y84.168 E0.00172 ; skirt
G1 X153.487 Y84.215 E0.00160 ; skirt
G1 X153.506 Y84.267 E0.00172 ; skirt
G1 X153.523 Y84.315 E0.00160 ; skirt
G1 X153.538 Y84.364 E0.00160 ; skirt
G1 X153.553 Y84.413 E0.00160 ; skirt
G1 X153.567 Y84.466 E0.00172 ; skirt
G1 X153.579 Y84.516 E0.00160 ; skirt
G1 X153.589 Y84.566 E0.00160 ; skirt
G1 X153.599 Y84.616 E0.00160 ; skirt
G1 X153.607 Y84.667 E0.00160 ; skirt
G1 X153.615 Y84.721 E0.00172 ; skirt
G1 X153.621 Y84.775 E0.00172 ; skirt
G1 X153.626 Y84.826 E0.00160 ; skirt
G1 X153.630 Y84.881 E0.00172 ; skirt
G1 X153.632 Y84.932 E0.00160 ; skirt
G1 X153.633 Y84.965 E0.00103 ; skirt
G1 X153.633 Y85.000 E0.00110 ; skirt
G1 X153.633 Y125.000 E1.25417 ; skirt
G1 X153.632 Y125.044 E0.00138 ; skirt
G1 X153.630 Y125.102 E0.00183 ; skirt
G1 X153.627 Y125.164 E0.00195 ; skirt
G1 X153.621 Y125.223 E0.00183 ; skirt
G1 X153.615 Y125.281 E0.00183 ; skirt
G1 X153.606 Y125.342 E0.00195 ; skirt
G1 X153.596 Y125.400 E0.00183 ; skirt
G1 X153.585 Y125.457 E0.00183 ; skirt
G1 X153.571 Y125.518 E0.00195 ; skirt
G1 X153.555 Y125.578 E0.00195 ; skirt
G1 X153.539 Y125.634 E0.00183 ; skirt
G1 X153.521 Y125.690 E0.00183 ; skirt
G1 X153.501 Y125.748 E0.00195 ; skirt
G1 X153.480 Y125.803 E0.00183 ; skirt
G1 X153.457 Y125.861 E0.00195 ; skirt
G1 X153.431 Y125.917 E0.00195 ; skirt
G1 X153.406 Y125.970 E0.00183 ; skirt
G1 X153.379 Y126.022 E0.00183 ; skirt
G1 X153.350 Y126.077 E0.00195 ; skirt
G1 X153.320 Y126.127 E0.00183 ; skirt
G1 X153.289 Y126.177 E0.00183 ; skirt
G1 X153.257 Y126.226 E0.00183 ; skirt
G1 X153.222 Y126.277 E0.00195 ; skirt
G1 X153.185 Y126.327 E0.00195 ; skirt
G1 X153.149 Y126.373 E0.00183 ; skirt
G1 X153.111 Y126.418 E0.00183 ; skirt
G1 X153.071 Y126.465 E0.00195 ; skirt
G1 X153.028 Y126.510 E0.00195 ; skirt
G1 X152.987 Y126.552 E0.00183 ; skirt
G1 X152.945 Y126.593 E0.00183 ; skirt
G1 X152.900 Y126.635 E0.00195 ; skirt
G1 X152.855 Y126.673 E0.00183 ; skirt
G1 X152.810 Y126.710 E0.00183 ; skirt
G1 X152.776 Y126.737 E0.00138 ; skirt
G1 X152.738 Y126.765 E0.00149 ; skirt
G1 X152.702 Y126.791 E0.00138 ; skirt
G1 X152.663 Y126.818 E0.00149 ; skirt
G1 X152.623 Y126.844 E0.00149 ; skirt
G1 X152.586 Y126.867 E0.00138 ; skirt
G1 X152.548 Y126.890 E0.00138 ; skirt
G1 X152.510 Y126.911 E0.00138 ; skirt
G1 X152.468 Y126.934 E0.00149 ; skirt
G1 X152.429 Y126.954 E0.00138 ; skirt
G1 X152.390 Y126.974 E0.00138 ; skirt
G1 X152.347 Y126.994 E0.00149 ; skirt
G1 X152.307 Y127.011 E0.00138 ; skirt
G1 X152.263 Y127.030 E0.00149 ; skirt
G1 X152.219 Y127.047 E0.00149 ; skirt
G1 X152.178 Y127.062 E0.00138 ; skirt
G1 X152.133 Y127.077 E0.00149 ; skirt
G1 X152.091 Y127.091 E0.00138 ; skirt
G1 X152.049 Y127.103 E0.00138 ; skirt
G1 X152.007 Y127.115 E0.00138 ; skirt
G1 X151.964 Y127.126 E0.00138 ; skirt
G1 X151.918 Y127.137 E0.00149 ; skirt
G1 X151.875 Y127.146 E0.00138 ; skirt
G1 X151.828 Y127.155 E0.00149 ; skirt
G1 X151.781 Y127.162 E0.00149 ; skirt
G1 X151.738 Y127.169 E0.00138 ; skirt
G1 X151.691 Y127.175 E0.00149 ; skirt
G1 X151.647 Y127.179 E0.00138 ; skirt
G1 X151.600 Y127.183 E0.00149 ; skirt
G1 X151.556 Y127.186 E0.00138 ; skirt
G1 X151.512 Y127.187 E0.00138 ; skirt
G1 X151.465 Y127.188 E0.00149 ; skirt
G1 X98.541 Y127.188 E1.65938 ; skirt
G1 X98.479 Y127.187 E0.00195 ; skirt
G1 X98.417 Y127.184 E0.00195 ; skirt
G1 X98.355 Y127.179 E0.00195 ; skirt
G1 X98.297 Y127.173 E0.00183 ; skirt
G1 X98.235 Y127.165 E0.00195 ; skirt
G1 X98.178 Y127.156 E0.00183 ; skirt
G1 X98.120 Y127.145 E0.00183 ; skirt
G1 X98.059 Y127.132 E0.00195 ; skirt
G1 X97.999 Y127.117 E0.00195 ; skirt
G1 X97.943 Y127.101 E0.00183 ; skirt
G1 X97.883 Y127.083 E0.00195 ; skirt
G1 X97.824 Y127.063 E0.00195 ; skirt
G1 X97.770 Y127.042 E0.00183 ; skirt
G1 X97.712 Y127.019 E0.00195 ; skirt
G1 X97.658 Y126.996 E0.00183 ; skirt
G1 X97.602 Y126.970 E0.00195 ; skirt
G1 X97.546 Y126.942 E0.00195 ; skirt
G1 X97.492 Y126.913 E0.00195 ; skirt
G1 X97.438 Y126.882 E0.00195 ; skirt
G1 X97.388 Y126.851 E0.00183 ; skirt
G1 X97.336 Y126.817 E0.00195 ; skirt
G1 X97.288 Y126.784 E0.00183 ; skirt
G1 X97.238 Y126.747 E0.00195 ; skirt
G1 X97.189 Y126.709 E0.00195 ; skirt
G1 X97.143 Y126.672 E0.00183 ; skirt
G1 X97.097 Y126.631 E0.00195 ; skirt
G1 X97.054 Y126.592 E0.00183 ; skirt
G1 X97.009 Y126.548 E0.00195 ; skirt
G1 X96.966 Y126.504 E0.00195 ; skirt
G1 X96.924 Y126.458 E0.00195 ; skirt
G1 X96.885 Y126.414 E0.00183 ; skirt
G1 X96.846 Y126.366 E0.00195 ; skirt
G1 X96.819 Y126.331 E0.00138 ; skirt
G1 X96.790 Y126.293 E0.00149 ; skirt
G1 X96.765 Y126.258 E0.00138 ; skirt
G1 X96.738 Y126.219 E0.00149 ; skirt
G1 X96.712 Y126.179 E0.00149 ; skirt
G1 X96.689 Y126.142 E0.00138 ; skirt
G1 X96.666 Y126.104 E0.00138 ; skirt
G1 X96.644 Y126.066 E0.00138 ; skirt
G1 X96.622 Y126.024 E0.00149 ; skirt
G1 X96.601 Y125.985 E0.00138 ; skirt
G1 X96.582 Y125.946 E0.00138 ; skirt
G1 X96.562 Y125.903 E0.00149 ; skirt
G1 X96.544 Y125.863 E0.00138 ; skirt
G1 X96.526 Y125.819 E0.00149 ; skirt
G1 X96.509 Y125.775 E0.00149 ; skirt
G1 X96.494 Y125.733 E0.00138 ; skirt
G1 X96.478 Y125.688 E0.00149 ; skirt
G1 X96.465 Y125.647 E0.00138 ; skirt
G1 X96.452 Y125.605 E0.00138 ; skirt
G1 X96.441 Y125.562 E0.00138 ; skirt
G1 X96.430 Y125.520 E0.00138 ; skirt
G1 X96.419 Y125.474 E0.00149 ; skirt
G1 X96.410 Y125.431 E0.00138 ; skirt
G1 X96.401 Y125.384 E0.00149 ; skirt
G1 X96.393 Y125.337 E0.00149 ; skirt
G1 X96.387 Y125.294 E0.00138 ; skirt
G1 X96.381 Y125.247 E0.00149 ; skirt
G1 X96.377 Y125.203 E0.00138 ; skirt
G1 X96.373 Y125.159 E0.00138 ; skirt
G1 X96.370 Y125.115 E0.00138 ; skirt
G1 X96.368 Y125.068 E0.00149 ; skirt
G1 X96.367 Y125.024 E0.00138 ; skirt
G1 X96.367 Y84.982 E1.25550 ; skirt
G1 X96.369 Y84.920 E0.00195 ; skirt
G1 X96.372 Y84.859 E0.00190 ; skirt
; PURGING FINISHED
G1 F8640
G1 X96.383 Y84.737 E-0.02820 ; wipe and retract
G1 X96.391 Y84.680 E-0.01350 ; wipe and retract
G1 X96.401 Y84.618 E-0.01435 ; wipe and retract
G1 X96.412 Y84.557 E-0.01435 ; wipe and retract
G1 X96.425 Y84.500 E-0.01350 ; wipe and retract
G1 X96.439 Y84.443 E-0.01350 ; wipe and retract
G1 X96.456 Y84.383 E-0.01435 ; wipe and retract
G1 X96.474 Y84.324 E-0.01435 ; wipe and retract
G1 X96.493 Y84.269 E-0.01350 ; wipe and retract
G1 X96.513 Y84.214 E-0.01350 ; wipe and retract
G1 X96.536 Y84.156 E-0.01435 ; wipe and retract
G1 X96.561 Y84.099 E-0.01435 ; wipe and retract
G1 X96.588 Y84.043 E-0.01435 ; wipe and retract
G1 X96.614 Y83.991 E-0.01350 ; wipe and retract
G1 X96.643 Y83.936 E-0.01435 ; wipe and retract
G1 X96.674 Y83.882 E-0.01435 ; wipe and retract
G1 X96.705 Y83.832 E-0.01350 ; wipe and retract
G1 X96.739 Y83.780 E-0.01435 ; wipe and retract
G1 X96.772 Y83.732 E-0.01350 ; wipe and retract
G1 X96.809 Y83.682 E-0.01435 ; wipe and retract
G1 X96.847 Y83.633 E-0.01435 ; wipe and retract
G1 X96.884 Y83.588 E-0.01350 ; wipe and retract
G1 X96.925 Y83.541 E-0.01435 ; wipe and retract
G1 X96.964 Y83.498 E-0.01350 ; wipe and retract
G1 X97.007 Y83.453 E-0.01435 ; wipe and retract
G1 X97.052 Y83.410 E-0.01435 ; wipe and retract
G1 X97.098 Y83.368 E-0.01435 ; wipe and retract
G1 X97.142 Y83.330 E-0.01350 ; wipe and retract
G1 X97.190 Y83.290 E-0.01435 ; wipe and retract
G1 X97.224 Y83.263 E-0.01013 ; wipe and retract
G1 X97.262 Y83.235 E-0.01097 ; wipe and retract
G1 X97.298 Y83.209 E-0.01013 ; wipe and retract
G1 X97.337 Y83.182 E-0.01097 ; wipe and retract
G1 X97.377 Y83.156 E-0.01097 ; wipe and retract
G1 X97.414 Y83.133 E-0.01013 ; wipe and retract
G1 X97.452 Y83.110 E-0.01013 ; wipe and retract
G1 X97.490 Y83.089 E-0.01013 ; wipe and retract
G1 X97.532 Y83.066 E-0.01097 ; wipe and retract
G1 X97.571 Y83.046 E-0.01013 ; wipe and retract
G1 X97.610 Y83.026 E-0.01013 ; wipe and retract
G1 X97.653 Y83.006 E-0.01097 ; wipe and retract
G1 X97.693 Y82.989 E-0.01013 ; wipe and retract
G1 X97.737 Y82.970 E-0.01097 ; wipe and retract
G1 X97.781 Y82.953 E-0.01097 ; wipe and retract
G1 X97.822 Y82.938 E-0.01013 ; wipe and retract
G1 X97.867 Y82.923 E-0.01097 ; wipe and retract
G1 X97.909 Y82.909 E-0.01013 ; wipe and retract
G1 X97.951 Y82.897 E-0.01013 ; wipe and retract
G1 X97.993 Y82.885 E-0.01013 ; wipe and retract
G1 X98.036 Y82.874 E-0.01013 ; wipe and retract
G1 X98.082 Y82.863 E-0.01097 ; wipe and retract
G1 X98.125 Y82.854 E-0.01013 ; wipe and retract
G1 X98.172 Y82.845 E-0.01097 ; wipe and retract
G1 X98.219 Y82.838 E-0.01097 ; wipe and retract
G1 X98.262 Y82.831 E-0.01013 ; wipe and retract
G1 X98.309 Y82.825 E-0.01097 ; wipe and retract
G1 X98.353 Y82.821 E-0.01013 ; wipe and retract
G1 X98.400 Y82.817 E-0.01097 ; wipe and retract
G1 X98.444 Y82.814 E-0.01013 ; wipe and retract
G1 X98.488 Y82.813 E-0.01013 ; wipe and retract
G1 X98.535 Y82.812 E-0.01097 ; wipe and retract
G1 X98.551 Y82.812 E-0.00353 ; wipe and retract
G1 E-0.04000 F2100.00000 ; retract
G1 Z0.800 F10800.000 ; lift Z
G1 X134.143 Y85.587 ; move to first perimeter point
G1 Z0.200 ; restore layer Z
G1 E0.80000 F2100.00000 ; unretract
G1 F600
G1 X150.857 Y85.587 E0.52407 ; perimeter
G1 X150.857 Y124.413 E1.21736 ; perimeter
G1 X134.143 Y124.413 E0.52407 ; perimeter
G1 X134.143 Y85.647 E1.21548 ; perimeter
G1 X133.766 Y85.210 F10800.000 ; move to first perimeter point
G1 F600
G1 X151.234 Y85.210 E0.54771 ; perimeter
G1 X151.234 Y124.790 E1.24100 ; perimeter
G1 X133.766 Y124.790 E0.54771 ; perimeter
G1 X133.766 Y85.270 E1.23912 ; perimeter
G1 X134.136 Y85.360 F10800.000 ; move inwards before travel
G1 F8640
G1 X137.057 Y85.259 E-0.76000 ; wipe and retract
G1 E-0.04000 F2100.00000 ; retract
G1 Z0.800 F10800.000 ; lift Z
G1 X150.744 Y86.466 ; move to first infill point
G1 Z0.200 ; restore layer Z
G1 E0.80000 F2100.00000 ; unretract
G1 F600
G1 X150.148 Y85.870 E0.02654 ; infill
G1 X149.613 Y85.870 E0.01686 ; infill
G1 X150.574 Y86.832 E0.04284 ; infill
G1 X150.574 Y87.367 E0.01686 ; infill
G1 X149.077 Y85.870 E0.06669 ; infill
G1 X148.541 Y85.870 E0.01686 ; infill
G1 X150.574 Y87.903 E0.09054 ; infill
G1 X150.574 Y88.438 E0.01686 ; infill
G1 X148.006 Y85.870 E0.11439 ; infill
G1 X147.470 Y85.870 E0.01686 ; infill
G1 X150.574 Y88.974 E0.13824 ; infill
G1 X150.574 Y89.510 E0.01686 ; infill
G1 X146.935 Y85.870 E0.16209 ; infill
G1 X146.399 Y85.870 E0.01686 ; infill
G1 X150.574 Y90.045 E0.18594 ; infill
G1 X150.574 Y90.581 E0.01686 ; infill
G1 X145.864 Y85.870 E0.20979 ; infill
G1 X145.328 Y85.870 E0.01686 ; infill
G1 X150.574 Y91.116 E0.23364 ; infill
G1 X150.574 Y91.652 E0.01686 ; infill
G1 X144.792 Y85.870 E0.25749 ; infill
G1 X144.257 Y85.870 E0.01686 ; infill
