; generated by Slic3r Prusa Edition 1.42.0-alpha1+ on 2019-01-02 at 22:14:54

; 

; external perimeters extrusion width = 0.45mm
; perimeters extrusion width = 0.45mm
; infill extrusion width = 0.45mm
; solid infill extrusion width = 0.45mm
; top infill extrusion width = 0.40mm
; first layer extrusion width = 0.42mm

M201 X9000 Y9000 Z500 E10000 ; sets maximum accelerations, mm/sec^2
M203 X500 Y500 Z12 E120 ; sets maximum feedrates, mm/sec
M204 P2000 R1500 T2000 ; sets acceleration (P, T) and retract acceleration (R), mm/sec^2
M205 X10.00 Y10.00 Z0.20 E2.50 ; sets the jerk limits, mm/sec
M205 S0 T0 ; sets the minimum extruding and travel feed rate, mm/sec
M107 ; disable fan
M115 U3.1.0 ; tell printer latest fw version
M83  ; extruder relative mode
M204 S2000 T1500 ; MK2 firmware only supports the old M204 format
M104 S230 ; set extruder temp
M140 S85 ; set bed temp
M190 S85 ; wait for bed temp
M109 S230 ; wait for extruder temp
G28 W ; home all without mesh bed level
G29 ; bed leveling
G1 Y-3.0 F1000.0 ; go outside print area
G92 E0.0
G1 X60.0 E9.0  F1000.0 ; intro line
G1 X100.0 E12.5  F1000.0 ; intro line
G92 E0.0
M900 K45; Filament gcode
G21 ; set units to millimeters
G90 ; use absolute coordinates
M83 ; use relative distances for extrusion
;BEFORE_LAYER_CHANGE
G92 E0.0
;0.2


G1 E-0.80000 F2100.00000 ; retract
G1 Z0.600 F10800.000 ; lift Z
;AFTER_LAYER_CHANGE
;0.2
G1 X107.983 Y94.680 ; move to first skirt point
G1 Z0.200 ; restore layer Z
G1 E0.80000 F2100.00000 ; unretract
M204 S1000 ; adjust acceleration
G1 F600
G1 X108.028 Y94.631 E0.00211 ; skirt
G1 X108.058 Y94.599 E0.00137 ; skirt
G1 X108.096 Y94.560 E0.00171 ; skirt
G1 X108.127 Y94.529 E0.00136 ; skirt
G1 X108.159 Y94.499 E0.00136 ; skirt
G1 X108.185 Y94.475 E0.00112 ; skirt
G1 X108.211 Y94.451 E0.00112 ; skirt
G1 X108.333 Y94.345 E0.00505 ; skirt
G1 X108.360 Y94.322 E0.00112 ; skirt
G1 X108.387 Y94.299 E0.00112 ; skirt
G1 X108.418 Y94.275 E0.00124 ; skirt
G1 X108.446 Y94.253 E0.00112 ; skirt
G1 X108.475 Y94.231 E0.00112 ; skirt
G1 X108.507 Y94.208 E0.00124 ; skirt
G1 X108.539 Y94.185 E0.00124 ; skirt
G1 X108.568 Y94.165 E0.00112 ; skirt
G1 X108.692 Y94.082 E0.00466 ; skirt
G1 X108.745 Y94.048 E0.00199 ; skirt
G1 X108.779 Y94.027 E0.00124 ; skirt
G1 X108.813 Y94.007 E0.00124 ; skirt
G1 X108.850 Y93.985 E0.00136 ; skirt
G1 X108.885 Y93.966 E0.00124 ; skirt
G1 X108.917 Y93.950 E0.00112 ; skirt
G1 X108.948 Y93.933 E0.00112 ; skirt
G1 X109.078 Y93.868 E0.00457 ; skirt
G1 X109.125 Y93.845 E0.00161 ; skirt
G1 X109.168 Y93.825 E0.00149 ; skirt
G1 X109.208 Y93.808 E0.00136 ; skirt
G1 X109.251 Y93.789 E0.00149 ; skirt
G1 X109.295 Y93.772 E0.00149 ; skirt
G1 X109.329 Y93.759 E0.00112 ; skirt
G1 X109.362 Y93.747 E0.00112 ; skirt
G1 X118.278 Y90.568 E0.29677 ; skirt
G1 X118.327 Y90.552 E0.00161 ; skirt
G1 X118.379 Y90.535 E0.00174 ; skirt
G1 X118.552 Y90.483 E0.00564 ; skirt
G1 X118.613 Y90.466 E0.00199 ; skirt
G1 X118.659 Y90.454 E0.00149 ; skirt
G1 X118.701 Y90.444 E0.00136 ; skirt
G1 X118.876 Y90.405 E0.00561 ; skirt
G1 X118.930 Y90.394 E0.00174 ; skirt
G1 X118.996 Y90.381 E0.00211 ; skirt
G1 X119.058 Y90.371 E0.00199 ; skirt
G1 X119.229 Y90.348 E0.00539 ; skirt
G1 X119.268 Y90.343 E0.00124 ; skirt
G1 X119.307 Y90.339 E0.00124 ; skirt
G1 X119.355 Y90.334 E0.00149 ; skirt
G1 X119.398 Y90.331 E0.00136 ; skirt
G1 X119.569 Y90.321 E0.00536 ; skirt
G1 X119.628 Y90.319 E0.00186 ; skirt
G1 X119.691 Y90.318 E0.00199 ; skirt
G1 X129.723 Y90.317 E0.31455 ; skirt
G1 X129.767 Y90.318 E0.00136 ; skirt
G1 X129.811 Y90.319 E0.00136 ; skirt
G1 X129.972 Y90.326 E0.00507 ; skirt
G1 X130.031 Y90.330 E0.00186 ; skirt
G1 X130.087 Y90.334 E0.00174 ; skirt
G1 X130.122 Y90.337 E0.00112 ; skirt
G1 X130.157 Y90.341 E0.00112 ; skirt
G1 X130.340 Y90.364 E0.00578 ; skirt
G1 X130.407 Y90.374 E0.00211 ; skirt
G1 X130.473 Y90.385 E0.00211 ; skirt
G1 X130.644 Y90.418 E0.00545 ; skirt
G1 X130.679 Y90.425 E0.00112 ; skirt
G1 X130.714 Y90.433 E0.00112 ; skirt
G1 X130.775 Y90.448 E0.00199 ; skirt
G1 X130.973 Y90.499 E0.00640 ; skirt
G1 X131.018 Y90.511 E0.00149 ; skirt
G1 X131.064 Y90.525 E0.00149 ; skirt
G1 X131.253 Y90.585 E0.00624 ; skirt
G1 X131.310 Y90.604 E0.00186 ; skirt
G1 X131.369 Y90.626 E0.00199 ; skirt
G1 X131.553 Y90.696 E0.00617 ; skirt
G1 X131.608 Y90.718 E0.00186 ; skirt
G1 X131.663 Y90.741 E0.00186 ; skirt
G1 X131.841 Y90.821 E0.00610 ; skirt
G1 X131.894 Y90.846 E0.00186 ; skirt
G1 X131.944 Y90.871 E0.00174 ; skirt
G1 X132.125 Y90.964 E0.00640 ; skirt
G1 X132.164 Y90.984 E0.00136 ; skirt
G1 X132.202 Y91.005 E0.00136 ; skirt
G1 X132.240 Y91.027 E0.00136 ; skirt
G1 X132.388 Y91.115 E0.00541 ; skirt
G1 X132.445 Y91.150 E0.00211 ; skirt
G1 X132.475 Y91.169 E0.00112 ; skirt
G1 X132.505 Y91.189 E0.00112 ; skirt
G1 X132.653 Y91.289 E0.00559 ; skirt
G1 X132.708 Y91.328 E0.00211 ; skirt
G1 X132.762 Y91.368 E0.00211 ; skirt
G1 X132.903 Y91.479 E0.00564 ; skirt
G1 X132.934 Y91.504 E0.00124 ; skirt
G1 X132.962 Y91.526 E0.00112 ; skirt
G1 X132.992 Y91.552 E0.00124 ; skirt
G1 X133.025 Y91.581 E0.00136 ; skirt
G1 X133.147 Y91.692 E0.00521 ; skirt
G1 X133.191 Y91.733 E0.00186 ; skirt
G1 X133.233 Y91.774 E0.00186 ; skirt
G1 X138.735 Y97.319 E0.24492 ; skirt
G1 X138.776 Y97.362 E0.00186 ; skirt
G1 X138.884 Y97.476 E0.00491 ; skirt
G1 X138.921 Y97.517 E0.00174 ; skirt
G1 X138.955 Y97.556 E0.00161 ; skirt
G1 X139.065 Y97.684 E0.00529 ; skirt
G1 X139.092 Y97.717 E0.00136 ; skirt
G1 X139.120 Y97.751 E0.00136 ; skirt
G1 X139.230 Y97.891 E0.00557 ; skirt
G1 X139.270 Y97.944 E0.00211 ; skirt
G1 X139.381 Y98.095 E0.00584 ; skirt
G1 X139.404 Y98.127 E0.00124 ; skirt
G1 X139.426 Y98.159 E0.00124 ; skirt
G1 X139.546 Y98.335 E0.00666 ; skirt
G1 X139.570 Y98.371 E0.00136 ; skirt
G1 X139.686 Y98.553 E0.00676 ; skirt
G1 X139.706 Y98.587 E0.00124 ; skirt
G1 X139.802 Y98.747 E0.00584 ; skirt
G1 X139.820 Y98.777 E0.00112 ; skirt
G1 X139.840 Y98.812 E0.00124 ; skirt
G1 X139.931 Y98.977 E0.00592 ; skirt
G1 X139.959 Y99.029 E0.00186 ; skirt
G1 X140.045 Y99.195 E0.00586 ; skirt
G1 X140.063 Y99.231 E0.00124 ; skirt
G1 X140.082 Y99.270 E0.00136 ; skirt
G1 X140.154 Y99.424 E0.00533 ; skirt
G1 X140.172 Y99.463 E0.00136 ; skirt
G1 X140.188 Y99.499 E0.00124 ; skirt
G1 X140.253 Y99.653 E0.00522 ; skirt
G1 X140.268 Y99.689 E0.00124 ; skirt
G1 X140.293 Y99.752 E0.00211 ; skirt
G1 X140.346 Y99.895 E0.00478 ; skirt
G1 X140.359 Y99.932 E0.00124 ; skirt
G1 X143.067 Y107.923 E0.26456 ; skirt
G1 X143.085 Y107.980 E0.00186 ; skirt
G1 X143.101 Y108.033 E0.00174 ; skirt
G1 X143.111 Y108.071 E0.00124 ; skirt
G1 X143.146 Y108.201 E0.00422 ; skirt
G1 X143.157 Y108.243 E0.00136 ; skirt
G1 X143.166 Y108.282 E0.00124 ; skirt
G1 X143.176 Y108.324 E0.00136 ; skirt
G1 X143.183 Y108.363 E0.00124 ; skirt
G1 X143.194 Y108.417 E0.00174 ; skirt
G1 X143.203 Y108.472 E0.00174 ; skirt
G1 X143.208 Y108.507 E0.00112 ; skirt
G1 X143.227 Y108.650 E0.00452 ; skirt
G1 X143.232 Y108.689 E0.00124 ; skirt
G1 X143.237 Y108.729 E0.00124 ; skirt
G1 X143.240 Y108.768 E0.00124 ; skirt
G1 X143.244 Y108.807 E0.00124 ; skirt
G1 X143.246 Y108.851 E0.00136 ; skirt
G1 X143.248 Y108.890 E0.00124 ; skirt
G1 X143.250 Y108.930 E0.00124 ; skirt
G1 X143.250 Y108.970 E0.00124 ; skirt
G1 X143.250 Y109.142 E0.00542 ; skirt
G1 X143.250 Y109.190 E0.00149 ; skirt
G1 X143.248 Y109.237 E0.00149 ; skirt
G1 X143.245 Y109.281 E0.00136 ; skirt
G1 X143.242 Y109.324 E0.00136 ; skirt
G1 X143.239 Y109.367 E0.00136 ; skirt
G1 X143.234 Y109.411 E0.00136 ; skirt
G1 X143.210 Y109.597 E0.00589 ; skirt
G1 X143.204 Y109.640 E0.00136 ; skirt
G1 X143.197 Y109.687 E0.00149 ; skirt
G1 X143.189 Y109.730 E0.00136 ; skirt
G1 X143.181 Y109.769 E0.00124 ; skirt
G1 X143.173 Y109.808 E0.00124 ; skirt
G1 X143.164 Y109.846 E0.00124 ; skirt
G1 X143.150 Y109.904 E0.00186 ; skirt
G1 X143.104 Y110.073 E0.00551 ; skirt
G1 X143.090 Y110.123 E0.00161 ; skirt
G1 X143.075 Y110.172 E0.00161 ; skirt
G1 X143.060 Y110.217 E0.00149 ; skirt
G1 X143.043 Y110.265 E0.00161 ; skirt
G1 X143.027 Y110.306 E0.00136 ; skirt
G1 X143.013 Y110.343 E0.00124 ; skirt
G1 X142.954 Y110.485 E0.00482 ; skirt
G1 X142.938 Y110.521 E0.00124 ; skirt
G1 X142.922 Y110.558 E0.00124 ; skirt
G1 X142.906 Y110.594 E0.00124 ; skirt
G1 X142.889 Y110.629 E0.00124 ; skirt
G1 X142.871 Y110.665 E0.00124 ; skirt
G1 X142.853 Y110.700 E0.00124 ; skirt
G1 X142.836 Y110.731 E0.00112 ; skirt
G1 X142.817 Y110.766 E0.00124 ; skirt
G1 X142.738 Y110.903 E0.00495 ; skirt
G1 X142.703 Y110.960 E0.00211 ; skirt
G1 X142.680 Y110.997 E0.00136 ; skirt
G1 X142.658 Y111.030 E0.00124 ; skirt
G1 X142.634 Y111.066 E0.00136 ; skirt
G1 X142.609 Y111.102 E0.00136 ; skirt
G1 X142.586 Y111.134 E0.00124 ; skirt
G1 X142.565 Y111.162 E0.00111 ; skirt
G1 X142.475 Y111.281 E0.00466 ; skirt
G1 X142.440 Y111.324 E0.00174 ; skirt
G1 X142.410 Y111.361 E0.00149 ; skirt
G1 X142.380 Y111.397 E0.00149 ; skirt
G1 X142.348 Y111.433 E0.00149 ; skirt
G1 X142.314 Y111.471 E0.00161 ; skirt
G1 X142.289 Y111.497 E0.00112 ; skirt
G1 X142.261 Y111.525 E0.00124 ; skirt
G1 X142.156 Y111.630 E0.00466 ; skirt
G1 X142.131 Y111.655 E0.00112 ; skirt
G1 X142.102 Y111.683 E0.00124 ; skirt
G1 X142.070 Y111.712 E0.00136 ; skirt
G1 X142.041 Y111.738 E0.00124 ; skirt
G1 X142.011 Y111.764 E0.00124 ; skirt
G1 X141.971 Y111.797 E0.00161 ; skirt
G1 X141.931 Y111.830 E0.00161 ; skirt
G1 X141.790 Y111.938 E0.00558 ; skirt
G1 X141.758 Y111.961 E0.00124 ; skirt
G1 X141.723 Y111.987 E0.00136 ; skirt
G1 X141.687 Y112.012 E0.00136 ; skirt
G1 X141.654 Y112.034 E0.00124 ; skirt
G1 X141.605 Y112.066 E0.00186 ; skirt
G1 X141.557 Y112.095 E0.00174 ; skirt
G1 X141.527 Y112.113 E0.00112 ; skirt
G1 X141.407 Y112.182 E0.00433 ; skirt
G1 X141.372 Y112.201 E0.00124 ; skirt
G1 X141.338 Y112.220 E0.00124 ; skirt
G1 X141.303 Y112.239 E0.00124 ; skirt
G1 X141.267 Y112.256 E0.00124 ; skirt
G1 X141.232 Y112.274 E0.00124 ; skirt
G1 X141.196 Y112.290 E0.00124 ; skirt
G1 X141.160 Y112.307 E0.00124 ; skirt
G1 X141.123 Y112.322 E0.00124 ; skirt
G1 X140.959 Y112.390 E0.00557 ; skirt
G1 X140.911 Y112.409 E0.00161 ; skirt
G1 X140.863 Y112.426 E0.00161 ; skirt
G1 X132.279 Y115.336 E0.28416 ; skirt
G1 X119.983 Y119.500 E0.40706 ; skirt
G1 X119.926 Y119.518 E0.00186 ; skirt
G1 X119.873 Y119.534 E0.00174 ; skirt
G1 X119.839 Y119.543 E0.00112 ; skirt
G1 X119.703 Y119.580 E0.00440 ; skirt
G1 X119.665 Y119.589 E0.00124 ; skirt
G1 X119.623 Y119.600 E0.00136 ; skirt
G1 X119.580 Y119.609 E0.00136 ; skirt
G1 X119.542 Y119.617 E0.00124 ; skirt
G1 X119.503 Y119.624 E0.00124 ; skirt
G1 X119.464 Y119.631 E0.00124 ; skirt
G1 X119.421 Y119.638 E0.00136 ; skirt
G1 X119.382 Y119.643 E0.00124 ; skirt
G1 X119.245 Y119.661 E0.00433 ; skirt
G1 X119.205 Y119.666 E0.00124 ; skirt
G1 X119.150 Y119.672 E0.00174 ; skirt
G1 X119.091 Y119.677 E0.00186 ; skirt
G1 X119.048 Y119.679 E0.00136 ; skirt
G1 X119.004 Y119.681 E0.00136 ; skirt
G1 X118.961 Y119.682 E0.00136 ; skirt
G1 X118.917 Y119.683 E0.00136 ; skirt
G1 X118.781 Y119.683 E0.00427 ; skirt
G1 X118.741 Y119.682 E0.00124 ; skirt
G1 X118.682 Y119.680 E0.00186 ; skirt
G1 X118.623 Y119.677 E0.00186 ; skirt
G1 X118.563 Y119.672 E0.00186 ; skirt
G1 X118.508 Y119.667 E0.00174 ; skirt
G1 X118.473 Y119.663 E0.00112 ; skirt
G1 X118.327 Y119.644 E0.00460 ; skirt
G1 X118.280 Y119.638 E0.00149 ; skirt
G1 X118.237 Y119.631 E0.00136 ; skirt
G1 X118.195 Y119.623 E0.00136 ; skirt
G1 X118.152 Y119.615 E0.00136 ; skirt
G1 X118.098 Y119.604 E0.00174 ; skirt
G1 X118.044 Y119.591 E0.00174 ; skirt
G1 X117.862 Y119.543 E0.00590 ; skirt
G1 X117.816 Y119.531 E0.00149 ; skirt
G1 X117.774 Y119.518 E0.00136 ; skirt
G1 X117.733 Y119.505 E0.00136 ; skirt
G1 X117.691 Y119.491 E0.00136 ; skirt
G1 X117.635 Y119.471 E0.00186 ; skirt
G1 X117.584 Y119.451 E0.00174 ; skirt
G1 X117.547 Y119.436 E0.00124 ; skirt
G1 X117.415 Y119.382 E0.00448 ; skirt
G1 X117.372 Y119.363 E0.00149 ; skirt
G1 X117.328 Y119.343 E0.00149 ; skirt
G1 X117.285 Y119.323 E0.00149 ; skirt
G1 X117.247 Y119.303 E0.00136 ; skirt
G1 X117.204 Y119.281 E0.00149 ; skirt
G1 X117.160 Y119.257 E0.00158 ; skirt
G1 X108.292 Y114.294 E0.31865 ; skirt
G1 X108.257 Y114.274 E0.00124 ; skirt
G1 X108.223 Y114.254 E0.00124 ; skirt
G1 X108.190 Y114.233 E0.00124 ; skirt
G1 X108.157 Y114.211 E0.00124 ; skirt
G1 X108.056 Y114.144 E0.00380 ; skirt
G1 X108.020 Y114.119 E0.00136 ; skirt
G1 X107.982 Y114.091 E0.00149 ; skirt
G1 X107.950 Y114.067 E0.00124 ; skirt
G1 X107.919 Y114.043 E0.00124 ; skirt
G1 X107.888 Y114.018 E0.00124 ; skirt
G1 X107.858 Y113.993 E0.00124 ; skirt
G1 X107.825 Y113.964 E0.00136 ; skirt
G1 X107.761 Y113.908 E0.00265 ; skirt
G1 X107.735 Y113.885 E0.00112 ; skirt
G1 X107.708 Y113.860 E0.00112 ; skirt
G1 X107.668 Y113.822 E0.00174 ; skirt
G1 X107.629 Y113.783 E0.00174 ; skirt
G1 X107.591 Y113.743 E0.00174 ; skirt
G1 X107.553 Y113.702 E0.00174 ; skirt
G1 X107.486 Y113.625 E0.00321 ; skirt
G1 X107.452 Y113.586 E0.00161 ; skirt
G1 X107.415 Y113.540 E0.00186 ; skirt
G1 X107.376 Y113.490 E0.00199 ; skirt
G1 X107.341 Y113.443 E0.00186 ; skirt
G1 X107.309 Y113.397 E0.00174 ; skirt
G1 X107.249 Y113.310 E0.00332 ; skirt
G1 X107.219 Y113.263 E0.00174 ; skirt
G1 X107.188 Y113.213 E0.00186 ; skirt
G1 X107.159 Y113.165 E0.00174 ; skirt
G1 X107.130 Y113.114 E0.00186 ; skirt
G1 X107.104 Y113.065 E0.00174 ; skirt
G1 X107.083 Y113.023 E0.00147 ; skirt
G1 X107.050 Y112.956 E0.00232 ; skirt
G1 X107.035 Y112.924 E0.00112 ; skirt
G1 X107.010 Y112.870 E0.00186 ; skirt
G1 X106.986 Y112.816 E0.00186 ; skirt
G1 X106.963 Y112.757 E0.00199 ; skirt
G1 X106.942 Y112.702 E0.00186 ; skirt
G1 X106.926 Y112.657 E0.00149 ; skirt
G1 X106.893 Y112.558 E0.00328 ; skirt
G1 X106.876 Y112.505 E0.00174 ; skirt
G1 X106.860 Y112.448 E0.00186 ; skirt
G1 X106.844 Y112.391 E0.00186 ; skirt
G1 X106.831 Y112.337 E0.00174 ; skirt
G1 X106.819 Y112.279 E0.00186 ; skirt
G1 X106.799 Y112.180 E0.00315 ; skirt
G1 X106.789 Y112.126 E0.00174 ; skirt
G1 X106.781 Y112.071 E0.00174 ; skirt
G1 X106.775 Y112.028 E0.00136 ; skirt
G1 X106.769 Y111.981 E0.00149 ; skirt
G1 X106.764 Y111.933 E0.00149 ; skirt
G1 X106.761 Y111.890 E0.00136 ; skirt
G1 X106.755 Y111.798 E0.00290 ; skirt
G1 X106.752 Y111.754 E0.00136 ; skirt
G1 X106.750 Y111.703 E0.00161 ; skirt
G1 X106.749 Y111.651 E0.00161 ; skirt
G1 X106.749 Y107.334 E0.13537 ; skirt
G1 X106.750 Y107.290 E0.00136 ; skirt
G1 X107.051 Y97.004 E0.32265 ; skirt
G1 X107.052 Y96.968 E0.00112 ; skirt
G1 X107.054 Y96.933 E0.00112 ; skirt
G1 X107.063 Y96.787 E0.00460 ; skirt
G1 X107.067 Y96.743 E0.00136 ; skirt
G1 X107.071 Y96.696 E0.00149 ; skirt
G1 X107.077 Y96.641 E0.00174 ; skirt
G1 X107.084 Y96.590 E0.00161 ; skirt
G1 X107.092 Y96.535 E0.00174 ; skirt
G1 X107.102 Y96.481 E0.00174 ; skirt
G1 X107.132 Y96.330 E0.00481 ; skirt
G1 X107.140 Y96.287 E0.00136 ; skirt
G1 X107.155 Y96.222 E0.00211 ; skirt
G1 X107.172 Y96.157 E0.00211 ; skirt
G1 X107.188 Y96.100 E0.00186 ; skirt
G1 X107.206 Y96.043 E0.00186 ; skirt
G1 X107.259 Y95.885 E0.00522 ; skirt
G1 X107.275 Y95.836 E0.00161 ; skirt
G1 X107.295 Y95.784 E0.00174 ; skirt
G1 X107.316 Y95.729 E0.00186 ; skirt
G1 X107.340 Y95.674 E0.00186 ; skirt
G1 X107.364 Y95.620 E0.00186 ; skirt
G1 X107.388 Y95.570 E0.00174 ; skirt
G1 X107.460 Y95.423 E0.00514 ; skirt
G1 X107.488 Y95.371 E0.00186 ; skirt
G1 X107.518 Y95.315 E0.00199 ; skirt
G1 X107.550 Y95.261 E0.00199 ; skirt
G1 X107.586 Y95.204 E0.00211 ; skirt
G1 X107.612 Y95.164 E0.00149 ; skirt
G1 X107.690 Y95.047 E0.00440 ; skirt
G1 X107.723 Y94.998 E0.00186 ; skirt
G1 X107.758 Y94.950 E0.00186 ; skirt
G1 X107.791 Y94.906 E0.00174 ; skirt
G1 X107.828 Y94.859 E0.00186 ; skirt
G1 X107.859 Y94.823 E0.00149 ; skirt
G1 X107.888 Y94.788 E0.00144 ; skirt
G1 X107.943 Y94.725 E0.00261 ; skirt
G1 F8640
G1 X108.028 Y94.631 E-0.02939 ; wipe and retract
G1 X108.058 Y94.599 E-0.01013 ; wipe and retract
G1 X108.096 Y94.560 E-0.01258 ; wipe and retract
G1 X108.127 Y94.529 E-0.01005 ; wipe and retract
G1 X108.159 Y94.499 E-0.01005 ; wipe and retract
G1 X108.185 Y94.475 E-0.00822 ; wipe and retract
G1 X108.211 Y94.451 E-0.00822 ; wipe and retract
G1 X108.333 Y94.345 E-0.03720 ; wipe and retract
