; generated by Slic3r Prusa Edition 1.42.0-alpha1+ on 2019-01-03 at 11:53:57

; 

; external perimeters extrusion width = 0.45mm
; perimeters extrusion width = 0.45mm
; infill extrusion width = 0.45mm
; solid infill extrusion width = 0.45mm
; top infill extrusion width = 0.40mm
; first layer extrusion width = 0.42mm

M201 X9000 Y9000 Z500 E10000 ; sets maximum accelerations, mm/sec^2
M203 X500 Y500 Z12 E120 ; sets maximum feedrates, mm/sec
M204 P2000 R1500 T2000 ; sets acceleration (P, T) and retract acceleration (R), mm/sec^2
M205 X10.00 Y10.00 Z0.20 E2.50 ; sets the jerk limits, mm/sec
M205 S0 T0 ; sets the minimum extruding and travel feed rate, mm/sec
M107 ; disable fan
M115 U3.1.0 ; tell printer latest fw version
M83  ; extruder relative mode
M204 S2000 T1500 ; MK2 firmware only supports the old M204 format
M104 S230 ; set extruder temp
M140 S85 ; set bed temp
M190 S85 ; wait for bed temp
M109 S230 ; wait for extruder temp
G28 W ; home all without mesh bed level
G29 ; bed leveling
G1 Y-3.0 F1000.0 ; go outside print area
G92 E0.0
G1 X60.0 E9.0  F1000.0 ; intro line
G1 X100.0 E12.5  F1000.0 ; intro line
G92 E0.0
M900 K45; Filament gcode
G21 ; set units to millimeters
G90 ; use absolute coordinates
M83 ; use relative distances for extrusion
;BEFORE_LAYER_CHANGE
G92 E0.0
;0.2


G1 E-0.80000 F2100.00000 ; retract
G1 Z0.600 F10800.000 ; lift Z
;AFTER_LAYER_CHANGE
;0.2
G1 X106.909 Y72.737 ; move to first skirt point
G1 Z0.200 ; restore layer Z
G1 E0.80000 F2100.00000 ; unretract
M204 S1000 ; adjust acceleration
G1 F600
G1 X106.938 Y72.721 E0.00103 ; skirt
G1 X106.972 Y72.702 E0.00123 ; skirt
G1 X107.004 Y72.685 E0.00115 ; skirt
G1 X107.037 Y72.669 E0.00115 ; skirt
G1 X107.070 Y72.653 E0.00115 ; skirt
G1 X107.241 Y72.572 E0.00593 ; skirt
G1 X107.274 Y72.558 E0.00115 ; skirt
G1 X107.306 Y72.545 E0.00106 ; skirt
G1 X107.345 Y72.529 E0.00132 ; skirt
G1 X107.382 Y72.514 E0.00126 ; skirt
G1 X107.420 Y72.500 E0.00126 ; skirt
G1 X107.454 Y72.488 E0.00115 ; skirt
G1 X107.502 Y72.472 E0.00159 ; skirt
G1 X107.544 Y72.459 E0.00138 ; skirt
G1 X107.597 Y72.444 E0.00172 ; skirt
G1 X107.755 Y72.402 E0.00512 ; skirt
G1 X107.787 Y72.394 E0.00103 ; skirt
G1 X107.822 Y72.385 E0.00115 ; skirt
G1 X107.867 Y72.375 E0.00145 ; skirt
G1 X107.903 Y72.368 E0.00115 ; skirt
G1 X107.939 Y72.361 E0.00115 ; skirt
G1 X107.971 Y72.356 E0.00103 ; skirt
G1 X108.004 Y72.351 E0.00103 ; skirt
G1 X108.051 Y72.344 E0.00147 ; skirt
G1 X108.090 Y72.339 E0.00126 ; skirt
G1 X108.130 Y72.335 E0.00126 ; skirt
G1 X108.300 Y72.320 E0.00535 ; skirt
G1 X108.359 Y72.316 E0.00183 ; skirt
G1 X108.420 Y72.313 E0.00191 ; skirt
G1 X108.460 Y72.312 E0.00126 ; skirt
G1 X108.497 Y72.312 E0.00116 ; skirt
G1 X141.504 Y72.311 E1.03491 ; skirt
G1 X141.547 Y72.312 E0.00138 ; skirt
G1 X141.591 Y72.313 E0.00138 ; skirt
G1 X141.644 Y72.316 E0.00166 ; skirt
G1 X141.692 Y72.319 E0.00149 ; skirt
G1 X141.852 Y72.333 E0.00505 ; skirt
G1 X141.885 Y72.336 E0.00103 ; skirt
G1 X141.939 Y72.343 E0.00172 ; skirt
G1 X141.974 Y72.347 E0.00111 ; skirt
G1 X142.007 Y72.352 E0.00103 ; skirt
G1 X142.050 Y72.359 E0.00138 ; skirt
G1 X142.093 Y72.367 E0.00138 ; skirt
G1 X142.150 Y72.379 E0.00181 ; skirt
G1 X142.196 Y72.390 E0.00149 ; skirt
G1 X142.246 Y72.402 E0.00160 ; skirt
G1 X142.393 Y72.441 E0.00478 ; skirt
G1 X142.425 Y72.450 E0.00103 ; skirt
G1 X142.456 Y72.459 E0.00103 ; skirt
G1 X142.518 Y72.479 E0.00202 ; skirt
G1 X142.570 Y72.496 E0.00172 ; skirt
G1 X142.621 Y72.515 E0.00172 ; skirt
G1 X142.682 Y72.539 E0.00205 ; skirt
G1 X142.722 Y72.556 E0.00138 ; skirt
G1 X142.762 Y72.574 E0.00138 ; skirt
G1 X142.924 Y72.649 E0.00558 ; skirt
G1 X142.967 Y72.670 E0.00149 ; skirt
G1 X143.011 Y72.693 E0.00156 ; skirt
G1 X143.050 Y72.714 E0.00138 ; skirt
G1 X143.088 Y72.735 E0.00138 ; skirt
G1 X143.126 Y72.757 E0.00138 ; skirt
G1 X143.171 Y72.785 E0.00169 ; skirt
G1 X143.208 Y72.809 E0.00138 ; skirt
G1 X143.248 Y72.836 E0.00149 ; skirt
G1 X143.394 Y72.937 E0.00558 ; skirt
G1 X143.424 Y72.959 E0.00115 ; skirt
G1 X143.453 Y72.981 E0.00115 ; skirt
G1 X143.496 Y73.014 E0.00170 ; skirt
G1 X143.533 Y73.044 E0.00149 ; skirt
G1 X143.569 Y73.074 E0.00149 ; skirt
G1 X143.609 Y73.110 E0.00168 ; skirt
G1 X143.647 Y73.144 E0.00160 ; skirt
G1 X143.681 Y73.177 E0.00149 ; skirt
G1 X143.802 Y73.297 E0.00535 ; skirt
G1 X143.831 Y73.326 E0.00126 ; skirt
G1 X143.863 Y73.361 E0.00149 ; skirt
G1 X143.902 Y73.403 E0.00181 ; skirt
G1 X143.933 Y73.439 E0.00149 ; skirt
G1 X143.966 Y73.479 E0.00160 ; skirt
G1 X144.008 Y73.533 E0.00216 ; skirt
G1 X144.043 Y73.580 E0.00183 ; skirt
G1 X144.067 Y73.612 E0.00126 ; skirt
G1 X144.154 Y73.737 E0.00478 ; skirt
G1 X144.179 Y73.773 E0.00138 ; skirt
G1 X144.203 Y73.810 E0.00139 ; skirt
G1 X144.229 Y73.852 E0.00155 ; skirt
G1 X144.256 Y73.896 E0.00160 ; skirt
G1 X144.277 Y73.934 E0.00138 ; skirt
G1 X144.303 Y73.982 E0.00169 ; skirt
G1 X144.325 Y74.024 E0.00149 ; skirt
G1 X144.344 Y74.063 E0.00138 ; skirt
G1 X144.429 Y74.244 E0.00627 ; skirt
G1 X144.451 Y74.295 E0.00172 ; skirt
G1 X144.475 Y74.355 E0.00204 ; skirt
G1 X144.496 Y74.410 E0.00183 ; skirt
G1 X144.515 Y74.463 E0.00177 ; skirt
G1 X156.517 Y110.468 E1.18999 ; skirt
G1 X156.534 Y110.524 E0.00183 ; skirt
G1 X156.551 Y110.580 E0.00183 ; skirt
G1 X156.598 Y110.756 E0.00572 ; skirt
G1 X156.607 Y110.792 E0.00115 ; skirt
G1 X156.617 Y110.831 E0.00126 ; skirt
G1 X156.631 Y110.901 E0.00224 ; skirt
G1 X156.643 Y110.962 E0.00195 ; skirt
G1 X156.648 Y110.994 E0.00103 ; skirt
G1 X156.653 Y111.027 E0.00103 ; skirt
G1 X156.657 Y111.059 E0.00103 ; skirt
G1 X156.661 Y111.092 E0.00103 ; skirt
G1 X156.664 Y111.128 E0.00115 ; skirt
G1 X156.679 Y111.291 E0.00511 ; skirt
G1 X156.683 Y111.338 E0.00149 ; skirt
G1 X156.685 Y111.375 E0.00115 ; skirt
G1 X156.687 Y111.418 E0.00134 ; skirt
G1 X156.688 Y111.454 E0.00115 ; skirt
G1 X156.688 Y111.491 E0.00115 ; skirt
G1 X156.689 Y134.500 E0.72144 ; skirt
G1 X156.688 Y134.548 E0.00149 ; skirt
G1 X156.687 Y134.577 E0.00092 ; skirt
G1 X156.686 Y134.617 E0.00125 ; skirt
G1 X156.682 Y134.671 E0.00172 ; skirt
G1 X156.680 Y134.704 E0.00103 ; skirt
G1 X156.666 Y134.862 E0.00496 ; skirt
G1 X156.661 Y134.909 E0.00149 ; skirt
G1 X156.654 Y134.963 E0.00171 ; skirt
G1 X156.648 Y135.007 E0.00138 ; skirt
G1 X156.641 Y135.050 E0.00138 ; skirt
G1 X156.632 Y135.096 E0.00149 ; skirt
G1 X156.620 Y135.155 E0.00186 ; skirt
G1 X156.610 Y135.197 E0.00138 ; skirt
G1 X156.600 Y135.240 E0.00138 ; skirt
G1 X156.558 Y135.395 E0.00504 ; skirt
G1 X156.548 Y135.431 E0.00115 ; skirt
G1 X156.532 Y135.483 E0.00173 ; skirt
G1 X156.521 Y135.518 E0.00113 ; skirt
G1 X156.511 Y135.549 E0.00103 ; skirt
G1 X156.495 Y135.594 E0.00149 ; skirt
G1 X156.477 Y135.641 E0.00160 ; skirt
G1 X156.455 Y135.697 E0.00187 ; skirt
G1 X156.433 Y135.747 E0.00172 ; skirt
G1 X156.418 Y135.780 E0.00115 ; skirt
G1 X156.347 Y135.933 E0.00527 ; skirt
G1 X156.324 Y135.978 E0.00160 ; skirt
G1 X156.297 Y136.030 E0.00183 ; skirt
G1 X156.274 Y136.072 E0.00149 ; skirt
G1 X156.250 Y136.113 E0.00149 ; skirt
G1 X156.217 Y136.167 E0.00198 ; skirt
G1 X156.194 Y136.204 E0.00138 ; skirt
G1 X156.174 Y136.234 E0.00115 ; skirt
G1 X156.155 Y136.262 E0.00103 ; skirt
G1 X156.067 Y136.387 E0.00481 ; skirt
G1 X156.048 Y136.414 E0.00103 ; skirt
G1 X156.024 Y136.446 E0.00126 ; skirt
G1 X155.998 Y136.481 E0.00137 ; skirt
G1 X155.975 Y136.510 E0.00115 ; skirt
G1 X155.954 Y136.535 E0.00103 ; skirt
G1 X155.933 Y136.560 E0.00103 ; skirt
G1 X155.909 Y136.588 E0.00115 ; skirt
G1 X155.877 Y136.624 E0.00152 ; skirt
G1 X155.850 Y136.654 E0.00126 ; skirt
G1 X155.807 Y136.698 E0.00195 ; skirt
G1 X155.701 Y136.804 E0.00470 ; skirt
G1 X155.677 Y136.827 E0.00103 ; skirt
G1 X155.648 Y136.855 E0.00126 ; skirt
G1 X155.616 Y136.885 E0.00137 ; skirt
G1 X155.589 Y136.909 E0.00115 ; skirt
G1 X155.564 Y136.930 E0.00103 ; skirt
G1 X155.536 Y136.954 E0.00115 ; skirt
G1 X155.507 Y136.977 E0.00115 ; skirt
G1 X155.466 Y137.009 E0.00164 ; skirt
G1 X155.431 Y137.036 E0.00138 ; skirt
G1 X155.387 Y137.068 E0.00172 ; skirt
G1 X155.267 Y137.151 E0.00458 ; skirt
G1 X155.237 Y137.172 E0.00115 ; skirt
G1 X155.206 Y137.192 E0.00115 ; skirt
G1 X155.170 Y137.216 E0.00137 ; skirt
G1 X155.139 Y137.235 E0.00115 ; skirt
G1 X155.110 Y137.252 E0.00103 ; skirt
G1 X155.075 Y137.272 E0.00126 ; skirt
G1 X155.040 Y137.291 E0.00126 ; skirt
G1 X155.008 Y137.309 E0.00115 ; skirt
G1 X154.979 Y137.324 E0.00103 ; skirt
G1 X154.926 Y137.349 E0.00183 ; skirt
G1 X154.784 Y137.416 E0.00493 ; skirt
G1 X154.751 Y137.431 E0.00115 ; skirt
G1 X154.714 Y137.447 E0.00126 ; skirt
G1 X154.673 Y137.464 E0.00140 ; skirt
G1 X154.639 Y137.478 E0.00115 ; skirt
G1 X154.604 Y137.491 E0.00115 ; skirt
G1 X154.570 Y137.503 E0.00115 ; skirt
G1 X154.536 Y137.515 E0.00115 ; skirt
G1 X154.489 Y137.530 E0.00152 ; skirt
G1 X154.448 Y137.543 E0.00138 ; skirt
G1 X154.395 Y137.558 E0.00172 ; skirt
G1 X154.254 Y137.596 E0.00458 ; skirt
G1 X154.222 Y137.604 E0.00103 ; skirt
G1 X154.183 Y137.614 E0.00126 ; skirt
G1 X154.140 Y137.623 E0.00137 ; skirt
G1 X154.108 Y137.630 E0.00103 ; skirt
G1 X154.072 Y137.637 E0.00115 ; skirt
G1 X154.040 Y137.642 E0.00103 ; skirt
G1 X154.003 Y137.648 E0.00115 ; skirt
G1 X153.955 Y137.655 E0.00152 ; skirt
G1 X153.919 Y137.660 E0.00115 ; skirt
G1 X153.857 Y137.666 E0.00195 ; skirt
G1 X153.675 Y137.682 E0.00573 ; skirt
G1 X153.639 Y137.684 E0.00115 ; skirt
G1 X153.595 Y137.686 E0.00136 ; skirt
G1 X153.563 Y137.688 E0.00103 ; skirt
G1 X153.526 Y137.688 E0.00115 ; skirt
G1 X96.474 Y137.688 E1.78881 ; skirt
G1 X96.412 Y137.687 E0.00195 ; skirt
G1 X96.372 Y137.685 E0.00125 ; skirt
G1 X96.340 Y137.683 E0.00103 ; skirt
G1 X96.299 Y137.680 E0.00126 ; skirt
G1 X96.146 Y137.667 E0.00484 ; skirt
G1 X96.102 Y137.662 E0.00138 ; skirt
G1 X96.058 Y137.657 E0.00139 ; skirt
G1 X96.008 Y137.650 E0.00158 ; skirt
G1 X95.957 Y137.642 E0.00160 ; skirt
G1 X95.911 Y137.633 E0.00149 ; skirt
G1 X95.853 Y137.621 E0.00186 ; skirt
G1 X95.806 Y137.611 E0.00149 ; skirt
G1 X95.764 Y137.600 E0.00138 ; skirt
G1 X95.605 Y137.558 E0.00516 ; skirt
G1 X95.573 Y137.549 E0.00103 ; skirt
G1 X95.520 Y137.533 E0.00172 ; skirt
G1 X95.458 Y137.513 E0.00206 ; skirt
G1 X95.413 Y137.497 E0.00149 ; skirt
G1 X95.365 Y137.479 E0.00160 ; skirt
G1 X95.307 Y137.456 E0.00197 ; skirt
G1 X95.256 Y137.434 E0.00172 ; skirt
G1 X95.220 Y137.418 E0.00126 ; skirt
G1 X95.071 Y137.348 E0.00516 ; skirt
G1 X95.025 Y137.326 E0.00160 ; skirt
G1 X94.973 Y137.299 E0.00183 ; skirt
G1 X94.931 Y137.276 E0.00149 ; skirt
G1 X94.890 Y137.252 E0.00149 ; skirt
G1 X94.833 Y137.217 E0.00209 ; skirt
G1 X94.796 Y137.194 E0.00138 ; skirt
G1 X94.766 Y137.174 E0.00115 ; skirt
G1 X94.738 Y137.155 E0.00103 ; skirt
G1 X94.613 Y137.067 E0.00481 ; skirt
G1 X94.586 Y137.048 E0.00103 ; skirt
G1 X94.554 Y137.024 E0.00126 ; skirt
G1 X94.519 Y136.998 E0.00137 ; skirt
G1 X94.493 Y136.977 E0.00103 ; skirt
G1 X94.465 Y136.954 E0.00115 ; skirt
G1 X94.437 Y136.931 E0.00115 ; skirt
G1 X94.412 Y136.909 E0.00103 ; skirt
G1 X94.376 Y136.877 E0.00151 ; skirt
G1 X94.349 Y136.852 E0.00115 ; skirt
G1 X94.325 Y136.830 E0.00103 ; skirt
G1 X94.302 Y136.807 E0.00103 ; skirt
G1 X94.175 Y136.680 E0.00562 ; skirt
G1 X94.150 Y136.653 E0.00115 ; skirt
G1 X94.120 Y136.621 E0.00137 ; skirt
G1 X94.098 Y136.597 E0.00103 ; skirt
G1 X94.077 Y136.572 E0.00103 ; skirt
G1 X94.048 Y136.539 E0.00138 ; skirt
G1 X94.018 Y136.501 E0.00150 ; skirt
G1 X93.994 Y136.470 E0.00126 ; skirt
G1 X93.972 Y136.441 E0.00115 ; skirt
G1 X93.939 Y136.396 E0.00172 ; skirt
G1 X93.837 Y136.250 E0.00562 ; skirt
G1 X93.818 Y136.222 E0.00103 ; skirt
G1 X93.800 Y136.195 E0.00103 ; skirt
G1 X93.778 Y136.160 E0.00128 ; skirt
G1 X93.759 Y136.129 E0.00115 ; skirt
G1 X93.743 Y136.101 E0.00103 ; skirt
G1 X93.726 Y136.072 E0.00103 ; skirt
G1 X93.705 Y136.034 E0.00138 ; skirt
G1 X93.690 Y136.005 E0.00103 ; skirt
G1 X93.671 Y135.969 E0.00126 ; skirt
G1 X93.655 Y135.936 E0.00115 ; skirt
G1 X93.581 Y135.777 E0.00550 ; skirt
G1 X93.558 Y135.727 E0.00172 ; skirt
G1 X93.534 Y135.669 E0.00197 ; skirt
G1 X93.522 Y135.639 E0.00103 ; skirt
G1 X93.510 Y135.608 E0.00103 ; skirt
G1 X93.499 Y135.577 E0.00103 ; skirt
G1 X93.488 Y135.546 E0.00103 ; skirt
G1 X93.474 Y135.503 E0.00141 ; skirt
G1 X93.463 Y135.468 E0.00115 ; skirt
G1 X93.453 Y135.433 E0.00115 ; skirt
G1 X93.443 Y135.398 E0.00115 ; skirt
G1 X93.402 Y135.247 E0.00492 ; skirt
G1 X93.389 Y135.193 E0.00172 ; skirt
G1 X93.379 Y135.147 E0.00148 ; skirt
G1 X93.371 Y135.112 E0.00115 ; skirt
G1 X93.363 Y135.072 E0.00126 ; skirt
G1 X93.356 Y135.032 E0.00126 ; skirt
G1 X93.351 Y135.000 E0.00103 ; skirt
G1 X93.344 Y134.948 E0.00164 ; skirt
G1 X93.339 Y134.912 E0.00115 ; skirt
G1 X93.336 Y134.879 E0.00103 ; skirt
G1 X93.319 Y134.694 E0.00584 ; skirt
G1 X93.317 Y134.657 E0.00115 ; skirt
G1 X93.315 Y134.621 E0.00115 ; skirt
G1 X93.312 Y134.559 E0.00194 ; skirt
G1 X93.312 Y134.504 E0.00173 ; skirt
G1 X93.311 Y111.496 E0.72137 ; skirt
G1 X93.312 Y111.460 E0.00115 ; skirt
G1 X93.313 Y111.427 E0.00103 ; skirt
G1 X93.314 Y111.385 E0.00132 ; skirt
G1 X93.316 Y111.348 E0.00115 ; skirt
G1 X93.320 Y111.304 E0.00138 ; skirt
G1 X93.334 Y111.144 E0.00504 ; skirt
G1 X93.339 Y111.093 E0.00160 ; skirt
G1 X93.345 Y111.046 E0.00149 ; skirt
G1 X93.353 Y110.989 E0.00183 ; skirt
G1 X93.361 Y110.938 E0.00160 ; skirt
G1 X93.369 Y110.899 E0.00126 ; skirt
G1 X93.378 Y110.856 E0.00138 ; skirt
G1 X93.387 Y110.816 E0.00126 ; skirt
G1 X93.397 Y110.777 E0.00126 ; skirt
G1 X93.449 Y110.581 E0.00637 ; skirt
G1 X93.464 Y110.528 E0.00172 ; skirt
G1 X93.480 Y110.480 E0.00160 ; skirt
G1 X105.485 Y74.462 E1.19039 ; skirt
G1 X105.502 Y74.414 E0.00160 ; skirt
G1 X105.520 Y74.368 E0.00154 ; skirt
G1 X105.541 Y74.315 E0.00178 ; skirt
G1 X105.562 Y74.265 E0.00172 ; skirt
G1 X105.577 Y74.231 E0.00115 ; skirt
G1 X105.652 Y74.070 E0.00558 ; skirt
G1 X105.675 Y74.024 E0.00160 ; skirt
G1 X105.701 Y73.973 E0.00181 ; skirt
G1 X105.724 Y73.931 E0.00149 ; skirt
G1 X105.748 Y73.890 E0.00149 ; skirt
G1 X105.782 Y73.834 E0.00204 ; skirt
G1 X105.805 Y73.797 E0.00138 ; skirt
G1 X105.823 Y73.770 E0.00103 ; skirt
G1 X105.844 Y73.740 E0.00115 ; skirt
G1 X105.934 Y73.612 E0.00490 ; skirt
G1 X105.953 Y73.585 E0.00103 ; skirt
G1 X105.974 Y73.556 E0.00115 ; skirt
G1 X106.000 Y73.522 E0.00134 ; skirt
G1 X106.023 Y73.493 E0.00115 ; skirt
G1 X106.044 Y73.467 E0.00103 ; skirt
G1 X106.069 Y73.437 E0.00126 ; skirt
G1 X106.097 Y73.404 E0.00134 ; skirt
G1 X106.122 Y73.377 E0.00115 ; skirt
G1 X106.144 Y73.353 E0.00103 ; skirt
G1 X106.185 Y73.311 E0.00183 ; skirt
G1 X106.297 Y73.198 E0.00501 ; skirt
G1 X106.321 Y73.175 E0.00103 ; skirt
G1 X106.347 Y73.149 E0.00115 ; skirt
G1 X106.379 Y73.120 E0.00135 ; skirt
G1 X106.403 Y73.098 E0.00103 ; skirt
G1 X106.431 Y73.074 E0.00115 ; skirt
G1 X106.462 Y73.048 E0.00126 ; skirt
G1 X106.490 Y73.025 E0.00115 ; skirt
G1 X106.530 Y72.994 E0.00158 ; skirt
G1 X106.565 Y72.967 E0.00138 ; skirt
G1 X106.609 Y72.935 E0.00172 ; skirt
G1 X106.758 Y72.831 E0.00570 ; skirt
G1 X106.789 Y72.811 E0.00115 ; skirt
G1 X106.824 Y72.788 E0.00133 ; skirt
G1 X106.857 Y72.768 E0.00121 ; skirt
; PURGING FINISHED
G1 F8640
G1 X106.938 Y72.721 E-0.02145 ; wipe and retract
G1 X106.972 Y72.702 E-0.00906 ; wipe and retract
G1 X107.004 Y72.685 E-0.00844 ; wipe and retract
G1 X107.037 Y72.669 E-0.00844 ; wipe and retract
G1 X107.070 Y72.653 E-0.00844 ; wipe and retract
G1 X107.241 Y72.572 E-0.04365 ; wipe and retract
G1 X107.274 Y72.558 E-0.00844 ; wipe and retract
G1 X107.306 Y72.545 E-0.00780 ; wipe and retract
G1 X107.345 Y72.529 E-0.00973 ; wipe and retract
G1 X107.382 Y72.514 E-0.00928 ; wipe and retract
G1 X107.420 Y72.500 E-0.00928 ; wipe and retract
G1 X107.454 Y72.488 E-0.00844 ; wipe and retract
G1 X107.502 Y72.472 E-0.01170 ; wipe and retract
G1 X107.544 Y72.459 E-0.01013 ; wipe and retract
G1 X107.597 Y72.444 E-0.01266 ; wipe and retract
G1 X107.755 Y72.402 E-0.03772 ; wipe and retract
G1 X107.787 Y72.394 E-0.00760 ; wipe and retract
G1 X107.822 Y72.385 E-0.00844 ; wipe and retract
G1 X107.867 Y72.375 E-0.01067 ; wipe and retract
G1 X107.903 Y72.368 E-0.00844 ; wipe and retract
G1 X107.939 Y72.361 E-0.00844 ; wipe and retract
