; generated by Slic3r Prusa Edition 1.42.0-alpha1+ on 2019-01-01 at 19:02:00

; 

; external perimeters extrusion width = 0.45mm
; perimeters extrusion width = 0.45mm
; infill extrusion width = 0.45mm
; solid infill extrusion width = 0.45mm
; top infill extrusion width = 0.40mm
; first layer extrusion width = 0.42mm

M201 X9000 Y9000 Z500 E10000 ; sets maximum accelerations, mm/sec^2
M203 X500 Y500 Z12 E120 ; sets maximum feedrates, mm/sec
M204 P2000 R1500 T2000 ; sets acceleration (P, T) and retract acceleration (R), mm/sec^2
M205 X10.00 Y10.00 Z0.20 E2.50 ; sets the jerk limits, mm/sec
M205 S0 T0 ; sets the minimum extruding and travel feed rate, mm/sec
M107 ; disable fan
M115 U3.1.0 ; tell printer latest fw version
M83  ; extruder relative mode
M204 S2000 T1500 ; MK2 firmware only supports the old M204 format
M104 S230 ; set extruder temp
M140 S85 ; set bed temp
M190 S85 ; wait for bed temp
M109 S230 ; wait for extruder temp
G28 W ; home all without mesh bed level
G29 ; bed leveling
G1 Y-3.0 F1000.0 ; go outside print area
G92 E0.0
G1 X60.0 E9.0  F1000.0 ; intro line
G1 X100.0 E12.5  F1000.0 ; intro line
G92 E0.0
M900 K45; Filament gcode
G21 ; set units to millimeters
G90 ; use absolute coordinates
M83 ; use relative distances for extrusion
;BEFORE_LAYER_CHANGE
G92 E0.0
;0.2


G1 E-0.80000 F2100.00000 ; retract
G1 Z0.600 F10800.000 ; lift Z
;AFTER_LAYER_CHANGE
;0.2
G1 X96.813 Y72.786 ; move to first skirt point
G1 Z0.200 ; restore layer Z
G1 E0.80000 F2100.00000 ; unretract
M204 S1000 ; adjust acceleration
G1 F600
G1 X96.848 Y72.735 E0.00195 ; skirt
G1 X96.870 Y72.705 E0.00115 ; skirt
G1 X96.894 Y72.673 E0.00126 ; skirt
G1 X97.059 Y72.458 E0.00851 ; skirt
G1 X97.081 Y72.429 E0.00115 ; skirt
G1 X97.121 Y72.381 E0.00195 ; skirt
G1 X97.142 Y72.356 E0.00103 ; skirt
G1 X97.164 Y72.331 E0.00103 ; skirt
G1 X97.206 Y72.286 E0.00195 ; skirt
G1 X97.229 Y72.262 E0.00103 ; skirt
G1 X97.252 Y72.239 E0.00103 ; skirt
G1 X97.276 Y72.216 E0.00103 ; skirt
G1 X97.300 Y72.193 E0.00103 ; skirt
G1 X97.346 Y72.151 E0.00195 ; skirt
G1 X97.393 Y72.111 E0.00195 ; skirt
G1 X97.441 Y72.072 E0.00195 ; skirt
G1 X97.685 Y71.884 E0.00965 ; skirt
G1 X97.735 Y71.848 E0.00195 ; skirt
G1 X97.787 Y71.813 E0.00195 ; skirt
G1 X97.820 Y71.791 E0.00126 ; skirt
G1 X97.854 Y71.769 E0.00126 ; skirt
G1 X97.889 Y71.749 E0.00126 ; skirt
G1 X97.924 Y71.728 E0.00126 ; skirt
G1 X97.959 Y71.709 E0.00126 ; skirt
G1 X97.998 Y71.689 E0.00138 ; skirt
G1 X98.033 Y71.670 E0.00126 ; skirt
G1 X98.070 Y71.653 E0.00126 ; skirt
G1 X98.113 Y71.633 E0.00149 ; skirt
G1 X98.157 Y71.615 E0.00149 ; skirt
G1 X98.410 Y71.509 E0.00862 ; skirt
G1 X98.441 Y71.497 E0.00103 ; skirt
G1 X98.472 Y71.485 E0.00103 ; skirt
G1 X98.503 Y71.474 E0.00103 ; skirt
G1 X98.534 Y71.463 E0.00103 ; skirt
G1 X98.565 Y71.453 E0.00103 ; skirt
G1 X98.596 Y71.443 E0.00103 ; skirt
G1 X98.628 Y71.433 E0.00103 ; skirt
G1 X98.659 Y71.424 E0.00103 ; skirt
G1 X98.719 Y71.409 E0.00195 ; skirt
G1 X98.762 Y71.399 E0.00138 ; skirt
G1 X98.809 Y71.389 E0.00149 ; skirt
G1 X98.852 Y71.380 E0.00138 ; skirt
G1 X98.898 Y71.373 E0.00149 ; skirt
G1 X98.949 Y71.365 E0.00160 ; skirt
G1 X99.214 Y71.330 E0.00839 ; skirt
G1 X99.272 Y71.323 E0.00183 ; skirt
G1 X99.334 Y71.318 E0.00195 ; skirt
G1 X99.396 Y71.314 E0.00195 ; skirt
G1 X99.455 Y71.312 E0.00183 ; skirt
G1 X99.500 Y71.311 E0.00142 ; skirt
G1 X150.504 Y71.311 E1.59918 ; skirt
G1 X150.540 Y71.312 E0.00115 ; skirt
G1 X150.577 Y71.313 E0.00115 ; skirt
G1 X150.613 Y71.314 E0.00115 ; skirt
G1 X150.646 Y71.316 E0.00103 ; skirt
G1 X150.679 Y71.319 E0.00103 ; skirt
G1 X150.715 Y71.322 E0.00115 ; skirt
G1 X150.752 Y71.326 E0.00115 ; skirt
G1 X150.786 Y71.330 E0.00108 ; skirt
G1 X151.052 Y71.365 E0.00841 ; skirt
G1 X151.084 Y71.370 E0.00103 ; skirt
G1 X151.117 Y71.375 E0.00103 ; skirt
G1 X151.167 Y71.384 E0.00160 ; skirt
G1 X151.221 Y71.395 E0.00172 ; skirt
G1 X151.271 Y71.406 E0.00160 ; skirt
G1 X151.320 Y71.419 E0.00160 ; skirt
G1 X151.356 Y71.428 E0.00115 ; skirt
G1 X151.387 Y71.438 E0.00103 ; skirt
G1 X151.419 Y71.447 E0.00103 ; skirt
G1 X151.453 Y71.459 E0.00115 ; skirt
G1 X151.488 Y71.471 E0.00115 ; skirt
G1 X151.522 Y71.483 E0.00115 ; skirt
G1 X151.556 Y71.496 E0.00115 ; skirt
G1 X151.587 Y71.508 E0.00103 ; skirt
G1 X151.844 Y71.615 E0.00873 ; skirt
G1 X151.898 Y71.638 E0.00183 ; skirt
G1 X151.941 Y71.658 E0.00149 ; skirt
G1 X151.987 Y71.681 E0.00160 ; skirt
G1 X152.032 Y71.704 E0.00160 ; skirt
G1 X152.077 Y71.729 E0.00160 ; skirt
G1 X152.106 Y71.745 E0.00103 ; skirt
G1 X152.137 Y71.764 E0.00115 ; skirt
G1 X152.168 Y71.783 E0.00115 ; skirt
G1 X152.199 Y71.803 E0.00115 ; skirt
G1 X152.229 Y71.823 E0.00115 ; skirt
G1 X152.259 Y71.844 E0.00115 ; skirt
G1 X152.289 Y71.865 E0.00115 ; skirt
G1 X152.318 Y71.887 E0.00115 ; skirt
G1 X152.542 Y72.059 E0.00885 ; skirt
G1 X152.588 Y72.095 E0.00183 ; skirt
G1 X152.627 Y72.128 E0.00160 ; skirt
G1 X152.663 Y72.159 E0.00149 ; skirt
G1 X152.698 Y72.191 E0.00149 ; skirt
G1 X152.735 Y72.226 E0.00160 ; skirt
G1 X152.761 Y72.252 E0.00115 ; skirt
G1 X152.784 Y72.276 E0.00103 ; skirt
G1 X152.809 Y72.302 E0.00115 ; skirt
G1 X152.834 Y72.329 E0.00115 ; skirt
G1 X152.856 Y72.354 E0.00103 ; skirt
G1 X152.880 Y72.382 E0.00115 ; skirt
G1 X152.903 Y72.410 E0.00115 ; skirt
G1 X152.926 Y72.438 E0.00115 ; skirt
G1 X153.105 Y72.671 E0.00919 ; skirt
G1 X153.131 Y72.706 E0.00138 ; skirt
G1 X153.156 Y72.741 E0.00138 ; skirt
G1 X153.181 Y72.777 E0.00138 ; skirt
G1 X153.207 Y72.817 E0.00149 ; skirt
G1 X153.231 Y72.854 E0.00138 ; skirt
G1 X153.259 Y72.901 E0.00172 ; skirt
G1 X153.284 Y72.945 E0.00158 ; skirt
G1 X164.284 Y92.945 E0.71568 ; skirt
G1 X164.299 Y92.974 E0.00103 ; skirt
G1 X164.318 Y93.010 E0.00126 ; skirt
G1 X164.336 Y93.046 E0.00126 ; skirt
G1 X164.354 Y93.086 E0.00138 ; skirt
G1 X164.371 Y93.122 E0.00126 ; skirt
G1 X164.388 Y93.162 E0.00137 ; skirt
G1 X164.498 Y93.427 E0.00899 ; skirt
G1 X164.510 Y93.458 E0.00103 ; skirt
G1 X164.521 Y93.489 E0.00103 ; skirt
G1 X164.532 Y93.520 E0.00103 ; skirt
G1 X164.543 Y93.551 E0.00103 ; skirt
G1 X164.562 Y93.610 E0.00195 ; skirt
G1 X164.571 Y93.642 E0.00103 ; skirt
G1 X164.580 Y93.673 E0.00103 ; skirt
G1 X164.588 Y93.705 E0.00103 ; skirt
G1 X164.596 Y93.737 E0.00103 ; skirt
G1 X164.609 Y93.798 E0.00195 ; skirt
G1 X164.616 Y93.830 E0.00103 ; skirt
G1 X164.621 Y93.862 E0.00103 ; skirt
G1 X164.627 Y93.895 E0.00103 ; skirt
G1 X164.632 Y93.927 E0.00103 ; skirt
G1 X164.669 Y94.209 E0.00891 ; skirt
G1 X164.674 Y94.249 E0.00126 ; skirt
G1 X164.678 Y94.289 E0.00126 ; skirt
G1 X164.682 Y94.329 E0.00126 ; skirt
G1 X164.684 Y94.373 E0.00138 ; skirt
G1 X164.686 Y94.413 E0.00126 ; skirt
G1 X164.687 Y94.453 E0.00126 ; skirt
G1 X164.688 Y94.494 E0.00129 ; skirt
G1 X164.689 Y97.500 E0.09423 ; skirt
G1 X164.688 Y97.562 E0.00195 ; skirt
G1 X164.686 Y97.605 E0.00138 ; skirt
G1 X164.683 Y97.649 E0.00138 ; skirt
G1 X164.680 Y97.693 E0.00138 ; skirt
G1 X164.676 Y97.737 E0.00138 ; skirt
G1 X164.670 Y97.784 E0.00149 ; skirt
G1 X164.632 Y98.070 E0.00905 ; skirt
G1 X164.627 Y98.106 E0.00115 ; skirt
G1 X164.621 Y98.138 E0.00103 ; skirt
G1 X164.615 Y98.171 E0.00103 ; skirt
G1 X164.609 Y98.203 E0.00103 ; skirt
G1 X164.602 Y98.235 E0.00103 ; skirt
G1 X164.595 Y98.267 E0.00103 ; skirt
G1 X164.587 Y98.299 E0.00103 ; skirt
G1 X164.577 Y98.334 E0.00115 ; skirt
G1 X164.568 Y98.367 E0.00107 ; skirt
G1 X153.564 Y136.380 E1.24080 ; skirt
G1 X153.548 Y136.433 E0.00172 ; skirt
G1 X153.526 Y136.497 E0.00214 ; skirt
G1 X153.506 Y136.552 E0.00183 ; skirt
G1 X153.484 Y136.608 E0.00188 ; skirt
G1 X153.392 Y136.830 E0.00754 ; skirt
G1 X153.372 Y136.877 E0.00160 ; skirt
G1 X153.355 Y136.914 E0.00126 ; skirt
G1 X153.336 Y136.953 E0.00138 ; skirt
G1 X153.313 Y137.000 E0.00164 ; skirt
G1 X153.292 Y137.039 E0.00138 ; skirt
G1 X153.276 Y137.068 E0.00103 ; skirt
G1 X153.260 Y137.096 E0.00103 ; skirt
G1 X153.228 Y137.150 E0.00195 ; skirt
G1 X153.195 Y137.202 E0.00195 ; skirt
G1 X153.160 Y137.253 E0.00195 ; skirt
G1 X153.137 Y137.286 E0.00126 ; skirt
G1 X153.111 Y137.321 E0.00138 ; skirt
G1 X152.956 Y137.525 E0.00801 ; skirt
G1 X152.931 Y137.556 E0.00126 ; skirt
G1 X152.885 Y137.612 E0.00227 ; skirt
G1 X152.844 Y137.659 E0.00195 ; skirt
G1 X152.822 Y137.684 E0.00103 ; skirt
G1 X152.800 Y137.708 E0.00103 ; skirt
G1 X152.777 Y137.731 E0.00103 ; skirt
G1 X152.754 Y137.755 E0.00103 ; skirt
G1 X152.730 Y137.778 E0.00103 ; skirt
G1 X152.707 Y137.801 E0.00103 ; skirt
G1 X152.661 Y137.842 E0.00195 ; skirt
G1 X152.625 Y137.873 E0.00147 ; skirt
G1 X152.600 Y137.895 E0.00103 ; skirt
G1 X152.572 Y137.918 E0.00115 ; skirt
G1 X152.546 Y137.939 E0.00103 ; skirt
G1 X152.314 Y138.117 E0.00917 ; skirt
G1 X152.288 Y138.136 E0.00103 ; skirt
G1 X152.261 Y138.155 E0.00103 ; skirt
G1 X152.210 Y138.190 E0.00195 ; skirt
G1 X152.176 Y138.212 E0.00126 ; skirt
G1 X152.142 Y138.233 E0.00126 ; skirt
G1 X152.107 Y138.254 E0.00126 ; skirt
G1 X152.072 Y138.274 E0.00126 ; skirt
G1 X152.040 Y138.291 E0.00115 ; skirt
G1 X151.990 Y138.317 E0.00177 ; skirt
G1 X151.955 Y138.335 E0.00126 ; skirt
G1 X151.918 Y138.353 E0.00126 ; skirt
G1 X151.875 Y138.373 E0.00149 ; skirt
G1 X151.831 Y138.391 E0.00149 ; skirt
G1 X151.598 Y138.488 E0.00791 ; skirt
G1 X151.568 Y138.500 E0.00103 ; skirt
G1 X151.534 Y138.513 E0.00115 ; skirt
G1 X151.503 Y138.524 E0.00103 ; skirt
G1 X151.472 Y138.535 E0.00103 ; skirt
G1 X151.432 Y138.548 E0.00132 ; skirt
G1 X151.397 Y138.559 E0.00115 ; skirt
G1 X151.366 Y138.569 E0.00103 ; skirt
G1 X151.334 Y138.578 E0.00103 ; skirt
G1 X151.302 Y138.586 E0.00103 ; skirt
G1 X151.267 Y138.595 E0.00115 ; skirt
G1 X151.227 Y138.604 E0.00126 ; skirt
G1 X151.184 Y138.613 E0.00138 ; skirt
G1 X151.141 Y138.621 E0.00138 ; skirt
G1 X151.098 Y138.628 E0.00138 ; skirt
G1 X151.051 Y138.635 E0.00149 ; skirt
G1 X150.792 Y138.670 E0.00821 ; skirt
G1 X150.755 Y138.674 E0.00115 ; skirt
G1 X150.715 Y138.678 E0.00127 ; skirt
G1 X150.653 Y138.683 E0.00195 ; skirt
G1 X150.620 Y138.685 E0.00103 ; skirt
G1 X150.587 Y138.687 E0.00103 ; skirt
G1 X150.554 Y138.688 E0.00103 ; skirt
G1 X150.518 Y138.688 E0.00115 ; skirt
G1 X99.500 Y138.689 E1.59963 ; skirt
G1 X99.467 Y138.688 E0.00103 ; skirt
G1 X99.412 Y138.687 E0.00172 ; skirt
G1 X99.358 Y138.684 E0.00172 ; skirt
G1 X99.307 Y138.680 E0.00160 ; skirt
G1 X99.244 Y138.674 E0.00197 ; skirt
G1 X99.197 Y138.668 E0.00149 ; skirt
G1 X98.955 Y138.636 E0.00766 ; skirt
G1 X98.911 Y138.630 E0.00138 ; skirt
G1 X98.868 Y138.623 E0.00138 ; skirt
G1 X98.818 Y138.613 E0.00160 ; skirt
G1 X98.768 Y138.603 E0.00160 ; skirt
G1 X98.718 Y138.591 E0.00160 ; skirt
G1 X98.668 Y138.578 E0.00160 ; skirt
G1 X98.623 Y138.565 E0.00149 ; skirt
G1 X98.559 Y138.545 E0.00209 ; skirt
G1 X98.511 Y138.529 E0.00160 ; skirt
G1 X98.462 Y138.512 E0.00160 ; skirt
G1 X98.428 Y138.499 E0.00115 ; skirt
G1 X98.394 Y138.485 E0.00115 ; skirt
G1 X98.167 Y138.391 E0.00771 ; skirt
G1 X98.117 Y138.369 E0.00172 ; skirt
G1 X98.064 Y138.345 E0.00183 ; skirt
G1 X98.007 Y138.316 E0.00199 ; skirt
G1 X97.962 Y138.293 E0.00160 ; skirt
G1 X97.914 Y138.266 E0.00172 ; skirt
G1 X97.867 Y138.238 E0.00172 ; skirt
G1 X97.820 Y138.209 E0.00172 ; skirt
G1 X97.774 Y138.179 E0.00172 ; skirt
G1 X97.729 Y138.148 E0.00172 ; skirt
G1 X97.703 Y138.129 E0.00103 ; skirt
G1 X97.673 Y138.107 E0.00115 ; skirt
G1 X97.476 Y137.956 E0.00778 ; skirt
G1 X97.444 Y137.931 E0.00126 ; skirt
G1 X97.396 Y137.892 E0.00196 ; skirt
G1 X97.363 Y137.864 E0.00138 ; skirt
G1 X97.324 Y137.830 E0.00160 ; skirt
G1 X97.289 Y137.797 E0.00149 ; skirt
G1 X97.253 Y137.762 E0.00160 ; skirt
G1 X97.217 Y137.725 E0.00160 ; skirt
G1 X97.182 Y137.688 E0.00160 ; skirt
G1 X97.147 Y137.650 E0.00160 ; skirt
G1 X97.109 Y137.606 E0.00183 ; skirt
G1 X97.082 Y137.573 E0.00133 ; skirt
G1 X97.062 Y137.547 E0.00103 ; skirt
G1 X96.899 Y137.335 E0.00840 ; skirt
G1 X96.872 Y137.300 E0.00138 ; skirt
G1 X96.849 Y137.267 E0.00126 ; skirt
G1 X96.826 Y137.234 E0.00126 ; skirt
G1 X96.804 Y137.200 E0.00126 ; skirt
G1 X96.778 Y137.160 E0.00149 ; skirt
G1 X96.756 Y137.123 E0.00138 ; skirt
G1 X96.734 Y137.085 E0.00138 ; skirt
G1 X96.710 Y137.043 E0.00151 ; skirt
G1 X96.690 Y137.004 E0.00138 ; skirt
G1 X96.671 Y136.968 E0.00126 ; skirt
G1 X96.652 Y136.929 E0.00138 ; skirt
G1 X96.635 Y136.892 E0.00126 ; skirt
G1 X96.622 Y136.862 E0.00103 ; skirt
G1 X96.610 Y136.834 E0.00097 ; skirt
G1 X96.516 Y136.607 E0.00769 ; skirt
G1 X96.499 Y136.566 E0.00138 ; skirt
G1 X96.483 Y136.522 E0.00149 ; skirt
G1 X96.468 Y136.481 E0.00138 ; skirt
G1 X96.451 Y136.429 E0.00170 ; skirt
G1 X96.438 Y136.387 E0.00138 ; skirt
G1 X85.430 Y98.360 E1.24126 ; skirt
G1 X85.420 Y98.325 E0.00115 ; skirt
G1 X85.410 Y98.286 E0.00126 ; skirt
G1 X85.402 Y98.251 E0.00115 ; skirt
G1 X85.393 Y98.211 E0.00126 ; skirt
G1 X85.386 Y98.176 E0.00115 ; skirt
G1 X85.378 Y98.136 E0.00126 ; skirt
G1 X85.372 Y98.096 E0.00126 ; skirt
G1 X85.366 Y98.060 E0.00115 ; skirt
G1 X85.330 Y97.784 E0.00875 ; skirt
G1 X85.323 Y97.722 E0.00195 ; skirt
G1 X85.318 Y97.671 E0.00160 ; skirt
G1 X85.315 Y97.620 E0.00160 ; skirt
G1 X85.313 Y97.569 E0.00160 ; skirt
G1 X85.312 Y97.518 E0.00160 ; skirt
G1 X85.311 Y94.497 E0.09471 ; skirt
G1 X85.312 Y94.457 E0.00126 ; skirt
G1 X85.313 Y94.416 E0.00126 ; skirt
G1 X85.315 Y94.373 E0.00138 ; skirt
G1 X85.318 Y94.333 E0.00126 ; skirt
G1 X85.323 Y94.278 E0.00172 ; skirt
G1 X85.329 Y94.227 E0.00160 ; skirt
G1 X85.365 Y93.952 E0.00870 ; skirt
G1 X85.371 Y93.908 E0.00138 ; skirt
G1 X85.381 Y93.851 E0.00183 ; skirt
G1 X85.392 Y93.793 E0.00183 ; skirt
G1 X85.405 Y93.736 E0.00183 ; skirt
G1 X85.419 Y93.680 E0.00183 ; skirt
G1 X85.435 Y93.623 E0.00183 ; skirt
G1 X85.452 Y93.567 E0.00183 ; skirt
G1 X85.471 Y93.512 E0.00183 ; skirt
G1 X85.491 Y93.457 E0.00183 ; skirt
G1 X85.510 Y93.410 E0.00160 ; skirt
G1 X85.615 Y93.156 E0.00862 ; skirt
G1 X85.632 Y93.115 E0.00138 ; skirt
G1 X85.652 Y93.072 E0.00149 ; skirt
G1 X85.668 Y93.039 E0.00115 ; skirt
G1 X85.684 Y93.006 E0.00115 ; skirt
G1 X85.701 Y92.974 E0.00115 ; skirt
G1 X85.716 Y92.945 E0.00103 ; skirt
G1 X96.720 Y72.939 E0.71590 ; skirt
G1 X96.751 Y72.885 E0.00195 ; skirt
G1 X96.780 Y72.836 E0.00179 ; skirt
; PURGING FINISHED
G1 F8640
G1 X96.848 Y72.735 E-0.02820 ; wipe and retract
G1 X96.870 Y72.705 E-0.00844 ; wipe and retract
G1 X96.894 Y72.673 E-0.00928 ; wipe and retract
G1 X97.059 Y72.458 E-0.06265 ; wipe and retract
G1 X97.081 Y72.429 E-0.00844 ; wipe and retract
G1 X97.121 Y72.381 E-0.01435 ; wipe and retract
G1 X97.142 Y72.356 E-0.00760 ; wipe and retract
G1 X97.164 Y72.331 E-0.00760 ; wipe and retract
G1 X97.206 Y72.286 E-0.01435 ; wipe and retract
G1 X97.229 Y72.262 E-0.00760 ; wipe and retract
G1 X97.252 Y72.239 E-0.00760 ; wipe and retract
G1 X97.276 Y72.216 E-0.00760 ; wipe and retract
G1 X97.300 Y72.193 E-0.00760 ; wipe and retract
G1 X97.346 Y72.151 E-0.01435 ; wipe and retract
G1 X97.393 Y72.111 E-0.01435 ; wipe and retract
G1 X97.441 Y72.072 E-0.01435 ; wipe and retract
G1 X97.685 Y71.884 E-0.07106 ; wipe and retract
G1 X97.735 Y71.848 E-0.01435 ; wipe and retract
G1 X97.787 Y71.813 E-0.01435 ; wipe and retract
G1 X97.820 Y71.791 E-0.00928 ; wipe and retract
G1 X97.854 Y71.769 E-0.00928 ; wipe and retract
G1 X97.889 Y71.749 E-0.00928 ; wipe and retract
G1 X97.924 Y71.728 E-0.00928 ; wipe and retract
G1 X97.959 Y71.709 E-0.00928 ; wipe and retract
G1 X97.998 Y71.689 E-0.01013 ; wipe and retract
G1 X98.033 Y71.670 E-0.00928 ; wipe and retract
G1 X98.070 Y71.653 E-0.00928 ; wipe and retract
G1 X98.113 Y71.633 E-0.01097 ; wipe and retract
G1 X98.157 Y71.615 E-0.01097 ; wipe and retract
G1 X98.410 Y71.509 E-0.06346 ; wipe and retract
G1 X98.441 Y71.497 E-0.00760 ; wipe and retract
G1 X98.472 Y71.485 E-0.00760 ; wipe and retract
G1 X98.503 Y71.474 E-0.00760 ; wipe and retract
G1 X98.534 Y71.463 E-0.00760 ; wipe and retract
G1 X98.565 Y71.453 E-0.00760 ; wipe and retract
G1 X98.596 Y71.443 E-0.00760 ; wipe and retract
G1 X98.628 Y71.433 E-0.00760 ; wipe and retract
G1 X98.659 Y71.424 E-0.00760 ; wipe and retract
G1 X98.719 Y71.409 E-0.01435 ; wipe and retract
G1 X98.762 Y71.399 E-0.01013 ; wipe and retract
G1 X98.809 Y71.389 E-0.01097 ; wipe and retract
